/* XPM */
static char *_177ee7fddf9450de63744e66407ed1cvBGDQ78FhulSXcB1[] = {
/* columns rows colors chars-per-pixel */
"64 64 6 1 ",
"  c #1A1620",
". c #141119",
"X c #1F1A27",
"o c #0A080D",
"O c #261F2E",
"+ c #352A3E",
/* pixels */
"o....   XXX  XXXXOOOOOOOOOOOXXXXXXOOOOOOOOOOOOOOOOOXOXXX     ..o",
"o. oo.....o.........o...o.o......................o........o.o  o",
"o Xoooooooooooooo.o....o..      ........o.o...ooo.ooooooooooo Xo",
". Xoo.... XXXOOOOOOOOOO+++++OOX  XOOO+OOOOXOOO OOOOOX ..  ..o Xo",
"o  oo..XX XXOOOXOOOO+O+OOX ......oo.. XOXXOOXOOXOOOO  XOO  .o Xo",
". Xo.. OOOO XOXOOOOOOX..o.... XXXX ....o. XOOOOOOOOOXXOOOX .o X.",
"o Xo. XOXOXOOOO+OOX.oo. .o OO      OOX....oo.XOOOXXOO .XXX .o X.",
".  oo.XXXXOOOOOX.ooo X XXo.. OX  OOX...OX   ooo.XOOOOX X   .o  o",
".  ..   XXXOO ooo..XOXXOO.X ..OOOO..   OOXXXX .oo. OX OXX  .. ..",
"ooXXXXXOOOOXooo.  OO XXOO XXXX OO. X X OOXXXOO  .ooo OXOOXXXXXo.",
"o.o.......ooo. X XO.XOXOO XXXXXXXXOO X OOOOX OOX  .ooo.......oo.",
"..o.oo....oo  XXXO XXOXOO XXXXOXXXX  O OOOXXX.OX .  oo.....ooo..",
". o. OOO  o   XXOO XXXXOX XXXXOXXOX OOXOOXXXX OX.    o.  O   o  ",
"  o.O+++X o .OXOXO XXXXX XXXXOOXXOO  OXOXXXX XOX.OO ..  +++X o  ",
". o  OOXX o  OOOXO XXX XOXXOXXOXOX XXX OOXXXX XX XO .. X+++X o  ",
". o. O+OX o  OOOO  XXXXOOXOOOOOXXOXOOXXOOXXOX X .XO ...XXOXX o .",
"  o. X+XX o. OOX . XXXXXOXOOOOOOOOOOOOXOXXX XX .  X .o.XO+OO o  ",
"  o.X+O+X o  XX. X  XXXXOXOXOXOXX+OOOOXOXOXX X X.X ....XO+XX o  ",
" Xo. O+O  o  X.. XXXXXXXOXOO+O+X ++OOOXOOXX  OX  .X ...XX+XX oX ",
" Xo.XO+O  .  .. XXXXXXXXOXOO++OXX+++OOXOXXX  XOX..  .o.XO+OX.oX ",
"  o.XOOOX o  .  X. OXXXOXXOOX++  ++XOOXXOOX XX.X .. .o.  OXX o  ",
"  o  X+X  o X.  X. OXXOX OOOO++  ++OXOX XOX XX.X  .X.o. O+OX o  ",
"  o.X+++X.o X.  X..XOOXOX O+++O..X+++O XOXOXO. X  .X o.X++OX o .",
" Xo. O+O .o X..XXO . XXOXO XX O  X XX XXXXX . OX  .X ..X+O+O.oX.",
".Xo. XOX  o X.  XOOX.. OOX XOOOXXOXOX OOOX..OOXX. .X.o.XXOXX.oX.",
" Xo.X+++X.o X.  X XO .OO  X OXXXOO OOX.OOO. O X   . .o.XO+OX oX.",
" Xo. OOO .o X.  OX O.XOO.O  OX.O+ XOXO .OOO.O XX  . .o.XO+OX oX.",
"  o  O+O  o X. XXOXO XOO.XX. XO..OOXX . OOX OXX   .. o.XXOX  oX.",
"  o. X+X  o X.   X XO.OOXo OX X  XXOX..OOOoOXOX   .. ..X+++X oX.",
".Xo XO++X o X. X  X  ...OOX XXO XXX . OOX..  X    . .o.XXOOX o .",
".Xo.XOOO  o  .  XXXXXXO .XO+OOX  XOO+OX. OXX  X  .. .o XX+X .oX.",
".XooXO+O .o X.  XXXXOXX   .oX++. ++O..  X XO        .o.X+++O.oX.",
".Xo XOOOX o X.  XXXXO  OOX   O+X.+O  XXOX  X.OOXX X o..XOOXX oX ",
". o.XO+OX o X.  XXXXXXOX.XXO.X+..+X.OOX.XXXX.. OO  .o..XOOOO.o  ",
"  o. O+OX o X.   XX X  XXXXOX.+..+  OXXX . X oO++O.o.o.XO+OX.oX ",
"  o. XOX  o  ..   O  XXXXXXX.OO..O+.OX XXX ..........o. XOX .oX ",
". o.X+O+X o X..  X .OXXXXXOOX.OX + XXX OXXXX.oX.oo ..o.X+++X.oX ",
". o. OOOX o X..  X.OXOOOXXXXXX .X XOXX XXX  XoXXo  ..o.XOOOX.o  ",
". o.XO+OX o X. . X.XXXXOO XOXXX. X. XX XXXX X.XXo X..o.XXOXX.o .",
".Xo XO+O .o  . .  XXOOXXO XXXXX XX. XX OXXXXX.     o.o.XO++X.o .",
". o. XOX .o  ..   XXXO XX XXXXX.. XXXX OX XX  .......o.XOXOX.o .",
". o. O+O .o X. .  X  X XX XXXX.  XXXXXXOX X  X  ... .o.XO+OX.o .",
"  o   OX  o  ....   XX XX XXXX . XXXXX XX X  X  ... .o. XOX .o  ",
" Xo. OOO  o  ..     XX XX XXXXX  XXXXX XXXX     ... .o.XOOOX.o  ",
"  o.XOO+X o. o         XX XXXXXXXXX XX.XX  X    ... .o.XOOOX.o  ",
"  o. XOX .o  o.. .      .  XX X  XX XX.X        ... .o. XOX .o  ",
"  o.XO+OX.o  o....    ...  XX X  XX   .X     .  ..o .o. O+OX.o .",
".Xo. XOX  o .o....    .X   X  X  X    .X X      . ...o.XOOOX.o .",
". o.  OX .o. . . . ...     X  X  X    .X        ..  .o. XOX .o  ",
". o.XO+O .o. ...  ..       X XX  X    .       . ..  .o.XOOOX.o  ",
". o..XOX .o.. .. . .      X  XX  X    .         .  ..o. X+OX.o  ",
"  o.. X ..o. ....  ..        X X      ... .   .   o..o.. X  oo  ",
" .o.      o... .... ..   . .   XX  . ..   .    X ....o     ..oo ",
" o.  XXOXX o  ... .o..   . . X .. X   .   ...X ..   o.XXXX   .o ",
".o....  . .o. X .... .   .            .   ... ..   .oX     ...o.",
" ooooooooooo..   . .... .. .  .  . . .... ...    . .ooooooooooo.",
" oo.. XXX oo.   .. .... ..... XXX ........... ..   .oo.X X  .oo ",
" oo XXOOO ooo..  ......o.o.. X ..   ..o....  . X .oooo.OXXXX o. ",
" oo  XXXO oo. ..   ..   .. X .o  .. X .    .. X .. .oo.OXXX  oo.",
" oo    XO.oo...oo.. ...   ..o. .. .o........  .o....oo.XXXX  oo.",
".oo ..  X.oo.      XXXXXXXOXXXOXXXOOXXOXXXX  XXX   .oo.      ooo",
"ooo..... .oo.....                              . ...oo. . ...ooo",
"oo..   XXXoooo...............o..o...o.............oooo      ..oo",
"oooooo....oooooooooooooooooooooooooooooooooooooooooooo....ooo.oo"
};
