/* XPM */
static char *out[] = {
/* columns rows colors chars-per-pixel */
"80 64 10 1 ",
"  c None",
". c #01160D",
"X c #4D0A04",
"o c #95100A",
"O c #C72604",
"+ c #C67544",
"@ c #FF684A",
"# c #BAA29E",
"$ c #DDB292",
"% c #FCF4F3",
/* pixels */
"                                                                                ",
"                                                                                ",
"                                                                                ",
"                                                                                ",
"                                                                                ",
"                                                                                ",
"                                                                                ",
"                                                                                ",
"                                                                                ",
"                                                                                ",
"                                                                                ",
"                                                                                ",
"                                                                                ",
"                                                                                ",
"                                                                                ",
"                                                                                ",
"                                                                                ",
"                                                                                ",
"                                                                                ",
"                                                                                ",
"                                                                                ",
"                                                                                ",
"                                                                                ",
"                                                                                ",
"                                                                                ",
"                                                                                ",
"                                                                                ",
"                                                                                ",
"                                                                                ",
"                                                                                ",
"                                                                                ",
"                                                                                ",
"                                                                                ",
"                                                                                ",
"                                                                                ",
"                                                                                ",
"                                                                                ",
"                                                                                ",
"                                                                                ",
"                                                                                ",
"                                                                                ",
"                                                                                ",
"                                                                                ",
"                                                                                ",
"                                                                                ",
"                                                                                ",
"                                                                                ",
"                                                                                ",
"              .....                                                             ",
"            ..oXXXX..                                                           ",
"           .oo#ooXXX.                                                           ",
"          .oO##oooXX.                                                           ",
"         .OOOOOo##o#.                                                           ",
"         .OOOOOO##oX.                                                           ",
"        .O%OOOOOOooX.                                                           ",
"        .OOOOOOO#ooo.                                                           ",
"       .OOOOO%%OOOoo.                                                           ",
"       .O@OOO%%OOOooX.                                                          ",
"       .O%@OOOOOOOooX.........                                                  ",
"       .O@@OOOOOOO##X.+$$$$$$$..                                                ",
"       .O@@@OOOOOO##X.+$$$$$$$$$.....                                           ",
"       .%@@@OOOOOooXX.+...$$$$$$$+..+...                                        ",
"       .%%@@@O##oooXX..+++.$$$$$$++$.+++.                                       ",
"        .O@@@O##ooXX...+++.$$$$$$$$$$.++.                                       "
};
