/* XPM */
static char *out[] = {
/* columns rows colors chars-per-pixel */
"80 64 11 1 ",
"  c None",
". c #01160D",
"X c #4D0A04",
"o c #7C422B",
"O c #95100A",
"+ c #C72604",
"@ c #C67544",
"# c #FF684A",
"$ c #BAA29E",
"% c #DDB292",
"& c #FCF4F3",
/* pixels */
"                                                                                ",
"                                                                                ",
"                                                                                ",
"                                                                                ",
"                                                                                ",
"                                                                                ",
"                                                                                ",
"                                                                                ",
"                                                                                ",
"                                                                                ",
"                                                                                ",
"                                                                                ",
"                                                                                ",
"                                                                                ",
"                                                                                ",
"                                                                                ",
"                                                                                ",
"                                                                                ",
"                                                                                ",
"                                                                                ",
"                                                                                ",
"                                                                                ",
"                                                                                ",
"                                                                                ",
"                                                                                ",
"                                                                                ",
"                                                                                ",
"                                                                                ",
"                                                                                ",
"                                                                                ",
"                                      ........                                  ",
"                                    ..++++++++..                                ",
"                                 ...+++####&++++...                             ",
"                                .+&&###&##++++&&++O.                            ",
"                               .+#######++++++&&++O$.                           ",
"                              .######&&++++++++++++$$.                          ",
"                             .+&##+++&&++++++++++++OOX.                         ",
"                             .++++++++++++++$+++++OOOO.                         ",
"                            .O+++++++++$$++++++++OO$$OX.                        ",
"                            .O&O+++++++$$++++++OOOO$$OX.                        ",
"                           .XO&OOOO+++++++++OOOOOOOOOOXX.                       ",
"                           .XOOOOOOOOOOOOOOOOO$$OOOOXXXX.                       ",
"                           .XXXOOOO$OOOOOOOOOO$$OXXXXXXX.                       ",
"                           .XXXXXOOOOOOOOOOOOXXXXXXX$XXX.                       ",
"                           .XXXXXXXXXXXXXXXXXXXXXXXXXXXX.                       ",
"                            .........o..o..oooo.........                        ",
"                                    ..@@o@@..@@.                                ",
"                                    .@&o@&oo@@@.                                ",
"                                    .%&o%&oo@%%.                                ",
"                                   .%%&o%&oo@%%.                                ",
"                                   .%%%%%%%%%%%.                                ",
"                                 ..%%%oo%%%...%.                                ",
"                                .@.%%%oo%%.@@@..                                ",
"                                .@.%%%oo%%.@@@..                                ",
"                                .@.%%%%%%%.@@@..                                ",
"                                 ..%%%%%%%%...%.                                ",
"                                  .%%%%%%%%%%%%.                                ",
"                                   .%%%%%%%%%%.                                 ",
"                                    .@%%%%%%@..                                 ",
"                                    .@@...@@@@.                                 ",
"                                    .@@@. .%@@.                                 ",
"                                    .@@@. .%%%.                                 ",
"                                   .@@@.  .%%%.                                 ",
"                                   .@@.    .%%.                                 "
};
