/* XPM */
static char *out[] = {
/* columns rows colors chars-per-pixel */
"80 64 11 1 ",
"  c None",
". c #01160D",
"X c #4D0A04",
"o c #7C422B",
"O c #95100A",
"+ c #C72604",
"@ c #C67544",
"# c #FF684A",
"$ c #BAA29E",
"% c #DDB292",
"& c #FCF4F3",
/* pixels */
"                                                                                ",
"                                                                                ",
"                                                                                ",
"                                                                                ",
"                                                                                ",
"                                                                                ",
"                                                                                ",
"                                                                                ",
"                                                                                ",
"                                                                                ",
"                                                                                ",
"                                                                                ",
"                                                                                ",
"                                                                                ",
"                                                                                ",
"                                                                                ",
"                                                                                ",
"                                                                                ",
"                                                                                ",
"                                                                                ",
"                                                                                ",
"                                                                                ",
"                                                                                ",
"                                                                                ",
"                                                                                ",
"                                                                                ",
"                                                                                ",
"                                                                                ",
"                                                                                ",
"                                                                                ",
"                                                                                ",
"                                                                                ",
"                                                                                ",
"                                                                                ",
"                                                                                ",
"                                                                                ",
"                                                                                ",
"                             .........                                          ",
"                           ..++++++++O..                                        ",
"                         ..+++++++++++O$.                                       ",
"                        .+++###&+++++++$$..                                     ",
"                       .++####+++&&++++OOOX.                                    ",
"                      .++#&##++++&&++++O$$OX.                                   ",
"                     .&&####++++++++++OO$$OXX.                                  ",
"                     .&####+++++++$+++OOOOOXX.                                  ",
"                    .++###&&+++++++++OOOOOX$X.                                  ",
"                    .+####&&++$$+++++OOOOXXX..                                  ",
"                    .+###+++++$$+++O$$OOXXX.                                    ",
"                    .+&#+++++++++OOO$$OXX..                                     ",
"                    .O+++++++++OOOOOOXXX.                                       ",
"                    .OO+++++OOOOOOXXX...                                        ",
"                     .O&OOOOOOOXXX...@@.                                        ",
"                     .X&OOO$OXX...@oo%%%.                                       ",
"                     .XXXXXXXX..oo%@@%%%%.                                      ",
"                      .XXXX... .o@%%%%%%%%.                                     ",
"                      .....    .%%%%%%%%%%.                                     ",
"                                .%oo...%%%%.                                    ",
"                             ....%o.@@@.%%%%.                                   ",
"                            .@@@..%.@@@.%%%%.                                   ",
"                            .@@@..%.@@@.%%%%%.                                  ",
"                            .@@@. .%...%%%%%%.                                  ",
"                             ...  .%%%%%%%%@.                                   ",
"                                   .@%%.%%@@@...                                ",
"                                    .@@@..%%%%%.                                "
};
