/* XPM */
static char *out[] = {
/* columns rows colors chars-per-pixel */
"80 64 10 1 ",
"  c None",
". c #01160D",
"X c #4D0A04",
"o c #95100A",
"O c #C72604",
"+ c #C67544",
"@ c #FF684A",
"# c #BAA29E",
"$ c #DDB292",
"% c #FCF4F3",
/* pixels */
"                                                                                ",
"                                                                                ",
"                                                                                ",
"                                                                                ",
"                                                                                ",
"                                                                                ",
"                                                                                ",
"                                                                                ",
"                                                                                ",
"                                                                                ",
"                                                                                ",
"                                                                                ",
"                                                                                ",
"                                                                                ",
"                                                                                ",
"                                                                                ",
"                                                                                ",
"                                                                                ",
"                                                                                ",
"                                                                                ",
"                                                                                ",
"                                                                                ",
"                                                                                ",
"                                                                                ",
"                                                                                ",
"                                                                                ",
"                                                                                ",
"                                                                                ",
"                                                                                ",
"                                                                                ",
"                                                                                ",
"                                                                                ",
"                                                                                ",
"                                                                                ",
"                                                                                ",
"                                                                                ",
"                                                                                ",
"                                                                                ",
"                                                                                ",
"                                                                                ",
"                                                                                ",
"                                                                                ",
"                                                                                ",
"                                                                                ",
"                                                                                ",
"                                                                                ",
"                                                                                ",
"                                                                                ",
"                                                                                ",
"                 .....                                                          ",
"               ..#oXXX..                                                        ",
"              .o##ooXXX.                                                        ",
"             .oOOOo##X#.                                                        ",
"            .OOOOOO##X.                                                         ",
"            .%OOOOOooo.                                                         ",
"           .OOOOOOO#oo.                                                         ",
"           .OOOO%%OOooX.                                                        ",
"          .OOOOO%%OOooX..                                                       ",
"          .O%OOOOOOOOooX...........                                             ",
"          .O@@OOOOOOO##X.+$$$$$$$$$..                                           ",
"          .O@@OOOOOOO##X.+$$$$$$$$$$$.....                                      ",
"          .%@@@OOOOOoooX.+$$...$$$$$$$+..+...                                   ",
"          .%%@@OO##OooXX.+$.+++.$$$$$$++$.+++.                                  ",
"           .O@@@O##ooXX..$$.+++.$$$$$$$$$$.++.                                  "
};
