/* XPM */
static char *out[] = {
/* columns rows colors chars-per-pixel */
"80 64 10 1 ",
"  c None",
". c #01160D",
"X c #4D0A04",
"o c #95100A",
"O c #C72604",
"+ c #C67544",
"@ c #FF684A",
"# c #BAA29E",
"$ c #DDB292",
"% c #FCF4F3",
/* pixels */
"                                                                                ",
"                                                                                ",
"                                                                                ",
"                                                                                ",
"                                                                                ",
"                                                                                ",
"                                                                                ",
"                                                                                ",
"                                                                                ",
"                                                                                ",
"                                                                                ",
"                                                                                ",
"                                                                                ",
"                                                                                ",
"                                                                                ",
"                                                                                ",
"                                                                                ",
"                                                                                ",
"                                                                                ",
"                                                                                ",
"                                                                                ",
"                                                                                ",
"                                                                                ",
"                                                                                ",
"                                                                                ",
"                                                                                ",
"                                                                                ",
"                                                                                ",
"                                                                                ",
"                                                                                ",
"                                                                                ",
"                                                                                ",
"                                                                                ",
"                                                                                ",
"                                                                                ",
"                                                                                ",
"                                                                                ",
"                                                                                ",
"                                                                                ",
"                                                                                ",
"                                                                                ",
"                                                                                ",
"                                                                                ",
"                                                                                ",
"                                                                                ",
"                                                                                ",
"                                                                                ",
"                                                                                ",
"                                                                                ",
"                                                                                ",
"                                                                                ",
"               .....                                                            ",
"             ..#oXXX..                                                          ",
"            .o##oooXX.                                                          ",
"           .oOOOo##o#.                                                          ",
"          .%OOOOOoooX.                                                          ",
"          .OOOOOO#ooo.                                                          ",
"         .OOOO%%OOooo.                                                          ",
"         .OOOO%%OOOooX.                                                         ",
"        .O%OOOOOOOOooX...........                                               ",
"        .O@@OOOOOOO##X.+$$$$$$$$$..                                             ",
"        .%@@@OOOOOooXX.+$$$$$$$$$$$.....                                        ",
"        .%%@@OO##OooXX.+...$$$$$$$$$+..+...                                     ",
"         .O@@@O##ooXX...+++.$$$$$$$$++$.+++.                                    "
};
