/* XPM */
static char *out[] = {
/* columns rows colors chars-per-pixel */
"64 64 73 1 ",
"  c None",
". c #130215",
"X c #130217",
"o c #140115",
"O c #170416",
"+ c #1E0417",
"@ c #190018",
"# c #3C061A",
"$ c #3E081F",
"% c #340922",
"& c #3F0B20",
"* c #5A172C",
"= c #52192F",
"- c #5F1A2D",
"; c #4F1932",
": c #5B1932",
"> c #5F1F34",
", c #66142F",
"< c #631D2A",
"1 c #621D33",
"2 c #632034",
"3 c #6A2533",
"4 c #6D2538",
"5 c #7B2C37",
"6 c #433950",
"7 c #4B4152",
"8 c #4D4358",
"9 c #4C475B",
"0 c #5A4F5A",
"q c #544F61",
"w c #574B64",
"e c #584F62",
"r c #5A5765",
"t c #555168",
"y c #892E31",
"u c #CC342E",
"i c #B34F2C",
"p c #B1542B",
"a c #B6552C",
"s c #B8542B",
"d c #B85733",
"f c #FD5F0C",
"g c #ED4C11",
"h c #EF4A17",
"j c #FD7B02",
"k c #CD5827",
"l c #C05C2D",
"z c #C05539",
"x c #D17724",
"c c #FF8000",
"v c #FF8300",
"b c #FF8601",
"n c #FF8801",
"m c #FE8D00",
"M c #DF9834",
"N c #F9A93A",
"B c #FAB831",
"V c #FFCE38",
"C c #F6B448",
"Z c #F2B85D",
"A c #D09E6F",
"S c #C69475",
"D c #C1987A",
"F c #CB9D78",
"G c #D39D78",
"H c #EFD095",
"J c #F0D49D",
"K c #ECE3AD",
"L c #F4E3A2",
"P c #F8F8DA",
"I c #FBFADD",
"U c #E4EBE9",
"Y c #FEF9ED",
/* pixels */
"                                                                ",
"                                                                ",
"                                                                ",
"                                                                ",
"                                                                ",
"                                                                ",
"                                                                ",
"                                                                ",
"                                                                ",
"                                                                ",
"                                     .                          ",
"                                     .                          ",
"                                 cf  u.                         ",
"                                 .. .u.                         ",
"                                    .u.                         ",
"                               n.  .gu.                         ",
"                               .. .ubu. j                       ",
"                             .....ubgu. .                       ",
"                           ..uuuugubg..                         ",
"                          ..uubVbVbbu. m.                       ",
"                          .uubVVVVbu.. ..                       ",
"                          .ubVVYVVg..                           ",
"                         ..bbVVYYbubu.                          ",
"                        .ubbVVYYbbbbu. v                        ",
"                        .ubVVYYVbVbu.                           ",
"                        .gVVYYYYVVVu. @                         ",
"                        .gVYYYYYYYVu.                           ",
"                        .gVYbVYYYYbhu.                          ",
"                         .gVbVVYVugu.                           ",
"                          .bbVVVuu..                            ",
"                          .........                             ",
"                        XDLPPPPPLLDX                            ",
"                        X88DLPDDL88X                            ",
"                         XXXXXXXXXXX                            ",
"                         X:+z33z,+:X                            ",
"                         X5kN+d+N5:X                            ",
"                         XXXdN+dkXXX                            ",
"                          X:O:ZMO:X                             ",
"                           XXXXXXX                              ",
"                           XKA0AwX                              ",
"                           XqAGe6X                              ",
"                            XXXXX                               ",
"                            X22$X                               ",
"                            XBayX                               ",
"                            Xp1&X                               ",
"                            XxsoX                               ",
"                            XCi-X                               ",
"                            X4%*X                               ",
"                            X<l#X                               ",
"                            X<l=X                               ",
"                           XUIHt9X                              ",
"                           XrJFS7X                              ",
"                           XX>>;XX                              ",
"                            XX>XX                               ",
"                             XXX                                ",
"                                                                ",
"                                                                ",
"                                                                ",
"                                                                ",
"                                                                ",
"                                                                ",
"                                                                ",
"                                                                ",
"                                                                "
};
