/* XPM */
static char *out[] = {
/* columns rows colors chars-per-pixel */
"64 64 67 1 ",
"  c None",
". c #130215",
"X c #130217",
"o c #140115",
"O c #170416",
"+ c #1E0417",
"@ c #3C061A",
"# c #3E081F",
"$ c #340922",
"% c #3F0B20",
"& c #5A172C",
"* c #52192F",
"= c #5F1A2D",
"- c #4F1932",
"; c #5B1932",
": c #5F1F34",
"> c #66142F",
", c #631D2A",
"< c #621D33",
"1 c #632034",
"2 c #6A2533",
"3 c #6D2538",
"4 c #7B2C37",
"5 c #433950",
"6 c #4B4152",
"7 c #4D4358",
"8 c #4C475B",
"9 c #5A4F5A",
"0 c #544F61",
"q c #574B64",
"w c #584F62",
"e c #5A5765",
"r c #555168",
"t c #892E31",
"y c #CC342E",
"u c #B34F2C",
"i c #B1542B",
"p c #B6552C",
"a c #B8542B",
"s c #B85733",
"d c #FD5F0C",
"f c #ED4C11",
"g c #CD5827",
"h c #C05C2D",
"j c #C05539",
"k c #D17724",
"l c #FF8000",
"z c #FF8601",
"x c #DF9834",
"c c #F9A93A",
"v c #FAB831",
"b c #FFCE38",
"n c #F6B448",
"m c #F2B85D",
"M c #D09E6F",
"N c #C69475",
"B c #C1987A",
"V c #CB9D78",
"C c #D39D78",
"Z c #EFD095",
"A c #F0D49D",
"S c #ECE3AD",
"D c #F4E3A2",
"F c #F8F8DA",
"G c #FBFADD",
"H c #E4EBE9",
"J c #FEF9ED",
/* pixels */
"                                                                ",
"                                                                ",
"                                                                ",
"                                                                ",
"                                                                ",
"                                                                ",
"                                                                ",
"                                                                ",
"                                                                ",
"                                      f                         ",
"                                   .                            ",
"                               d   y.                           ",
"                              l   .y.                           ",
"                                  .f.                           ",
"                            ..   .yf.                           ",
"                             d   .y.    l                       ",
"                              . ..fz.  ll                       ",
"                             ...yyzzf.                          ",
"                           ...yyffzzy.  .                       ",
"                          .yyyfzzzbzfy.                         ",
"                          .yfzbbbbbffy.                         ",
"                         ..zzbbJJbbfy.  .                       ",
"                         .zzbbJJJJbfy. ..                       ",
"                        .yzbbJJJJJby.  l                        ",
"                        .ybbJJJJbzzy.                           ",
"                        .fbJJJJbzzzzy.                          ",
"                        .fzJzJJJJzbzy..                         ",
"                        .ffbzbJJJJbfy.                          ",
"                         .fzzbbbbJfy.                           ",
"                          .fzbbbyy..                            ",
"                          .........                             ",
"                        XBDFFFFFDDBX                            ",
"                        X77BDFBBD77X                            ",
"                         XXXXXXXXXXX                            ",
"                         X;+j22j>+;X                            ",
"                         X4gc+s+c4;X                            ",
"                         XXXsc+sgXXX                            ",
"                          X;O;mxO;X                             ",
"                           XXXXXXX                              ",
"                           XSM9MqX                              ",
"                           X0MCw5X                              ",
"                            XXXXX                               ",
"                            X11#X                               ",
"                            XvptX                               ",
"                            Xi<%X                               ",
"                            XkaoX                               ",
"                            Xnu=X                               ",
"                            X3$&X                               ",
"                            X,h@X                               ",
"                            X,h*X                               ",
"                           XHGZr8X                              ",
"                           XeAVN6X                              ",
"                           XX::-XX                              ",
"                            XX:XX                               ",
"                             XXX                                ",
"                                                                ",
"                                                                ",
"                                                                ",
"                                                                ",
"                                                                ",
"                                                                ",
"                                                                ",
"                                                                ",
"                                                                "
};
