/* XPM */
static char *out[] = {
/* columns rows colors chars-per-pixel */
"64 64 65 1 ",
"  c None",
". c #130215",
"X c #130217",
"o c #140115",
"O c #170416",
"+ c #1E0417",
"@ c #3C061A",
"# c #3E081F",
"$ c #340922",
"% c #3F0B20",
"& c #5A172C",
"* c #52192F",
"= c #5F1A2D",
"- c #4F1932",
"; c #5B1932",
": c #5F1F34",
"> c #66142F",
", c #631D2A",
"< c #621D33",
"1 c #632034",
"2 c #6A2533",
"3 c #6D2538",
"4 c #7B2C37",
"5 c #433950",
"6 c #4B4152",
"7 c #4D4358",
"8 c #4C475B",
"9 c #5A4F5A",
"0 c #544F61",
"q c #574B64",
"w c #584F62",
"e c #5A5765",
"r c #555168",
"t c #892E31",
"y c #CC342E",
"u c #B34F2C",
"i c #B1542B",
"p c #B6552C",
"a c #B8542B",
"s c #B85733",
"d c #ED4C11",
"f c #CD5827",
"g c #C05C2D",
"h c #C05539",
"j c #D17724",
"k c #FF8601",
"l c #DF9834",
"z c #F9A93A",
"x c #FAB831",
"c c #FFCE38",
"v c #F6B448",
"b c #F2B85D",
"n c #D09E6F",
"m c #C69475",
"M c #C1987A",
"N c #CB9D78",
"B c #D39D78",
"V c #EFD095",
"C c #F0D49D",
"Z c #ECE3AD",
"A c #F4E3A2",
"S c #F8F8DA",
"D c #FBFADD",
"F c #E4EBE9",
"G c #FEF9ED",
/* pixels */
"                                                                ",
"                                                                ",
"                                                                ",
"                                                                ",
"                                                                ",
"                                                                ",
"                                                                ",
"                                                                ",
"                                                                ",
"                             .                                  ",
"                             y. kd                              ",
"                          d  y.                                 ",
"                            .yy.                                ",
"                           .ydy..dk                             ",
"                        .k .ydd. ..                             ",
"                        d. .ykd.                                ",
"                        .  .ykdy.     k                         ",
"                          .ydkky...  d.                         ",
"                          .ydkkkddy..                           ",
"                          .ykkGckkdy.                           ",
"                         .ydGcGGckky.                           ",
"                         .yGGGGGGckdy.                          ",
"                        .ydGGGGGGckdy.                          ",
"                        .ydkcGGGGGckdy. k                       ",
"                        .ddccGGGGGckky.                         ",
"                      k  .ykcGGGGckkdd.                         ",
"                         .ykccGGcckkd.                          ",
"                        .yydkcGGGGkdy.                          ",
"                         .ydkcGcGdyy.                           ",
"                          .ydcckdy..                            ",
"                          .........                             ",
"                        XMASSSSSAAMX                            ",
"                        X77MASMMA77X                            ",
"                         XXXXXXXXXXX                            ",
"                         X;+h22h>+;X                            ",
"                         X4fz+s+z4;X                            ",
"                         XXXsz+sfXXX                            ",
"                          X;O;blO;X                             ",
"                           XXXXXXX                              ",
"                           XZn9nqX                              ",
"                           X0nBw5X                              ",
"                            XXXXX                               ",
"                            X11#X                               ",
"                            XxptX                               ",
"                            Xi<%X                               ",
"                            XjaoX                               ",
"                            Xvu=X                               ",
"                            X3$&X                               ",
"                            X,g@X                               ",
"                            X,g*X                               ",
"                           XFDVr8X                              ",
"                           XeCNm6X                              ",
"                           XX::-XX                              ",
"                            XX:XX                               ",
"                             XXX                                ",
"                                                                ",
"                                                                ",
"                                                                ",
"                                                                ",
"                                                                ",
"                                                                ",
"                                                                ",
"                                                                ",
"                                                                "
};
