/* XPM */
static char *out[] = {
/* columns rows colors chars-per-pixel */
"256 256 156 2 ",
"   c None",
".  c #110E0E",
"X  c #1D150F",
"o  c #161211",
"O  c #1D1512",
"+  c #1F1815",
"@  c #211712",
"#  c #231A15",
"$  c #2A1D16",
"%  c #261C19",
"&  c #2A1E19",
"*  c #2B2017",
"=  c #2D2119",
"-  c #322217",
";  c #34251B",
":  c #38271D",
">  c #37281E",
",  c #39291E",
"<  c #362921",
"1  c #3D2D23",
"2  c #3E3029",
"3  c #412E1F",
"4  c #412E22",
"5  c #443225",
"6  c #4A3626",
"7  c #45342A",
"8  c #4A372A",
"9  c #4D3A2C",
"0  c #533D2D",
"q  c #4E3C31",
"w  c #533F31",
"e  c #56402E",
"r  c #58412E",
"t  c #554133",
"y  c #5B4434",
"u  c #5E4837",
"i  c #57473B",
"p  c #5B4639",
"a  c #5E493A",
"s  c #614734",
"d  c #634A36",
"f  c #694C36",
"g  c #634C3B",
"h  c #694F3A",
"j  c #66503F",
"k  c #6C523D",
"l  c #71543D",
"z  c #584B43",
"x  c #644F41",
"c  c #665142",
"v  c #6C5442",
"b  c #6E5847",
"n  c #6E5749",
"m  c #6E5949",
"M  c #715641",
"N  c #745944",
"B  c #7A5D46",
"V  c #745C4A",
"C  c #7A5E49",
"Z  c #7F6147",
"A  c #77604F",
"S  c #7D614B",
"D  c #7D6452",
"F  c #7D6758",
"G  c #7B685B",
"H  c #806147",
"J  c #82654D",
"K  c #86684E",
"L  c #88694F",
"P  c #826751",
"I  c #866953",
"U  c #8A6D55",
"Y  c #856C5B",
"T  c #8A6E59",
"R  c #8E7057",
"E  c #8E715A",
"W  c #917256",
"Q  c #93755C",
"!  c #98775C",
"~  c #96785F",
"^  c #99795E",
"/  c #8C7462",
"(  c #89766A",
")  c #927662",
"_  c #967961",
"`  c #9B7C63",
"'  c #9C7F69",
"]  c #A07F64",
"[  c #9E8066",
"{  c #9E816A",
"}  c #9C8475",
"|  c #A28266",
" . c #A4856A",
".. c #A8876A",
"X. c #A7886D",
"o. c #AA8A6E",
"O. c #A38672",
"+. c #A68972",
"@. c #AD8D72",
"#. c #A48B7A",
"$. c #AB8E79",
"%. c #B08F72",
"&. c #AF9075",
"*. c #AE927A",
"=. c #B29275",
"-. c #B4957A",
";. c #B89779",
":. c #B6987E",
">. c #BA9A7D",
",. c #C09D7D",
"<. c #AD9381",
"1. c #B29782",
"2. c #B59A82",
"3. c #BB9D82",
"4. c #B69B8A",
"5. c #BA9F88",
"6. c #BEA185",
"7. c #B7A28E",
"8. c #BDA28A",
"9. c #BFA490",
"0. c #C09F81",
"q. c #C3A385",
"w. c #C9A787",
"e. c #C4A689",
"r. c #C6A88B",
"t. c #CAAB8D",
"y. c #C0A691",
"u. c #C5AA90",
"i. c #CCAE91",
"p. c #C8AE99",
"a. c #CEB193",
"s. c #C6B299",
"d. c #CBB199",
"f. c #D2B495",
"g. c #D5B897",
"h. c #D3B699",
"j. c #D6BA9A",
"k. c #D9BD9C",
"l. c #CCB7A1",
"z. c #D5BDA2",
"x. c #D9BFA4",
"c. c #DBC09F",
"v. c #DCC3A2",
"b. c #D8C6A8",
"n. c #DACAAE",
"m. c #D6C5B4",
"M. c #DCCCB3",
"N. c #DCCDB9",
"B. c #E0C8A7",
"V. c #E2CCAB",
"C. c #E5D0AF",
"Z. c #E2CEB3",
"A. c #E6D2B4",
"S. c #E6D4BA",
"D. c #E8D6B9",
"F. c #E7D8BB",
/* pixels */
"                                                                                                                                                                                                                                                                                                                                                                                                                                                                                                                                ",
"                                                                                                                                                                                                                                                                                                                                                                                                                                                                                                                                ",
"                                                                                                                                                                                                                                                                                                                                                                                                                                                                                                                                ",
"                                                                                                                                                                                                                                                                                                                                                                                                                                                                                                                                ",
"                                                                                                                                                                                                                                                                                                                                                                                                                                                                                                                                ",
"                                                                                                                                                                                                                                                                                                                                                                                                                                                                                                                                ",
"                                                                                                                                                                                                                                                                                                                                                                                                                                                                                                                                ",
"                                                                                                                                                                                                                                                                                                                                                                                                                                                                                                                                ",
"                                                                                                                                                                                                                                                                                                                                                                                                                                                                                                                                ",
"                                                                                                                                                                                                                                                                                                                                                                                                                                                                                                                                ",
"                                                                                                                                                                                                                                                                                                                                                                                                                                                                                                                                ",
"                                                                                                                                                                                                                                                                                                                                                                                                                                                                                                                                ",
"                                                                                                                                                                                                                                                                                                                                                                                                                                                                                                                                ",
"                                                                                                                                                                                                                                                                                                                                                                                                                                                                                                                                ",
"                                                                                                                                                                                                                                                                                                                                                                                                                                                                                                                                ",
"                                                                                                                                                                                                                                                                                                                                                                                                                                                                                                                                ",
"                                                                                                                                                                                                                                                                                                                                                                                                                                                                                                                                ",
"                                                                                                                                                                                                                                                                                                                                                                                                                                                                                                                                ",
"                                                                                                                                                                                                                                                                                                                                                                                                                                                                                                                                ",
"                                                                                                                                                                                                                                                                                                                                                                                                                                                                                                                                ",
"                                                                                                                                                                                                                                                                                                                                                                                                                                                                                                                                ",
"                                                                                                                                                                                                                                                                                                                                                                                                                                                                                                                                ",
"                                                                                                                                                                                                                                                                                                                                                                                                                                                                                                                                ",
"                                                                                                                                                                                                                                                                                                                                                                                                                                                                                                                                ",
"                                                                                                                                                                                                                                                                                                                                                                                                                                                                                                                                ",
"                                                                                                                                                                                                                                                                                                                                                                                                                                                                                                                                ",
"                                                                                                                                                                                                                                                                                                                                                                                                                                                                                                                                ",
"                                                                                                                                                                                                                                                                                                                                                                                                                                                                                                                                ",
"                                                                                                                                                                                                                                                                                                                                                                                                                                                                                                                                ",
"                                                                                                                                                                                                                    m.N.                                                                                                                                                                                                                                                                                                        ",
"                                                                                                                                                                                                                    Z.A.D.D.D.D.S.N.m.                                                                                                                                                                                                                                                                                          ",
"                                                                                                                                                                                                                    b.v.B.B.B.V.V.A.A.A.D.D.A.N.M.                                                                                                                                                                                                                                                                              ",
"                                                                                                                                                                                                                  g.c.c.c.c.c.c.c.c.c.c.B.B.B.B.C.C.C.C.C.C.b.b.                                                                                                                                                                                                                                                                ",
"                                                                                                                                                                                                                  g.b.c.c.c.c.c.c.c.c.c.c.c.c.c.c.c.c.c.b.V.V.c.v.v.v.x.z.p.p.                                                                                                                                                                                                                                                  ",
"                                                                                                                                                                                                                  C.b.c.c.c.c.c.c.c.c.c.c.c.g.c.c.c.c.g.c.c.c.g.f.f.f.a.f.i.a.a.h.                                                                                                                                                                                                                                              ",
"                                                                                                                                                                                                                  b.g.c.g.g.g.g.g.g.g.g.g.c.c.c.c.c.c.c.c.c.c.g.k.f.t.r.0.0.0.0.e.                                                                                                                                                                                                                                              ",
"                                                                                                                                                                                                                  b.c.c.g.g.t.g.t.c.t.a.g.g.g.g.a.a.c.t.g.g.g.c.j.f.i.t.t.t.w.w.6.                                                                                                                                                                                                                                              ",
"                                                                                                                                                                                                                  n.c.c.t.g.t.s.w.t.t.t.t.a.t.g.a.c.c.a.g.g.g.t.t.t.t.i.i.i.a.a.r.                                                                                                                                                                                                                                              ",
"                                                                                                                                                                                                                  c.,.c.s.w.t.r.r.w.t.t.t.t.t.a.r.c.t.c.g.g.g.t.t.i.i.f.i.a.i.i.e.                                                                                                                                                                                                                                              ",
"                                                                                                                                                                                                                9.t.c.,.r.r.r.q.w.t.w.t.t.t.t.t.w.t.r.w.g.t.g.g.t.f.i.w.t.t.w.t.e.                                                                                                                                                                                                                                              ",
"                                                                                                                                                                                                                s.g.w.t.q.,.q.q.w.r.w.q.r.w.t.t.r.r.r.r.r.t.t.t.r.i.r.q.r.r.r.r.8.                                                                                                                                                                                                                                              ",
"                                                                                                                                                                                                                s.a.w.w.q.6.q.q.q.q.q.q.q.w.w.r.w.r.w.w.w.r.r.w.w.0.w.q.q.r.r.r.3.                                                                                                                                                                                                                                              ",
"                                                                                                                                                                                                                s.t.t.r.6.q.q.q.q.,.q.q.q.r.r.r.w.r.w.r.t.t.w.w.r.w.w.w.r.r.t.r.                                                                                                                                                                                                                                                ",
"                                                                                                                                                                                                                s.q.q.q.q.>.;.>.q.q.6.q.q.q.w.q.r.w.w.w.w.t.t.t.i.r.w.r.t.t.t.t.                                                                                                                                                                                                                                                ",
"                                                                                                                                                                                                                s.,.>.>.,.,.6.,.,.6.,.q.q.q.q.q.w.w.q.w.r.w.t.t.a.i.t.w.r.t.t.r.                                                                                                                                                                                                                                                ",
"                                                                                                                                                                                                              7.q.>.>.;.>.>.>.>.;.;.>.,.q.,.q.q.q.q.w.q.q.q.w.r.t.t.i.r.r.t.t.r.                                                                                                                                                                                                                                                ",
"                                                                                                                                                                                                              7.;.=.;.=.&.=.;.=.=.;.;.;.>.>.,.q.q.w.q.w.w.w.r.q.w.t.t.t.q.q.r.e.                                                                                                                                                                                                                                                ",
"                                                                                                                                                                                                              :.o.o.=.=.o.X.o.&.&.&.=.=.;.>.>.,.,.q.q.r.w.q.e.r.q.r.w.w.w.r.r.e.                                                                                                                                                                                                                                                ",
"                                                                                                                                                                                                              1.o.o.%.@.o.o.o.%.%.%.%.=.=.;.;.>.,.,.,.,.r.,.r.r.w.q.w.r.r.r.r.                                                                                                                                                                                                                                                  ",
"                                                                                                                                                                                                              :.o.o.@...o.o.%.o.%.%.o.o.%.%.=.;.;.>.;.,.r.,.e.,.q.q.w.w.w.r.t.                                                                                                                                                                                                                                                  ",
"                                                                                                                                                                                                              @.o.o.....| ..o.%.%.%.=...o.o.o.=.;.;.>.>.,.r.,.,.q.0.w.r.r.q.w.                                                                                                                                                                                                                                                  ",
"                                                                                                                                                                                                              o.......| | ..%.%.=.@.@.@.o.....o.%.=.;.>.>.,.,.,.0.0.0.q.w.w.q.                                                                                                                                                                                                                                                  ",
"                                                                                                                                                                                                            #.[ | | | | | ....o.%.%.o.o.o.....o.o.=.=.;.;.,.,.,.>.q.,.q.q.q.>.                                                                                                                                                                                                                                                  ",
"                                                                                                                                                                                                            } [ | | | | ..| ..o.o. .o.o.o.%.%.@.o.o.=.=.=.;.,.,.>.>.>.,.3.>.:.                                                                                                                                                                                                                                                  ",
"                                                                                                                                                                                                            $.[ | W [ | | | | ..o. ...o.o.%...o.o.o.=.%.=.=.,.;.;.;.;.>.>.>.>.                                                                                                                                                                                                                                                  ",
"                                                                                                                                                                                                            { Q | W L [ | | | o.o.o.....o.......%.%.=.%.%.=.%.=.;.=.;.;.>.>.                                                                                                                                                                                                                                                    ",
"                                                                                                                                                                                                            E J H L L W [ | | ..o.o.......| ....o.o.%.%.%.=.%.%.%.;.;.,.>.>.                                                                                                                                                                                                                                                    ",
"                                                                                                                                                                                                            _ U L L L H H L W | | | ......| ........%.%.%.%.%.o.%.%.;.;.>.=.                                                                                                                                                                                                                                                    ",
"                                                                                                                                                                                                          ( U U L L L L L L L | | | | | | | ......o.%.%.=.=.%.%.o.%.=.;.;.=.                                                                                                                                                                                                                                                    ",
"                                                                                                                                                                                                          G Z J L L L L L L L L ^ | [ | | | ....o.o.o.%.%.=.=.%.o.%.%.=.=.@.                                                                                                                                                                                                                                                    ",
"                                                                                                                                                                                                          z t u k l Z K L L W W ^ [ [ | | | | ....o.o.%.o.%.o.o.o.o.o.....o.                                                                                                                                                                                                                                                    ",
"                                                                                                                                                                                                                    6 y r f l H R Q ^ | | ....| o.o.o.o.%.%...| ........o.                                                                                                                                                                                                                                                      ",
"                                                                                                                                                                                                                                e 9 y k H L W | | ....%.%.o. .| ..| | | ..                                                                                                                                                                                                                                                      ",
"                                                                                                                                                                                                                                  @ X @ - - 3 0 s l H W ` ] ^ ` | | | ] [                                                                                                                                                                                                                                                       ",
"                                                                                                                                                                                                                                  % X X X @ @ O O #       g h v V P U Q Q                                                                                                                                                                                                                                                       ",
"                                                                                                                                                                                                                                  = # # @ @ @ @ O #                                                                                                                                                                                                                                                                             ",
"                                                                                                                                                                                                                                  < < 1 , ; ; & & 5                                                                                                                                                                                                                                                                             ",
"                                                                                                                                                                                                                                  7 9 w w 0 9 6 7 c                                                                                                                                                                                                                                                                             ",
"                                                                                                                                                                                                                                  t d j g g g g g Y                                                                                                                                                                                                                                                                             ",
"                                                                                                                                                                                                                                  g N A N N N N V )                                                                                                                                                                                                                                                                             ",
"                                                                                                                                                                                                                                  V S I J D P I U '                                                                                                                                                                                                                                                                             ",
"                                                                                                                                                                                                                                  C U T I I I E ) X.                                                                                                                                                                                                                                                                            ",
"                                                                                                                                                                                                                                  P Q T T U P U _ +.                                                                                                                                                                                                                                                                            ",
"                                                                                                                                                                                                                                  D ` E E Q U Q ' =.4.                                                                                                                                                                                                                                                                          ",
"                                                                                                                                                                                                                                  v U T ) _ Q Q Q X.:.                                                                                                                                                                                                                                                                          ",
"                                                                                                                                                                                                                                  n I Q _ {  .' _ [ &.                                                                                                                                                                                                                                                                          ",
"                                                                                                                                                                                                            4.y.y.y.y.8.0.y.4.4.4.1.1.3.2.5.0.0.3.2.3.6.5.4.2.1.1.<.$.#.#.}                                                                                                                                                                                                                                                     ",
"                                                                                                                                                                                                            O.X.o.%.=.%.;.,.0.0.,.>.0.0.q.q.q.w.w.r.w.q.q.w.r.q.0.5.3.2.3.2.                                                                                                                                                                                                                                                    ",
"                                                                                                                                                                                                            '  . .....o.o.%.;.2.>.>.,.,.,.,.,.,.q.q.,.q.6.6.q.3.3.3.:.:.>.1.                                                                                                                                                                                                                                                    ",
"                                                                                                                                                                                                             ... ...o.@.%.%.0.p.p.r.0.0.,.>.>.,.,.>.>.3.,.6.q.3.3.2.:.:.3.3.                                                                                                                                                                                                                                                    ",
"                                                                                                                                                                                                            O.@.....%.%.-.0.a.x.x.x.k.d.7.6.,.>.;.;.;.>.>.,.8.>.3.1.2.;.1.;.                                                                                                                                                                                                                                                    ",
"                                                                                                                                                                                                            +.=.%.@.%.=.;.0.a.h.k.v.b.b.c.c.c.s.,.>.>.:.:.,.,.,.3.3.,.2.;.1.                                                                                                                                                                                                                                                    ",
"                                                                                                                                                                                                            +.=.;.;.%.=.;.r.i.i.d.t.a.f.c.f.c.8.>.>.7.,.,.7.,.8.0.0.2.;.3.;.                                                                                                                                                                                                                                                    ",
"                                                                                                                                                                                                            $.=.%.;.=.%.-.i.i.i.d.t.t.r.i.s.t.>.:.:.>.,.,.,.8.,.3.0.0.2.-.3.                                                                                                                                                                                                                                                    ",
"                                                                                                                                                                                                            ..o...o.%.o.w.j.h.f.f.a.i.t.r.r.,.:.*.=.&.-.>.,.,.,.3.3.1.;.%.$.                                                                                                                                                                                                                                                    ",
"                                                                                                                                                                                                             .o.....| %.i.k.k.h.f.a.d.i.s.8.>.:.*.=.&.@.&.>.,.7.3.3.0.1.=.$.                                                                                                                                                                                                                                                    ",
"                                                                                                                                                                                                            X.o.| ] ] >.f.f.f.a.d.f.i.i.c.,.>.=.=.=.=.@.&.>.>.>.0.3.2.4.1.<.                                                                                                                                                                                                                                                    ",
"                                                                                                                                                                                                            o.%.| ] | i.f.f.i.i.t.u.t.t.9.,.>.=.=.=.=.o.=.>.>.>.3.3.0.0.0.1.                                                                                                                                                                                                                                                    ",
"                                                                                                                                                                                                            ' | ] Q =.f.f.g.f.f.i.i.i.i.r.2.=.=.=.%.o.o.=.>.>.>.3.3.0.5.5.3.                                                                                                                                                                                                                                                    ",
"                                                                                                                                                                                                            ' ..] ] t.f.i.f.f.f.g.f.a.i.q.>.>.=.=.o.%.%.;.;.:.;.>.>.>.3.3.3.                                                                                                                                                                                                                                                    ",
"                                                                                                                                                                                                            ' ] ^ %.f.f.f.f.d.f.f.f.i.i.q.0.>.=.%.%.=.=.;.;.;.:.>.>.>.3.>.3.                                                                                                                                                                                                                                                    ",
"                                                                                                                                                                                                            ` ` ' 3.u.i.i.t.t.t.i.t.t.q.3.>.>.=.=.=.o.=.&.;.=.;.>.3.>.3.3.3.                                                                                                                                                                                                                                                    ",
"                                                                                                                                                                                                            ` ^ o.t.r.t.r.r.t.t.t.t.r.6.>.>.;.=.=.=.=.=.&.&.&.&.>.3.>.>.>.2.                                                                                                                                                                                                                                                    ",
"                                                                                                                                                                                                            _ ` 0.j.h.i.t.r.r.r.q.r.q.>.>.;.;.;.=.=.=.=.=.;.=.&.%.3.>.;.2.-.                                                                                                                                                                                                                                                    ",
"                                                                                                                                                                                                            _ X.i.j.g.f.a.t.q.q.q.6.>.>.>.;.;.=.=.=.;.&.=.;.=.&.%.;.;.;.>.:.                                                                                                                                                                                                                                                    ",
"                                                                                                                                                                                                            _ >.t.i.i.t.t.t.t.r.w.>.;.>.>.;.;.=.=.&.;.;.&.&.=.&.%.&.-.;.>.2.                                                                                                                                                                                                                                                    ",
"                                                                                                                                                                                                            { r.t.r.t.t.r.r.r.w.,.>.>.>.>.:.=.=.o.=.;.;.=.:.=.&.&.&.-.-.;.1.                                                                                                                                                                                                                                                    ",
"                                                                                                                                                                                                            *.i.a.i.a.f.i.t.q.q.>.>.>.>.;.;.=.%.=.=.=.;.=.;.=.:.-.;.;.;.;.;.                                                                                                                                                                                                                                                    ",
"                                                                                                                                                                                                            r.a.t.i.t.i.f.i.r.3.;.>.;.=.=.=.=.o.=.;.=.;.;.=.;.;.-.-.-.-.>.1.                                                                                                                                                                                                                                                    ",
"                                                                                                                                                                                                            i.i.t.t.r.3.r.q.q.;.:.;.;.;.;.=.=.@.=.=.=.;.;.:.=.;.-.-.;.-.=.>.                                                                                                                                                                                                                                                    ",
"                                                                                                                                                                                                          r.t.i.t.t.t.r.q.;.=.=.=.;.;.>.=.=.%.@.=.=.=.%.=.=.=.=.-.=.-.-.=.1.                                                                                                                                                                                                                                                    ",
"                                                                                                                                                                                                          d.a.i.t.i.i.t.t.q.3.;.;.;.;.;.=.%.%.o.=.=.=.=.=.=.@.o.&.=.=.=.-.=.                                                                                                                                                                                                                                                    ",
"                                                                                                                                                                                                        u.a.t.t.i.t.t.r.t.i.3.=.%.;.;.=.=.%.=.=.=.=.=.=.=.=.%.=.%.%.=.=.=.-.                                                                                                                                                                                                                                                    ",
"                                                                                                                                                                                                        a.i.i.i.i.t.t.r.w.q.;.=.=.;.=.=.=.o.@.@.=.=.=.=.=.@.=.=.@.%.=.=.=.-.                                                                                                                                                                                                                                                    ",
"                                                                                                                                                                                                      u.a.a.a.a.i.t.i.i.t.q.;.;.=.%.=.=.%.o.=.=.=.=.=.=.@.;.=.%.%.@.&.&.=.-.                                                                                                                                                                                                                                                    ",
"                                                                                                                                                                                                      u.t.t.a.t.i.t.r.t.t.q.;.=.%.=.=.%.o.o.o.%.=.=.;.=.=.;.=.o.@.@.%.%.=.-.                                                                                                                                                                                                                                                    ",
"                                                                                                                                                                                                      a.t.a.t.i.i.t.w.q.,.;.%.=.%.%.%.%.o.o.%.=.$.=.=.=.=.=.=.@.@.%.%.&.=.*.                                                                                                                                                                                                                                                    ",
"                                                                                                                                                                                                    r.t.t.a.i.i.t.r.0.,.;.%.o.%.....o...o.o.%.%.@.%.=.=.=.=.=.@.o.@.@.%.=.=.                                                                                                                                                                                                                                                    ",
"                                                                                                                                                                                                    u.t.t.t.t.t.r.q.>.;.%.| ....| | | ..X.o.X.&.=.&.=.=.=.=.@.@.@.@.@.@.@.@.                                                                                                                                                                                                                                                    ",
"                                                                                                                                                                                                  e.t.r.e.q.e.e.r.q.>.@...| | | | | | ..X.X.o.&.&.&.%.&.=.=.=.o.X.o.%.&.@.@.                                                                                                                                                                                                                                                    ",
"                                                                                                                                                                                                  q.e.q.>.6.q.6.>.>.;...| | | | [ [ [ X.o.o.@.@.@.&.o.=.&.o.@.@.o.X.%.&.*.%.                                                                                                                                                                                                                                                    ",
"                                                                                                                                                                                                3.5.3.3.6.6.>.;.&.=.&...| | | | [ [ [ ..X.X.o.&.o.o.o.o.@.o.@.=.&.o.o.&.*.-.                                                                                                                                                                                                                                                    ",
"                                                                                                                                                                                                -.:.>.6.q.>.;.@.` |  .| | ] [ ^ ! ^  . . . .X.X. . . ...X.@.@.&.=.%.o.%.=.=.                                                                                                                                                                                                                                                    ",
"                                                                                                                                                                                                =.@.@.:.3.:.&. .` ` ` ] ] ` ! W ! |  . .X.X... . . .....X.o.o.o.%.%.%.+.@.=.                                                                                                                                                                                                                                                    ",
"                                                                                                                                                                                              &.@.X.' Q ~  .{ ` ` ` ^ ` ^ ^ ! ! ^ [  .X. . . . .|  .| .. ...X.o.@.&.%.@...@.                                                                                                                                                                                                                                                    ",
"                                                                                                                                                                                              O.{ [ ~ Q Q Q R R ^ ' ` ^ ! Q ! Q ^ [ [ {  .[  .[ |  . .| .. .X.....+.@.@.+.@.                                                                                                                                                                                                                                                    ",
"                                                                                                                                                                                            { [ ~ T U T ~ Q Q ' ` ' ` ! W R R R Q [ [ [ [ [ { [ ' ] | ' [  . .| ] | ......+.                                                                                                                                                                                                                                                    ",
"                                                                                                                                                                                            T ) Q P S A I E E [ _ ` ` ^ ! L U Q Q Q Q [ [ { [ [ ` ^ ^ ^ ` | [  .' ^ `  . .X.                                                                                                                                                                                                                                                    ",
"                                                                                                                                                                                            *.2.8.4.2.1.2.2.*.*.' T U Q W R U Q Q Q Q [ [ [ [ | ` ` ` ~ ^ [ | [ | ` ` ]  .+.+.                                                                                                                                                                                                                                                  ",
"                                                                                                                                                                                            8.5.3.3.=.+.+.X. .$.3.$.) P J L U Q E [ Q W ~ ~ [ [ ` ` Q ~ ~ ` ` ` ` ] ' '  .o.+.                                                                                                                                                                                                                                                  ",
"                                                                                                                                                                                             . .[  .` Q Q  .-.-.+.$.+.{ / T U R E [ Q [ [ E Q R [ E Q Q ~ ` ` ` ` ` ` ]  .X...                                                                                                                                                                                                                                                  ",
"                                                                                                                                                                                              _ ~ ~  .[ ^  .;.:.&. .+.X. .` T U R E E [ [ [ [ [ Q [ W [ ~ ~ ` ` ` ` ` ` ' | O.                                                                                                                                                                                                                                                  ",
"                                                                                                                                                                                              E ` Q ^ [ [  .o.;.5.&.@.@.o.' U U U I U E [ Q Q [ [ ~ [ Q ~ _ ` [ ^ ` ` ` '  .X.                                                                                                                                                                                                                                                  ",
"                                                                                                                                                                                              E Q Q Q ` ..| ~ | >.>.%.@.@. .U I U U U R E Q Q [ ~ [ [ ~ _ ^ ~ ^ Q ` Q _ ` {  .                                                                                                                                                                                                                                                  ",
"                                                                                                                                                                                              S I I U E Q Q Q ! =.3.=.$.%.+.T I S U U U R E Q Q Q [ ~ ~ ~ Q Q Q Q Q _ Q ` `  .                                                                                                                                                                                                                                                  ",
"                                                                                                                                                                                                C C J U U U W Q ..>.=.&.@.%.Q J I S K D U R R Q E E [ ~ _ ~ Q E Q Q Q Q ` ` '                                                                                                                                                                                                                                                   ",
"                                                                                                                                                                                                v j g k C K K L Q :.=.%.%.%.` U U S S S S U R R E W ~ Q Q Q E E Q Q Q E ^ ` `                                                                                                                                                                                                                                                   ",
"                                                                                                                                                                                                g g u u M J J J U %.=.=.%.=.` P I U U U S K D I U R E Q Q E E R U T Q U Q Q ~                                                                                                                                                                                                                                                   ",
"                                                                                                                                                                                                  u u u k B Z Z S  .-.&.=.=...D J P P Y T I L J L U W Q Q Q W T U U U U E W )                                                                                                                                                                                                                                                   ",
"                                                                                                                                                                                                  v b B b N N Z Z [ >.:.>.;.o.S C H H H I I T T I T I W T W T T R U U U U E R                                                                                                                                                                                                                                                   ",
"                                                                                                                                                                                                  A A D Z S Z Z Z [ :.>.,.>.&.D V H H H J L P I I U U T R Q U R U U U U U T T                                                                                                                                                                                                                                                   ",
"                                                                                                                                                                                                    u j B D S Z Z K -.6.,.>.=.U N n V M V H P P I I I I T E T U U U U T U U U T                                                                                                                                                                                                                                                 ",
"                                                                                                                                                                                                    i e i M D S Z L %.,.w.,.>.R M M M M M M H H L P P I I U T T I I U I I I U Y                                                                                                                                                                                                                                                 ",
"                                                                                                                                                                                                    e e e u Z Z K Z [ ,.6.8.8.[ M M M M M f f M H J P P I P U U U I P U P U T T                                                                                                                                                                                                                                                 ",
"                                                                                                                                                                                                      9 e i B Z Z Z [ =.6.r.8.{ M h v M M v f v M H H J J P P P U P P P P P I I                                                                                                                                                                                                                                                 ",
"                                                                                                                                                                                                      7 e u M D S Z K &.,.,.8.@.M v v f v M M v M M M M V H P P I P P P H C C P                                                                                                                                                                                                                                                 ",
"                                                                                                                                                                                                        t t g A D L J o.,.,.8.-.H x f h x h M v v v M M M N H H H I J V m M M n                                                                                                                                                                                                                                                 ",
"                                                                                                                                                                                                        9 t e u S E U [ ,.6.8.:.H v x f h v M N P P H f d g f x w w w 9 9 7 8                                                                                                                                                                                                                                                   ",
"                                                                                                                                                                                                        7 e 6 e k W E [ 6.8.6.>.M 0 9 6 f M f I ' ' ' ) P T T E n                                                                                                                                                                                                                                                               ",
"                                                                                                                                                                                                          2 6 9 u K E Q :.,.6.6.x $ - : y s s T $.' $.' ' $.] ' Y                                                                                                                                                                                                                                                               ",
"                                                                                                                                                                                                          2 e e y A I L @.3.5.e.B - 3 3 0 r s U +.+.+.@.+.+.@.+.(                                                                                                                                                                                                                                                               ",
"                                                                                                                                                                                                          8 8 8 t M J Z | 3.0.8.T : 3 0 r 0 r I +.@.@.' @.@.$.&.}                                                                                                                                                                                                                                                               ",
"                                                                                                                                                                                                            6 9 t v Z B Q >.e.e.' ; : 6 s d h U $.$.@.@.@.$.*.-.O.'                                                                                                                                                                                                                                                             ",
"                                                                                                                                                                                                            8 9 9 k Z B U ;.0.q.#.= $ 6 r f v U @.*.$.%.*.*.;.>.$.#.                                                                                                                                                                                                                                                            ",
"                                                                                                                                                                                                              7 9 k Z l L &.,.r.-.7 X 5 0 r k I &.*.-.:.>.:.:.2.-.<.                                                                                                                                                                                                                                                            ",
"                                                                                                                                                                                                              5 9 j J l Z X.6.8.7.i O 1 0 r k I &.&.:.:.>.3.:.2.1.2.2.                                                                                                                                                                                                                                                          ",
"                                                                                                                                                                                                              e 9 a D Z Z [ ,.8.e.n @ 1 0 r f S &.=.-.2.3.3.3.>.-.2.3.                                                                                                                                                                                                                                                          ",
"                                                                                                                                                                                                                9 t D J Z ~ ,.6.8.D = 1 0 r k Z $.*.;.6.5.3.;.:.1.3.8.                                                                                                                                                                                                                                                          ",
"                                                                                                                                                                                                                7 7 k K Z R ;.>.5.Y 4 5 0 d h J X.&.@.3.e.3.:.:.:.3.e.                                                                                                                                                                                                                                                          ",
"                                                                                                                                                                                                                2 1 t S A S o.:.:.) q q 0 y s C +.-.&.-.3.3.2.-.-.3.e.7.                                                                                                                                                                                                                                                        ",
"                                                                                                                                                                                                                  1 1 d k h [ &.-.} i w 0 0 s C +.;.-.-.2.:.:.:.1.3.q.8.                                                                                                                                                                                                                                                        ",
"                                                                                                                                                                                                                  1 > 5 6 e D o.=.#.n 9 0 0 f H o.-.;.:.3.:.:.:.:.3.e.r.                                                                                                                                                                                                                                                        ",
"                                                                                                                                                                                                                    > 3 6 9 l o.*.$.V q 9 9 s B  .%.%.=.:.:.:.-.-.8.r.u.7.                                                                                                                                                                                                                                                      ",
"                                                                                                                                                                                                                    ; 2 r y l [ -.*.A 8 8 8 0 l ] =.=.=.=.:.-.*.:.5.e.u.8.                                                                                                                                                                                                                                                      ",
"                                                                                                                                                                                                                    > > 8 d k ` *.<.n 1 8 8 w l ] =.=.;.-.:.*.-.:.3.8.u.u.                                                                                                                                                                                                                                                      ",
"                                                                                                                                                                                                                      ; , e d E $.1.G 8 w 0 s l ' @.$.=.=.;.-.-.=.3.8.r.u.                                                                                                                                                                                                                                                      ",
"                                                                                                                                                                                                                      * = 5 r Z +.*./ w 0 0 r h ` %.%.=.=.-.-.-.:.2.8.r.u.8.                                                                                                                                                                                                                                                    ",
"                                                                                                                                                                                                                      & * = 3 u ' O./ w w 0 y l ! %.%.%.=.;.:.-.:.:.6.8.y.8.                                                                                                                                                                                                                                                    ",
"                                                                                                                                                                                                                        * $ * , c P N y y 0 y h _ @.%.=.-.:.:.1.*.:.3.8.y.e.                                                                                                                                                                                                                                                    ",
"                                                                                                                                                                                                                        # + @ # < q p y w w s h ! @.%.=.=.3.:.-.-.3.3.3.e.e.                                                                                                                                                                                                                                                    ",
"                                                                                                                                                                                                                                z x a w p y y h ! o.%.=.>.5.3.-.2.2.3.6.8.r.6.                                                                                                                                                                                                                                                  ",
"                                                                                                                                                                                                                                  c g w t y s h W o.%.%.=.3.3.2.:.2.3.3.8.e.6.                                                                                                                                                                                                                                                  ",
"                                                                                                                                                                                                                                  v g p s y y h W o.o.%.:.:.3.2.:.-.:.6.8.r.8.                                                                                                                                                                                                                                                  ",
"                                                                                                                                                                                                                                  n x p w w s h R o.@.%.=.:.3.3.:.&.-.2.8.e.q.2.                                                                                                                                                                                                                                                ",
"                                                                                                                                                                                                                                  n x p w w s f U o.%.%.-.:.:.2.:.-.=.2.8.8.8.2.                                                                                                                                                                                                                                                ",
"                                                                                                                                                                                                                                  c x p y y s h U o.o.%.-.:.:.:.2.-.&.:.6.q.6.2.                                                                                                                                                                                                                                                ",
"                                                                                                                                                                                                                                  n v g y y s f L o.o.@.&.-.:.3.2.-.&.-.6.8.:.-.                                                                                                                                                                                                                                                ",
"                                                                                                                                                                                                                                  v c t t y y f J o.o.@.*.-.:.3.:.-.&.-.2.8.6.;.*.                                                                                                                                                                                                                                              ",
"                                                                                                                                                                                                                                  V x t y y y f J ..o.@.-.1.3.2.>.-.&.=.:.8.6.:.:.                                                                                                                                                                                                                                              ",
"                                                                                                                                                                                                                                  V x p t y y d J ..o.@.=.1.:.:.:.-.&.&.:.6.8.:.:.                                                                                                                                                                                                                                              ",
"                                                                                                                                                                                                                                  V v g u u y d H  .o.%.-.-.>.>.3.-.&.&.-.6.e.6.3.                                                                                                                                                                                                                                              ",
"                                                                                                                                                                                                                                  F A g u s s s B  .o.%.=.=.:.2.2.&.@.&.*.:.8.8.3.1.                                                                                                                                                                                                                                            ",
"                                                                                                                                                                                                                                  D m a p u y d B  .o.%.&.*.:.2.:.X.X.&.*.-.-.2.3.2.                                                                                                                                                                                                                                            ",
"                                                                                                                                                                                                                                  n n a u u u d B ] o.o.%.-.:.3.:.X.` @.X.@.&.*.2.3.                                                                                                                                                                                                                                            ",
"                                                                                                                                                                                                                                  n n a g d u s N ] %.o.@.&.2.5.;.X.Q [ [ @.*.-.3.3.2.                                                                                                                                                                                                                                          ",
"                                                                                                                                                                                                                                  n c g g g s d B ] o.%.@.&.-.3.-.o.E ^ { X.$.=.2.3.2.                                                                                                                                                                                                                                          ",
"                                                                                                                                                                                                                                  n c a g j g f N | @.&.&.&.-.2.:. .U _  .{ +.&.-.6.2.                                                                                                                                                                                                                                          ",
"                                                                                                                                                                                                                                  n c g x M k d N | &.o.o.&.&.-.>. .P Q  .'  .$.*.6.6.                                                                                                                                                                                                                                          ",
"                                                                                                                                                                                                                                  n c z g g g d l | &.&.&.&.&.-.3.+.J T '  .X.$.*.2.8.4.                                                                                                                                                                                                                                        ",
"                                                                                                                                                                                                                                  c a g u g h h M [ o.&.&.&.&.=.:.X.C I ` '  .$.&.*.6.6.                                                                                                                                                                                                                                        ",
"                                                                                                                                                                                                                                  c a i i u g k M [ &.&.&.&.=.-.:.o.M J Q ' ' $.-.*.:.6.                                                                                                                                                                                                                                        ",
"                                                                                                                                                                                                                                  x x a p y g g N ` &.&.&.&.&.&.;.@.v C E ` { @.*.*.-.4.1.                                                                                                                                                                                                                                      ",
"                                                                                                                                                                                                                                    a i i y u u j Q &.&.&.o.@.&.&.+.k M I ` { $.*.-.:.2.4.                                                                                                                                                                                                                                      ",
"                                                                                                                                                                                                                                    g u p y y e u E +.&.&.@.@.@.=.X.j j D _ { +.*.*.-.-.2.                                                                                                                                                                                                                                      ",
"                                                                                                                                                                                                                                    x i p p t y u U #.@.@.$.&.&.@.o.j y C E ' X.@.=.-.2.2.                                                                                                                                                                                                                                      ",
"                                                                                                                                                                                                                                    g p w w y y y U @.o.@.o.o.&.=.o.k 0 g U _ ' $.*.*.-.2.1.                                                                                                                                                                                                                                    ",
"                                                                                                                                                                                                                                    i w 9 w w y g J +.+.+.@.&.&.=.o.v y g P _ { X.*.-.2.2.*.                                                                                                                                                                                                                                    ",
"                                                                                                                                                                                                                                    7 2 7 8 9 y d D  . .X.@.@.@.=.o.h 9 g S /  .@.*.*.*.*.2.                                                                                                                                                                                                                                    ",
"                                                                                                                                                                                                                                    8 7 9 q q w y S  . .X.X.@.@.@.o.g 1 9 k E  .$.&.-.*.*.:.*.                                                                                                                                                                                                                                  ",
"                                                                                                                                                                                                                                    w p q 7 7 9 0 j ` {  .X.o.+.@.o.g , 6 y U { X.@.*.*.*.-.*.                                                                                                                                                                                                                                  ",
"                                                                                                                                                                                                                                    z w w w 9 8 0 d ~ [ {  .o.o.o.o.g ; 5 6 C Q [  .+.&.*.&.#.                                                                                                                                                                                                                                  ",
"                                                                                                                                                                                                                                    p w w w 9 9 6 g E ` ` [ X...o.o.g & : 3 g K E Q ~ [ [ { X.                                                                                                                                                                                                                                  ",
"                                                                                                                                                                                                                                    z w q 9 1 7 8 d U _ _ ` `  .....d & - , w H U U R Q ' ' ]                                                                                                                                                                                                                                   ",
"                                                                                                                                                                                                                                    w w 9 2 1 1 6 w P W ! Q ` ` ] ] x - - - 6 M L Q ` ! ` ' ' `                                                                                                                                                                                                                                 ",
"                                                                                                                                                                                                                                    q 7 7 7 7 1 5 w H I U Q ! ^ ' ` x , < : 5 l L _ ` ` ` ! ' '                                                                                                                                                                                                                                 ",
"                                                                                                                                                                                                                                    i q w i q 1 5 s H P L J U Q _ ` x - : 3 5 f C U W Q _ ` ` _                                                                                                                                                                                                                                 ",
"                                                                                                                                                                                                                                    x n v v g g x M / U U T T Q ! ` M 4 5 5 0 f C U R _ ` ` ` )                                                                                                                                                                                                                                 ",
"                                                                                                                                                                                                                                    A D A N N A C T ' ] ' ' ` R Q _ m 5 5 6 0 l J W ! ] ] ' ] )                                                                                                                                                                                                                                 ",
"                                                                                                                                                                                                                                    F D V V Z V P ' ' ' ] O.' ' ` ` N 8 0 0 r M I W _ ]  . .O._                                                                                                                                                                                                                                 ",
"                                                                                                                                                                                                                                    P C V C P D I ) ' ] ' ]  .O.X.O.v 9 0 0 r M P ! ! ] ] ] '                                                                                                                                                                                                                                   ",
"                                                                                                                                                                                                                                  F I A N V S S F Q Q Q [ [ { +.+._ p w 0 0 s N J W Q ^ | ` `                                                                                                                                                                                                                                   ",
"                                                                                                                                                                                                                                  D F S S D P S U / Q E ~ [ { { O.P w 0 0 0 s N J L ! ^ ] ` `                                                                                                                                                                                                                                   ",
"                                                                                                                                                                                                                                  E F S D P P P E [ Q [ [ [ { { ' v t w 9 0 s l J L ! ^ ` ! `                                                                                                                                                                                                                                   ",
"                                                                                                                                                                                                                                  E U D S S P E Q Q Q [ { { { { T p w 0 0 9 s N H K W ! ! ^ `                                                                                                                                                                                                                                   ",
"                                                                                                                                                                                                                                  E T U S Z D [ { [ [ / { { { { D w 0 0 0 0 r l H L ! Q ~ ~ `                                                                                                                                                                                                                                   ",
"                                                                                                                                                                                                                                E F F S D N A T [ [ [ [ _ [ { [ v w 0 w r s f l J W ! ! ` ` Q                                                                                                                                                                                                                                   ",
"                                                                                                                                                                                                                                F E U D S S A [ { E E [ _ [ [ _ g u t t y r f B K W ! ! ^ ~ Q                                                                                                                                                                                                                                   ",
"                                                                                                                                                                                                                                [ R U F U U G [ [ [ E E _ _ {   a y y y r s f B L W W Q ` ` Q                                                                                                                                                                                                                                   ",
"                                                                                                                                                                                                                                E Y U I I P U Q E Q E Q ~ ~ [   p p w 0 0 0 f B U W ! ! [ [ Q                                                                                                                                                                                                                                   ",
"                                                                                                                                                                                                                                T U P I J D E Q E W E Q E ~ ~   g t 9 8 6 0 f Z L ! W ! [ !                                                                                                                                                                                                                                     ",
"                                                                                                                                                                                                                              Y T I I I P U E E W E Q E E )     c p t t y y j Z R ! W !  .`                                                                                                                                                                                                                                     ",
"                                                                                                                                                                                                                              E T T T U U E Q E E Q W E E E     g g t u u s k Z L W ! !  .{                                                                                                                                                                                                                                     ",
"                                                                                                                                                                                                                              E E U Y U U E E E E W Q Q ~ Q     g y y w 0 y h Z L W ! Q _ _                                                                                                                                                                                                                                     ",
"                                                                                                                                                                                                                              E U E E U E E E E Q W E Q _       u p g g y 0 h S U W W Q E _                                                                                                                                                                                                                                     ",
"                                                                                                                                                                                                                              / Y E R U W E E W E W E ~ E       s p g p u y h Z U W Q Q _ `                                                                                                                                                                                                                                     ",
"                                                                                                                                                                                                                            T E E E E E Q E E E E E Q `         s a p p s s h Z L ! ~ _ ` _                                                                                                                                                                                                                                     ",
"                                                                                                                                                                                                                            Q ) _ / E Q Q E E E W E Q ~         u g u i u d k S W W ~ ` ` )                                                                                                                                                                                                                                     ",
"                                                                                                                                                                                                                            _ _ E E E ) E U R E E W Q T           a u t u u l Z L ! ~ ` ` Q                                                                                                                                                                                                                                     ",
"                                                                                                                                                                                                                            / / T E T E R R R E E E Q             j u t y u l S W W ~ ` ` `                                                                                                                                                                                                                                     ",
"                                                                                                                                                                                                                          / _ ) E E Y E T R R E E ~ ~             g i e y y b S R W ~ ~ `                                                                                                                                                                                                                                       ",
"                                                                                                                                                                                                                          ) _ ) E Y T E U E E U E ~ Q             j p t t r l S U E _ ` `                                                                                                                                                                                                                                       ",
"                                                                                                                                                                                                                          / E / / E E E U U R U E Q               j p t t e k S U R ` [ `                                                                                                                                                                                                                                       ",
"                                                                                                                                                                                                                          / / E E E E T R U E E ~ Q               j y t y e k Z U R _ { `                                                                                                                                                                                                                                       ",
"                                                                                                                                                                                                                          E E E E F E U U E U E Q G               c t t t e k Z U W ` { `                                                                                                                                                                                                                                       ",
"                                                                                                                                                                                                                        Y E E E F Y E U U R R E Q                 j y t t e v S R R ^ _ _                                                                                                                                                                                                                                       ",
"                                                                                                                                                                                                                        E / E Y I U U U U U U E T                 j i t t e l S R E [ ` `                                                                                                                                                                                                                                       ",
"                                                                                                                                                                                                                        E Y Y U I R R U U U U E                   j y t 9 e l S R E ` ` _                                                                                                                                                                                                                                       ",
"                                                                                                                                                                                                                        Y I D I Y U I R I P I U                   g t 9 6 9 l S R / _ { )                                                                                                                                                                                                                                       ",
"                                                                                                                                                                                                                        I P D S D R L I U J I P                   g t 8 6 9 l S R E [ `                                                                                                                                                                                                                                         ",
"                                                                                                                                                                                                                      I P P I C D L I U U U L                     a e 9 8 e l S R E ` _                                                                                                                                                                                                                                         ",
"                                                                                                                                                                                                                      D P P J P R I I U U J I                     g t 8 6 e l S U Q ` `                                                                                                                                                                                                                                         ",
"                                                                                                                                                                                                                      I P P C P U U I K J J J                     a t 8 6 e l S U / _ `                                                                                                                                                                                                                                         ",
"                                                                                                                                                                                                                      I I J S S J L L J J K                       t 8 7 7 0 k Z I E E E                                                                                                                                                                                                                                         ",
"                                                                                                                                                                                                                      P S C S J S K J K K S                       e 7 5 6 0 k Z J K P P                                                                                                                                                                                                                                         ",
"                                                                                                                                                                                                                    D J J C C J J J K K K                         8 1 2 6 0 k Z S S K P                                                                                                                                                                                                                                         ",
"                                                                                                                                                                                                                    S P S C Z J S J J K J                         6 5 5 5 0 k N Z Z I U                                                                                                                                                                                                                                         ",
"                                                                                                                                                                                                                    P J H J K H H J J J S                         9 7 5 5 9 k N S P U I                                                                                                                                                                                                                                         ",
"                                                                                                                                                                                                                    D Z B J K J J J J J                           q 7 5 5 6 g B K S S Z                                                                                                                                                                                                                                         ",
"                                                                                                                                                                                                                    S C B J J H H H H H                           8 5 5 3 0 f l N N S                                                                                                                                                                                                                                           ",
"                                                                                                                                                                                                                  V C N N Z l H J H J S                             < , , 6 u k l M Z                                                                                                                                                                                                                                           ",
"                                                                                                                                                                                                                  C C M h M N B B H H                               : ; - 6 y M N B C                                                                                                                                                                                                                                           ",
"                                                                                                                                                                                                                  C M h y s l N l B H                               4 , , 9 w M N B B                                                                                                                                                                                                                                           ",
"                                                                                                                                                                                                                  N v g 0 s l f f l l                               4 < , 6 s f M B C                                                                                                                                                                                                                                           ",
"                                                                                                                                                                                                                  c h g r s s f h l                                 1 , , 6 w h M N N                                                                                                                                                                                                                                           ",
"                                                                                                                                                                                                                x h s 0 s f s s d k                                 1 1 , 9 w f h h M                                                                                                                                                                                                                                           ",
"                                                                                                                                                                                                                y w w 0 r s s s d                                   1 ; ; 6 0 f d d j                                                                                                                                                                                                                                           ",
"                                                                                                                                                                                                                p w w s s s s f d                                   1 < - 5 0 s u d h                                                                                                                                                                                                                                           ",
"                                                                                                                                                                                                                s w w d s s s s u                                   < = - 5 0 w w d                                                                                                                                                                                                                                             ",
"                                                                                                                                                                                                                5 7 7 w y 0 s s                                     = % & 4 7 0 y y                                                                                                                                                                                                                                             ",
"                                                                                                                                                                                                                + O % 4 9 9 0 0                                     O # # ; 4 6 9 8                                                                                                                                                                                                                                             ",
"                                                                                                                                                                                                                  . o % : 4 6 5                                     o O O # $ % % %                                                                                                                                                                                                                                             ",
"                                                                                                                                                                                                                        X # -                                                                                                                                                                                                                                                                                                   ",
"                                                                                                                                                                                                                                                                                                                                                                                                                                                                                                                                ",
"                                                                                                                                                                                                                                                                                                                                                                                                                                                                                                                                ",
"                                                                                                                                                                                                                                                                                                                                                                                                                                                                                                                                ",
"                                                                                                                                                                                                                                                                                                                                                                                                                                                                                                                                "
};
