/* XPM */
static char *out[] = {
/* columns rows colors chars-per-pixel */
"256 256 138 2 ",
"   c None",
".  c #1B130E",
"X  c #151211",
"o  c #1D1512",
"O  c #22160E",
"+  c #25190F",
"@  c #201611",
"#  c #251A15",
"$  c #2A1E16",
"%  c #2A1F19",
"&  c #2E2017",
"*  c #2E211A",
"=  c #33251C",
"-  c #36291E",
";  c #3A291E",
":  c #362A21",
">  c #3C2C22",
",  c #3F3026",
"<  c #402E22",
"1  c #443225",
"2  c #4A3527",
"3  c #45342A",
"4  c #4A362A",
"5  c #4D3A2C",
"6  c #523D2D",
"7  c #4E3C31",
"8  c #523E31",
"9  c #56402F",
"0  c #59412F",
"q  c #554133",
"w  c #5B4433",
"e  c #5F4837",
"r  c #5A4639",
"t  c #5E493A",
"y  c #604733",
"u  c #634A36",
"i  c #684C36",
"p  c #644C3B",
"a  c #694E3A",
"s  c #66503F",
"d  c #6C523D",
"f  c #71553E",
"g  c #634E41",
"h  c #665042",
"j  c #6C5342",
"k  c #6E5748",
"l  c #6E584B",
"z  c #715642",
"x  c #755A44",
"c  c #7A5D45",
"v  c #745C4B",
"b  c #7A5F49",
"n  c #775F50",
"m  c #7D6047",
"M  c #7D614B",
"N  c #7C6352",
"B  c #82654D",
"V  c #86684F",
"C  c #896A4F",
"Z  c #826651",
"A  c #866953",
"S  c #8A6D54",
"D  c #806559",
"F  c #856C5A",
"G  c #8B6F59",
"H  c #8E7057",
"J  c #8D715A",
"K  c #917156",
"L  c #93755C",
"P  c #98775C",
"I  c #96785F",
"U  c #9A7A5E",
"Y  c #806B60",
"T  c #8D7461",
"R  c #937760",
"E  c #957962",
"W  c #9B7C63",
"Q  c #947A6A",
"!  c #9B7E68",
"~  c #A07F64",
"^  c #9E8066",
"/  c #9E816A",
"(  c #9F8771",
")  c #9D857A",
"_  c #A28266",
"`  c #A4856A",
"'  c #A8876B",
"]  c #A6886D",
"[  c #AA8A6D",
"{  c #A38672",
"}  c #A68972",
"|  c #AD8D72",
" . c #A68D79",
".. c #AB8E79",
"X. c #B08F73",
"o. c #AF9075",
"O. c #AE927A",
"+. c #B29275",
"@. c #B4957A",
"#. c #B8977A",
"$. c #B6987E",
"%. c #BA9A7D",
"&. c #C19E7E",
"*. c #AE9581",
"=. c #B29681",
"-. c #B69981",
";. c #BB9D82",
":. c #B79E8A",
">. c #B99F89",
",. c #BEA185",
"<. c #BDA28A",
"1. c #BBA493",
"2. c #C09F81",
"3. c #C3A485",
"4. c #C8A687",
"5. c #C4A68A",
"6. c #C6A98B",
"7. c #CAAB8C",
"8. c #C2A692",
"9. c #C6AB92",
"0. c #CCAE91",
"q. c #CEB193",
"w. c #CDB399",
"e. c #D2B495",
"r. c #D5B897",
"t. c #D3B699",
"y. c #D6B99A",
"u. c #D9BD9D",
"i. c #D9BFA1",
"p. c #DBC09F",
"a. c #DCC2A2",
"s. c #D4C1AC",
"d. c #DEC7A8",
"f. c #DFC9AA",
"g. c #E0C6A6",
"h. c #E5D3B5",
"j. c #E6D6B9",
"k. c #E8D5BA",
/* pixels */
"                                                                                                                                                                                                                                                                                                                                                                                                                                                                                                                                ",
"                                                                                                                                                                                                                                                                                                                                                                                                                                                                                                                                ",
"                                                                                                                                                                                                                                                                                                                                                                                                                                                                                                                                ",
"                                                                                                                                                                                                                                                                                                                                                                                                                                                                                                                                ",
"                                                                                                                                                                                                                                                                                                                                                                                                                                                                                                                                ",
"                                                                                                                                                                                                                                                                                                                                                                                                                                                                                                                                ",
"                                                                                                                                                                                                                                                                                                                                                                                                                                                                                                                                ",
"                                                                                                                                                                                                                                                                                                                                                                                                                                                                                                                                ",
"                                                                                                                                                                                                                                                                                                                                                                                                                                                                                                                                ",
"                                                                                                                                                                                                                                                                                                                                                                                                                                                                                                                                ",
"                                                                                                                                                                                                                                                                                                                                                                                                                                                                                                                                ",
"                                                                                                                                                                                                                                                                                                                                                                                                                                                                                                                                ",
"                                                                                                                                                                                                                                                                                                                                                                                                                                                                                                                                ",
"                                                                                                                                                                                                                                                                                                                                                                                                                                                                                                                                ",
"                                                                                                                                                                                                                                                                                                                                                                                                                                                                                                                                ",
"                                                                                                                                                                                                                                                                                                                                                                                                                                                                                                                                ",
"                                                                                                                                                                                                                                                                                                                                                                                                                                                                                                                                ",
"                                                                                                                                                                                                                                                                                                                                                                                                                                                                                                                                ",
"                                                                                                                                                                                                                                                                                                                                                                                                                                                                                                                                ",
"                                                                                                                                                                                                                                                                                                                                                                                                                                                                                                                                ",
"                                                                                                                                                                                                                                                                                                                                                                                                                                                                                                                                ",
"                                                                                                                                                                                                                                                                                                                                                                                                                                                                                                                                ",
"                                                                                                                                                                                                                                                                                                                                                                                                                                                                                                                                ",
"                                                                                                                                                                                                                                                                                                                                                                                                                                                                                                                                ",
"                                                                                                                                                                                                                                                                                                                                                                                                                                                                                                                                ",
"                                                                                                                                                                                                                                                                                                                                                                                                                                                                                                                                ",
"                                                                                                                                                                                                                                                                                                                                                                                                                                                                                                                                ",
"                                                                                                                                                                                                                                                                                                                                                                                                                                                                                                                                ",
"                                                                                                                                                                                                                                                                                                                                                                                                                                                                                                                                ",
"                                                                                                                                                                                                                                                                                                                                                                                                                                                                                                                                ",
"                                                                                                                                                                                                                                                                                                                                                                                                                                                                                                                                ",
"                                                                                                                                                                                                                                                                                                                                                                                                                                                                                                                                ",
"                                                                                                                                                                                                                                                                                                                                                                                                                                                                                                                                ",
"                                                                                                                                                                                                                f.j.j.j.j.j.j.j.j.j.j.j.j.j.j.h.j.j.j.h.j.j.h.g.f.f.a.p.t.t.i.w.                                                                                                                                                                                                                                                ",
"                                                                                                                                                                                                                p.a.p.p.h.a.a.a.d.p.p.d.d.p.p.p.f.a.a.a.f.d.r.r.r.q.9.6.5.2.3.4.                                                                                                                                                                                                                                                ",
"                                                                                                                                                                                                                1.p.p.p.p.a.p.p.p.p.p.p.p.p.p.p.p.p.p.p.p.a.r.r.e.0.6.6.6.4.3.3.                                                                                                                                                                                                                                                ",
"                                                                                                                                                                                                                p.p.p.p.r.r.a.a.p.p.r.p.p.7.p.p.p.p.0.p.p.p.p.r.e.0.7.0.0.0.e.4.                                                                                                                                                                                                                                                ",
"                                                                                                                                                                                                                1.p.p.p.r.p.r.r.r.r.r.e.p.p.p.q.p.p.p.0.r.r.r.r.7.q.e.e.e.e.e.7.                                                                                                                                                                                                                                                ",
"                                                                                                                                                                                                                <.p.<.p.r.r.r.r.e.e.e.e.p.q.p.7.p.p.7.p.r.r.r.7.e.0.e.e.0.e.7.7.                                                                                                                                                                                                                                                ",
"                                                                                                                                                                                                                1.q.p.9.q.7.7.q.7.7.7.7.7.0.&.p.7.&.p.7.7.r.r.r.0.e.7.7.&.0.7.7.                                                                                                                                                                                                                                                ",
"                                                                                                                                                                                                                9.q.q.9.7.6.6.6.7.6.7.7.7.7.7.7.7.r.7.7.r.7.7.7.7.6.4.6.4.6.6.6.                                                                                                                                                                                                                                                ",
"                                                                                                                                                                                                                9.q.9.6.6.6.3.3.4.6.7.7.7.7.7.7.7.3.3.7.7.7.3.7.4.5.6.4.5.6.0.6.                                                                                                                                                                                                                                                ",
"                                                                                                                                                                                                                9.9.6.6.3.3.3.3.4.6.4.,.,.7.7.&.7.7.7.4.3.7.7.7.4.4.4.6.7.7.7.6.                                                                                                                                                                                                                                                ",
"                                                                                                                                                                                                                ,.6.6.6.3.%.&.3.&.,.&.4.7.&.7.7.3.7.3.4.7.7.7.7.0.7.4.7.7.7.0.7.                                                                                                                                                                                                                                                ",
"                                                                                                                                                                                                                1.9.3.3.&.%.&.&.<.&.&.<.&.&.7.7.4.4.4.7.7.7.7.7.0.0.7.4.4.7.0.7.                                                                                                                                                                                                                                                ",
"                                                                                                                                                                                                                $.6.6.,.&.&.%.&.6.&.&.<.,.7.7.&.4.4.4.3.4.3.7.7.7.0.q.7.4.6.7.7.                                                                                                                                                                                                                                                ",
"                                                                                                                                                                                                                $.9.,.<.&.$.$.$.&.&.&.&.&.<.&.,.4.3.4.3.3.4.7.3.4.7.0.7.6.4.6.7.                                                                                                                                                                                                                                                ",
"                                                                                                                                                                                                                $.,.%.$.&.$.&.$.&.$.&.&.&.&.&.&.3.3.3.4.4.4.3.7.4.7.7.4.6.7.7.7.                                                                                                                                                                                                                                                ",
"                                                                                                                                                                                                                ,.%.#.+.+.#.%.#.#.#.#.#.#.#.&.&.&.&.&.&.7.3.3.7.4.4.6.7.7.7.7.6.                                                                                                                                                                                                                                                ",
"                                                                                                                                                                                                                O.@.#.+.o.| | +.+.X.[ #.+.#.#.#.&.&.&.&.3.3.3.3.4.4.3.4.4.6.4.6.                                                                                                                                                                                                                                                ",
"                                                                                                                                                                                                                ( [ [ | [ [ [ [ X.X.X.+.+.+.#.#.#.#.&.#.&.3.3.3.3.3.&.3.4.6.7.4.                                                                                                                                                                                                                                                ",
"                                                                                                                                                                                                                ( ` [ [ [ [ [ [ [ [ X.X.[ X.X.X.#.#.#.&.&.&.&.&.,.3.3.3.3.4.4.,.                                                                                                                                                                                                                                                ",
"                                                                                                                                                                                                                _ ' ' ' [ ' ' [ [ X.X.+.' [ [ [ [ +.#.#.#.&.&.&.&.&.3.&.3.5.3.&.                                                                                                                                                                                                                                                ",
"                                                                                                                                                                                                                _ ' _ ' ' _ ' [ X.+.X.[ X.[ ' ' [ [ +.+.#.+.#.&.&.%.&.&.%.&.&.,.                                                                                                                                                                                                                                                ",
"                                                                                                                                                                                                                ^ _ _ ' _ _ _ [ [ X.+.[ [ [ [ [ [ [ +.+.+.+.#.&.&.@.#.#.%.%.%.&.                                                                                                                                                                                                                                                ",
"                                                                                                                                                                                                                ^ ^ _ _ ' _ _ _ [ [ [ ' [ X.[ X.[ [ [ +.+.+.+.+.#.#.#.%.%.%.,.%.                                                                                                                                                                                                                                                ",
"                                                                                                                                                                                                                ^ ^ ^ ^ _ _ ^ ^ ' ' ' ' ' [ [ [ [ [ [ X.+.+.+.+.o.X.#.#.%.&.&.$.                                                                                                                                                                                                                                                ",
"                                                                                                                                                                                                                ^ m C ^ ^ _ _ K ' ' [ ' ' ' ' ' ' [ X.[ +.+.+.#.+.| +.+.#.%.&.%.                                                                                                                                                                                                                                                ",
"                                                                                                                                                                                                                ^ ^ ^ ^ K _ _ _ _ ' [ ' ' ' ' ' ' ' [ X.X.+.+.#.+.+.[ +.+.#.$.@.                                                                                                                                                                                                                                                ",
"                                                                                                                                                                                                                z m m C C C K K _ ' ' _ ' ' ' ' ' ' ' [ X.X.X.#.+.+.X.X.+.+.o.o.                                                                                                                                                                                                                                                ",
"                                                                                                                                                                                                                m C C m m C C C K P _ _ _ _ _ _ ' ' ' [ X.X.X.+.+.X.X.X.X.' [ o.                                                                                                                                                                                                                                                ",
"                                                                                                                                                                                                                C C C C C C C C C P _ _ _ _ _ _ ' ' [ [ [ [ X.+.X.' ' [ X.[ [ ]                                                                                                                                                                                                                                                 ",
"                                                                                                                                                                                                                m V C C C C C C C C K _ _ _ _ _ ' ' [ [ X.X.+.+.X.' ' [ _ _ _ `                                                                                                                                                                                                                                                 ",
"                                                                                                                                                                                                                a f c c m m m m C C K P P _ _ _ _ ' ' ' ' ' [ +.' _ _ _ ' _ _ _                                                                                                                                                                                                                                                 ",
"                                                                                                                                                                                                                3 2 5 6 5 6 6 6 w y u q q q w w y p p p z B N Z B b v M M N M N                                                                                                                                                                                                                                                 ",
"                                                                                                                                                                                                                                      . . . o @ @ @ o o %                                                                                                                                                                                                                                                                       ",
"                                                                                                                                                                                                                                      o $ $ & & $ $ * : 3                                                                                                                                                                                                                                                                       ",
"                                                                                                                                                                                                                                      % > 1 4 5 4 5 8 r v                                                                                                                                                                                                                                                                       ",
"                                                                                                                                                                                                                                      : 6 w e p p p p v T                                                                                                                                                                                                                                                                       ",
"                                                                                                                                                                                                                                      4 e d x x v x k A (                                                                                                                                                                                                                                                                       ",
"                                                                                                                                                                                                                                      r z N N M N Z M E  .                                                                                                                                                                                                                                                                      ",
"                                                                                                                                                                                                                                      h B H F A G H H { *.                                                                                                                                                                                                                                                                      ",
"                                                                                                                                                                                                                                      n S P J H R E / | =.                                                                                                                                                                                                                                                                      ",
"                                                                                                                                                                                                                                      N L E E E W _ { @.:.                                                                                                                                                                                                                                                                      ",
"                                                                                                                                                                                                                                      F E E E L I W ] @.;.                                                                                                                                                                                                                                                                      ",
"                                                                                                                                                                                                                                      Z _ I W W L W ] -.,.                                                                                                                                                                                                                                                                      ",
"                                                                                                                                                                                                                                      x L E W ! W W _ @.>.                                                                                                                                                                                                                                                                      ",
"                                                                                                                                                                                                                1.8.1.1.              v S R ! ` ^ ! I _ =.                                                                                                                                                                                                                                                                      ",
"                                                                                                                                                                                                                =.@.;.>.2.2.2.2.3.<.>.-.@.@.-.;.$.O.| | O.                                                                                                                                                                                                                                                                      ",
"                                                                                                                                                                                                                { ' ' ] [ X.@.#.$.%.%.&.>.3.4.4.7.7.6.6.6.6.5.<.>.-.*.*. . .)                                                                                                                                                                                                                                                   ",
"                                                                                                                                                                                                                ..] ] [ [ [ X.X.,.<.,.&.%.&.&.&.&.<.&.&.&.<.&.<.5.3.>.;.-.-.-.=.                                                                                                                                                                                                                                                ",
"                                                                                                                                                                                                                ..| ] | X.X.X.&.w.y.w.1.<.&.%.%.&.&.&.&.&.&.&.&.2.;.;.#.#.=.-.@.                                                                                                                                                                                                                                                ",
"                                                                                                                                                                                                                +.X.X.[ @.#.%.6.w.y.a.a.p.w.,.%.&.%.%.#.$.&.&.<.2.;.-.#.-.-.;.@.                                                                                                                                                                                                                                                ",
"                                                                                                                                                                                                              { @.#.#.X.X.%.2.q.w.t.p.p.p.p.p.q.q.&.$.$.$.$.$.&.2.;.%.-.#.-.@...                                                                                                                                                                                                                                                ",
"                                                                                                                                                                                                              { #.#.&.+.X.&.0.q.w.t.w.q.q.p.p.p.p.$.$.%.$.$.&.$.;.;.;.-.#.=.#.=.                                                                                                                                                                                                                                                ",
"                                                                                                                                                                                                              { X.X.X.+.+.4.y.i.t.t.e.q.q.q.<.0.$.o.o.$.&.&.&.&.2.;.;.2.-.%.;.                                                                                                                                                                                                                                                  ",
"                                                                                                                                                                                                              { X.[ [ X.&.t.u.a.i.y.y.t.q.9.p.,.+.| o.o.$.&.&.&.;.;.;.;.#.#.@.                                                                                                                                                                                                                                                  ",
"                                                                                                                                                                                                              { X.| [ +.0.y.y.y.y.y.t.t.9.p.&.@.o.[ o.[ o.$.&.&.2.;.%.-.=.X...                                                                                                                                                                                                                                                  ",
"                                                                                                                                                                                                              ..+.[ ` ,.y.i.u.t.w.e.e.w.e.0.3.+.[ +.[ | [ %.%.%.2.%.;.-.;.@...                                                                                                                                                                                                                                                  ",
"                                                                                                                                                                                                              } X.' @.y.y.y.u.u.y.t.e.e.0.6.@.+.[ +.+.[ [ %.%.%.%.;.2.%.-.@.+.                                                                                                                                                                                                                                                  ",
"                                                                                                                                                                                                              { ' [ 7.a.u.y.u.u.u.y.t.t.0.;.+.| [ [ [ [ +.%.%.%.;.;.2.;.>.;.-.                                                                                                                                                                                                                                                  ",
"                                                                                                                                                                                                              { [ %.t.i.i.y.y.u.y.y.y.t.6.@.#.| [ [ [ | #.%.#.#.%.%.%.>.2.2.;.                                                                                                                                                                                                                                                  ",
"                                                                                                                                                                                                              ` X.q.r.r.r.r.e.e.r.e.e.0.;.#.#.+.[ [ [ [ #.#.$.#.#.#.#.-.;.;.=.                                                                                                                                                                                                                                                  ",
"                                                                                                                                                                                                              } 7.a.u.r.e.e.r.e.e.e.7.,.#.#.+.o.[ [ [ +.o.+.+.#.#.#.%.;.#.;.-.                                                                                                                                                                                                                                                  ",
"                                                                                                                                                                                                              ;.u.g.a.i.r.e.q.q.0.0.3.#.+.#.+.[ | [ o.+.+.o.+.+.+.%.%.%.%.;.;.                                                                                                                                                                                                                                                  ",
"                                                                                                                                                                                                              0.y.u.u.y.r.e.e.0.7.4.#.#.#.+.+.+.+.o.o.#.+.+.+.o.X.#.;.%.-.#.@.                                                                                                                                                                                                                                                  ",
"                                                                                                                                                                                                            9.y.t.t.t.e.e.e.e.e.7.&.#.#.+.+.+.[ +.[ #.#.+.+.+.+.X.#.%.#.#.-.+.                                                                                                                                                                                                                                                  ",
"                                                                                                                                                                                                            y.u.y.u.u.y.e.q.q.0.&.#.#.#.+.| o.[ [ [ #.#.+.o.+.+.X.X.@.@.@.#.@.                                                                                                                                                                                                                                                  ",
"                                                                                                                                                                                                          y.u.t.y.r.y.u.r.e.0.3.&.+.#.+.+.o.[ ' [ +.+.#.+.+.+.+.X.X.X.@.@.@.                                                                                                                                                                                                                                                    ",
"                                                                                                                                                                                                          y.y.r.t.e.7.y.e.q.4.%.+.+.+.+.+.[ [ ' [ +.+.+.#.+.+.+.O.X.+.#.@.@.                                                                                                                                                                                                                                                    ",
"                                                                                                                                                                                                        y.u.y.r.e.e.e.7.4.2.#.@.+.+.X.[ [ [ ' [ +.+.+.#.#.+.+.#.@.#.#.+.@.@.                                                                                                                                                                                                                                                    ",
"                                                                                                                                                                                                      w.u.y.t.t.y.r.r.q.4.;.#.+.+.#.+.+.[ [ ' X.+.+.+.+.#.#.#.+.@.+.@.@.#.@.                                                                                                                                                                                                                                                    ",
"                                                                                                                                                                                                      y.y.y.y.y.r.e.e.e.e.2.X.X.+.+.+.X.[ [ ' | +.+.+.+.+.#.#.+.X.@.@.@.@.@.                                                                                                                                                                                                                                                    ",
"                                                                                                                                                                                                    y.u.y.y.y.t.e.e.q.q.3.+.[ | +.+.[ [ [ [ o.[ +.+.+.+.+.[ +.+.X.X.+.X.@.@.                                                                                                                                                                                                                                                    ",
"                                                                                                                                                                                                  w.t.y.u.u.r.r.r.r.r.0.%.X.X.[ +.X.[ [ ' ' [ +.X.+.+.| +.| X.| X.X.X.+.+.@.                                                                                                                                                                                                                                                    ",
"                                                                                                                                                                                                  y.y.t.r.r.r.e.e.e.e.4.+.X.[ [ [ [ [ [ ' [ [ +.| +.+.+.[ +.X.| X.| X.X.+.+.                                                                                                                                                                                                                                                    ",
"                                                                                                                                                                                                w.r.y.y.y.r.r.e.0.0.4.%.X.[ [ [ [ [ ] ` ' [ o.o.+.+.+.+.+.+.+.| | | X.X.| @.                                                                                                                                                                                                                                                    ",
"                                                                                                                                                                                                t.e.r.y.y.q.q.0.4.4.%.[ ' [ ' [ [ [ ` ' [ [ o.| +.+.+.+.+.+.+.| | | X.| +.O.                                                                                                                                                                                                                                                    ",
"                                                                                                                                                                                              q.e.e.w.e.q.e.q.7.&.#.' _ _ _ _ _ ' ` _ ' ] [ | X.o.+.+.+.+.+.+.| | | | | X...                                                                                                                                                                                                                                                    ",
"                                                                                                                                                                                            8.q.0.7.6.7.0.0.7.6.&.' _ U U ~ U U _ _ ] [ [ [ | +.| | +.+.+.[ +.[ | | X.| X.X.                                                                                                                                                                                                                                                    ",
"                                                                                                                                                                                            6.7.6.6.0.6.6.&.&.&.[ _ U P P _ U U ^ ^ ] ] ] [ [ o.o.| | +.+.+.X.| ] [ | ] | |                                                                                                                                                                                                                                                     ",
"                                                                                                                                                                                          >.3.3.6.0.6.3.%.+.o.X._ _ P _ P U P P ^ ] ] ] [ ] [ | | o.X.X.| +.| | [ | | | | |                                                                                                                                                                                                                                                     ",
"                                                                                                                                                                                          ,.$.$.;.6.3.;.+.{ _ W U U U I U P K ^ ^ ' ` ] ] [ [ | | o.| o.[ [ | [ ] ] | | X.o.                                                                                                                                                                                                                                                    ",
"                                                                                                                                                                                        -.@.+.| ` _ | | _ _ E L P P P P H S K ^ ` ` ` ] ` [ | | | [ [ | o.| [ | [ ] | | +.+.                                                                                                                                                                                                                                                    ",
"                                                                                                                                                                                        o.| ] ` ! ! U U E E I I K P K K C S I _ ` ` ^ ` ( ] ] ] ] ` ` ] [ [ | o.X.| | | | +.                                                                                                                                                                                                                                                    ",
"                                                                                                                                                                                      } ] ! L L W _ W W ! W P P K H H H K L ^ _ ` ` ` ` ` ] ] ^ _ _ ` ` ` [ [ o.X.| | | | +.                                                                                                                                                                                                                                                    ",
"                                                                                                                                                                                    Q / ] ^ S N A G L E ! R I P K C C C H I I ^ ^ ^ ^ ^ ` ` ( _ _ _ _ ` ` ` [ ` | X.| | ] |                                                                                                                                                                                                                                                     ",
"                                                                                                                                                                                    <.9.9.w.<.<.>.:.=.@.` S S P H H B V H I I W ^ ^ _ ^ _ _ _ _ _ _ ` _ ` ` [ [ ] X.| ] ] |                                                                                                                                                                                                                                                     ",
"                                                                                                                                                                                    =.-.;.;.$.o.X.O.| ..-...G Z B A B S J L L J ^ ^ ^ ^ ^ ^ _ ^ ^ _ ^ ^ _ _ ` _ ~ ` ] ] ] |                                                                                                                                                                                                                                                     ",
"                                                                                                                                                                                      ] ] ] [ ` W ` #.%.O.X...R N M A H L L R L J K ^ ^ ^ ^ ^ ^ W W U U ^ _ _ ^ W W ~ ` ] ]                                                                                                                                                                                                                                                     ",
"                                                                                                                                                                                      W / ^ ` | ` ` @.2.$.] ] ] ~ R G G G H J P ^ L L ^ ^ ^ ^ ^ ^ ^ K L I ^ ^ ^ ~ I W ~ _ ] {                                                                                                                                                                                                                                                   ",
"                                                                                                                                                                                      J ^ ^ ^ ` | [ X.X.,.@.| } } ! G G J H H J H L H L I L ^ L I L I I I W W W W ~ W W _ | {                                                                                                                                                                                                                                                   ",
"                                                                                                                                                                                        I W W ! [ [ ` ~ +.,.+.| | ` L S H H H S L L ^ L L ^ H ^ ^ L L I I I I W W ~ W ~ _ ] {                                                                                                                                                                                                                                                   ",
"                                                                                                                                                                                        S H H I U E I W ` ;.#.| } | P S S H S S S H L ^ ^ L ^ J I I L L I I W W E I W W ! _ ]                                                                                                                                                                                                                                                   ",
"                                                                                                                                                                                        b N B S K K S P W #.@.| | | W S S S S A S A H ^ J ^ ^ ^ I I I L I I W W W U E W ~ _ ]                                                                                                                                                                                                                                                   ",
"                                                                                                                                                                                          z d s c Z S C S [ #.+.| | _ Z V Z A S S S S H H H L L I ^ E I I I I W P U E R ! _ ]                                                                                                                                                                                                                                                   ",
"                                                                                                                                                                                          g p u a M V S V W #.o.| X.' A Z S Z Z M S S S H J L ^ I I I I I L L I J P L P E W /                                                                                                                                                                                                                                                   ",
"                                                                                                                                                                                          p p p p v c V V K +.+.X.+.| S B A A Z N V M V S H H J L L ^ I L L J J L J L P U W /                                                                                                                                                                                                                                                   ",
"                                                                                                                                                                                            v M m m c m M C o.@.#.@.o.J m M N A Z B B B Z A S G K L I I R K K K H L S L E P E                                                                                                                                                                                                                                                   ",
"                                                                                                                                                                                            M A N M m m m V ` %.%.%.@.W m m B A A A Z Z B B C Z G G K J K J J S G J L S L P R                                                                                                                                                                                                                                                   ",
"                                                                                                                                                                                            t p d M S B B B ^ &.&.&.$.^ m z M M Z Z Z A A Z Z B Z A G K J J K G S S S S S L R                                                                                                                                                                                                                                                   ",
"                                                                                                                                                                                              q q s M V B V K &.<.,.%.} M x k m B B B B A A S A A G G K J K S G S S G S G G K                                                                                                                                                                                                                                                   ",
"                                                                                                                                                                                              7 q t z M m C S X.&.,.<.@.M m m m x c B x B Z Z A A A G S K G S K S G G S S S G                                                                                                                                                                                                                                                   ",
"                                                                                                                                                                                              5 9 q s M M B V _ &.,.,.%.N z z x x z x x c B B Z C A A A G G G A Z A S S A A S J                                                                                                                                                                                                                                                 ",
"                                                                                                                                                                                                9 q s M M V M I $.,.,.&.S d d z z z z z f z x B B Z A A A S G S Z A A S A A A G                                                                                                                                                                                                                                                 ",
"                                                                                                                                                                                                9 q e z V S C H @.&.,.,.E x j d f z f j j i j z B B Z V A Z S A A A A Z A A G F                                                                                                                                                                                                                                                 ",
"                                                                                                                                                                                                , q q e s S H H o.&.,.,.^ x z d f a j j z f u j z c b B B B Z Z S A Z Z Z A A G                                                                                                                                                                                                                                                 ",
"                                                                                                                                                                                                  3 9 2 w M ^ L ] ,.,.,.( f z z j h f j f f a f z z z c x b B B Z Z Z Z b b b Z                                                                                                                                                                                                                                                 ",
"                                                                                                                                                                                                  3 2 3 9 z S H ^ ,.,.,.o.z j z f a a a a a j f a a j z z x b B B Z B x x z l n                                                                                                                                                                                                                                                 ",
"                                                                                                                                                                                                    9 9 9 a N S H #.&.3.@.m s d z j i u a f h z b B B j p a a h u y 8 8 7 3 7                                                                                                                                                                                                                                                   ",
"                                                                                                                                                                                                    , 9 9 e M N B ' &.<.-.b y 6 y y y 2 y z j A ~ ! { G n Z S A j                                                                                                                                                                                                                                                               ",
"                                                                                                                                                                                                    , 9 3 q m M B ` %.3.;.k = = & ; ; ; 8 a y Z { { ..} } | } { T                                                                                                                                                                                                                                                               ",
"                                                                                                                                                                                                      9 9 q m M B P %.;.3.N > : . O = = 2 0 8 B { } } | | } | } Q N                                                                                                                                                                                                                                                             ",
"                                                                                                                                                                                                      , , 9 m m x P #.;.<.Q ; ; O O ; 2 6 6 6 z { ..X.} } | X.O.{ Q                                                                                                                                                                                                                                                             ",
"                                                                                                                                                                                                        , 5 m M m V o.,.<.( - - $ . = < 6 0 u f ] O.| | ..X.@.#.O.{                                                                                                                                                                                                                                                             ",
"                                                                                                                                                                                                        9 5 k N M M [ &.,.O., - $ . $ ; 6 i d x ^ O.+.O.@.@.-.-.=. .*.                                                                                                                                                                                                                                                          ",
"                                                                                                                                                                                                        7 3 p V V V ` %.,.O.q = % O # % 2 0 i f ! O.=.@.%.;.@.;.-.=.-.                                                                                                                                                                                                                                                          ",
"                                                                                                                                                                                                          , 9 m V M I %.$.@.p * = $ # $ 2 6 u f E @.+.;.;.;.>.;.;.=.;.>.                                                                                                                                                                                                                                                        ",
"                                                                                                                                                                                                          , , e N m H o.@.O.h * : : % % 2 6 w i J @.@.-.>.;.;.;.-.@.>.3.                                                                                                                                                                                                                                                        ",
"                                                                                                                                                                                                            > 1 d f f ^ o.o.N = > > % % < 6 w a A ..@.$.3.6.;.#.;.-.>.5.                                                                                                                                                                                                                                                        ",
"                                                                                                                                                                                                            , > 2 9 9 H  .O.T = > 3 > - < 8 u a B ..+.O.$.6.2.;.-.;.2.5.<.                                                                                                                                                                                                                                                      ",
"                                                                                                                                                                                                            - - 1 2 9 M }  ./ : > 3 1 > 4 6 y u M | @.+.@.>.;.;.-.#.>.5.6.                                                                                                                                                                                                                                                      ",
"                                                                                                                                                                                                              = 2 w i c ` O.( , : 3 3 3 7 7 6 8 c } #.-.-.;.#.;.#.;.>.6.6.                                                                                                                                                                                                                                                      ",
"                                                                                                                                                                                                              = ; 9 i f ^ o. .r * 3 7 8 7 4 6 u c ` @.#.#.;.;.-.@.-.<.6.6.8.                                                                                                                                                                                                                                                    ",
"                                                                                                                                                                                                                & < w d R o.O.h * 7 8 r 7 7 5 6 a I X.X.+.#.-.;.@.-.>.5.0.9.                                                                                                                                                                                                                                                    ",
"                                                                                                                                                                                                                & * 2 w A  . .n : 3 r g 7 4 2 6 u P @.@.@.@.#.;.@.-.;.3.8.9.8.                                                                                                                                                                                                                                                  ",
"                                                                                                                                                                                                                $ $ = 1 s / } N > , 8 r 2 < 2 5 u C X.@.@.@.#.@.$.-.-.<.6.9.8.                                                                                                                                                                                                                                                  ",
"                                                                                                                                                                                                                  $ # * ; s N j 3 1 g r < 2 5 6 u V X.X.@.@.#.-.#.@.-.,.5.6.9.                                                                                                                                                                                                                                                  ",
"                                                                                                                                                                                                                  # o # * * : 3 3 3 r r 7 6 6 5 6 B [ X.+.@.@.#.$.-.-.,.<.6.6.<.                                                                                                                                                                                                                                                ",
"                                                                                                                                                                                                                                3 1 r 8 8 5 6 6 w c ' X.+.@.#.-.$.-.-.-.,.6.6.8.                                                                                                                                                                                                                                                ",
"                                                                                                                                                                                                                                > : r 8 8 7 7 7 y f ~ X.+.#.;.;.$.@.-.,.,.<.<.6.                                                                                                                                                                                                                                                ",
"                                                                                                                                                                                                                                  % 8 r 8 7 5 7 6 f ~ X.X.@.-.2.,.$.;.-.&.,.6.6.<.                                                                                                                                                                                                                                              ",
"                                                                                                                                                                                                                                    g r 8 5 8 6 6 f P X.X.+.;.2.<.@.;.-.,.<.<.6.6.                                                                                                                                                                                                                                              ",
"                                                                                                                                                                                                                                      r 8 7 6 6 6 i K X.X.@.#.-.,.<.;.@.%.<.<.6.5.<.                                                                                                                                                                                                                                            ",
"                                                                                                                                                                                                                                      t r 8 8 6 6 i S X.X.| +.;.<.,.;.O.@.,.<.6.5.<.                                                                                                                                                                                                                                            ",
"                                                                                                                                                                                                                                      p r 8 8 6 6 u V [ X.X.@.@.;.;.,.@.O.@.<.5.5.,.                                                                                                                                                                                                                                            ",
"                                                                                                                                                                                                                                      g p 8 5 6 6 y B ] X.+.@.;.-.-.-.$.@.@.,.<.<.;.-.                                                                                                                                                                                                                                          ",
"                                                                                                                                                                                                                                      g r 8 3 6 6 y f ` X.O.@.-.-.<.,.$.@.@.-.<.<.;.-.                                                                                                                                                                                                                                          ",
"                                                                                                                                                                                                                                      g t r 8 8 6 w f ~ X.X.X.@.$.;.,.-.@.@.@.,.5.;.-.                                                                                                                                                                                                                                          ",
"                                                                                                                                                                                                                                      h p r 8 6 6 w d U X.X.X.@.-.;.;.,.@.O.@.,.5.<.$.-.                                                                                                                                                                                                                                        ",
"                                                                                                                                                                                                                                      g p 8 5 6 6 q i P | [ O.-.;.,.-.;.o.@.O.-.<.5.;.,.                                                                                                                                                                                                                                        ",
"                                                                                                                                                                                                                                        g q 8 8 6 0 i K | X.X.#.$.$.,.;.o.o.@.@.<.8.<.;.-.                                                                                                                                                                                                                                      ",
"                                                                                                                                                                                                                                        g e 8 8 0 0 y C X.X...@.$.$.,.,.} | o.@.-.<.<.;.-.                                                                                                                                                                                                                                      ",
"                                                                                                                                                                                                                                        k h q q 0 q 6 B [ X.X.@.$.,.,.-.] ] @.o.@.O.-.,.;.                                                                                                                                                                                                                                      ",
"                                                                                                                                                                                                                                        v h q 8 0 0 y x _ X.X.+.$.$.,.$.| W o.[ o.O.=.;.<.;.                                                                                                                                                                                                                                    ",
"                                                                                                                                                                                                                                        j r q q 6 w y f ~ X.[ X.@.%.<.$.[ J ^ / o.o.@.;.;.<.                                                                                                                                                                                                                                    ",
"                                                                                                                                                                                                                                        g t q q w 0 0 d ! | | o.O.%.,.$.} J I ( { o.O.-.<.<.                                                                                                                                                                                                                                    ",
"                                                                                                                                                                                                                                        g t q q y w w a W | | o.O.@.,.,.| A L ` / ] o.O.,.<.<.                                                                                                                                                                                                                                  ",
"                                                                                                                                                                                                                                        g g q r p w u a U X.o.o.o.@.$.%.@.N A / { ] o.O.$.<.5.                                                                                                                                                                                                                                  ",
"                                                                                                                                                                                                                                          t q r p a w i H | +.o.O.@.@.%.%.N M I / ] o.O.@.-.<.<.                                                                                                                                                                                                                                ",
"                                                                                                                                                                                                                                          g q q w p w y A | | o.o.@.@.$.&.F x J / / } O.O.@.,.<.                                                                                                                                                                                                                                ",
"                                                                                                                                                                                                                                          r q q q w p u M | o.+.o.@.@.$.$.S s A W / { @.@.-.-.<.                                                                                                                                                                                                                                ",
"                                                                                                                                                                                                                                          q q 7 5 w p p m } @.@.O.O.@.@.-.L w m J / / O.-.-.-.<.<.                                                                                                                                                                                                                              ",
"                                                                                                                                                                                                                                          r q 7 7 8 w i x ` O.O.+.+.o.@.@.^ 9 d F / / O.@.O.$.-.>.                                                                                                                                                                                                                              ",
"                                                                                                                                                                                                                                          r 8 7 5 8 q 8 p ! O.O.o.o.+.+.@.^ 9 e M E ` } O.-.-.-.;.:.                                                                                                                                                                                                                            ",
"                                                                                                                                                                                                                                          r 8 8 7 8 6 5 q P | o.O.+.+.+.@.[ w 5 s H ! / o.O.@.-.-.;.                                                                                                                                                                                                                            ",
"                                                                                                                                                                                                                                          r 8 8 7 5 6 6 0 S | o.o.o.o.@.+.[ p 5 w Z E ! ] | @.$.-.;.=.                                                                                                                                                                                                                          ",
"                                                                                                                                                                                                                                            r 7 5 4 8 6 9 M | o.o.o.o.o.@.| s 1 w z G / { ..@.=.-.@.-.                                                                                                                                                                                                                          ",
"                                                                                                                                                                                                                                            8 7 3 4 4 7 q v ` } | | o.o.o.o.s - 5 u Z E ..| +.@.-.O.-.*.                                                                                                                                                                                                                        ",
"                                                                                                                                                                                                                                            , > > 1 3 8 w z ! { ] [ o.o.o.+.j & ; 2 a J ] ..O.@.@.-.-.-.                                                                                                                                                                                                                        ",
"                                                                                                                                                                                                                                            , : , 1 1 6 6 u ! ` ] ] o.o.| +.x * = < 6 M E ] | O.O.@.@.O.                                                                                                                                                                                                                        ",
"                                                                                                                                                                                                                                            7 8 4 3 > 1 5 6 G ~ ( ` [ o.| | M = % ; < y S ! W !  .} }  .                                                                                                                                                                                                                        ",
"                                                                                                                                                                                                                                              8 7 4 3 3 2 6 B ~ ` ` } | [ X.D * & & ; 6 B G K J I ! ` {                                                                                                                                                                                                                         ",
"                                                                                                                                                                                                                                              q 7 4 3 3 2 5 z L E ~ ~ } ' | G = $ & = 1 z A K K P W ! _ !                                                                                                                                                                                                                       ",
"                                                                                                                                                                                                                                              7 7 3 > > < 5 a K E E ~ ~ ' ' J > = = = < h B P W W W E E E                                                                                                                                                                                                                       ",
"                                                                                                                                                                                                                                              7 3 1 > > < 3 u C J P E W ~ ' T 1 = ; > < u c K E P L P W !                                                                                                                                                                                                                       ",
"                                                                                                                                                                                                                                              q 7 7 7 3 - < 8 B A S K E P ~ J 8 < 1 2 2 i x B C S P R W E                                                                                                                                                                                                                       ",
"                                                                                                                                                                                                                                              g g h j y 8 8 h Z B V V S P ~ J 8 2 1 2 0 a B S K P R P W L                                                                                                                                                                                                                       ",
"                                                                                                                                                                                                                                              l n n v x b b Z R G G G S K E P y 5 6 0 y f Z K P W ! W E G                                                                                                                                                                                                                       ",
"                                                                                                                                                                                                                                              N N v b n B G Q ~ ~ W ~ E G K P j 6 0 0 i z V L I ~ ~ ~ !                                                                                                                                                                                                                         ",
"                                                                                                                                                                                                                                            N N v v N M N F ^ ^ ~ { ~ ! W E P z w 0 w i c V K K U W P E                                                                                                                                                                                                                         ",
"                                                                                                                                                                                                                                            N N v m S m N M ^ ^ E ! ! ` { ] ! h q y y i c B S K I I E J                                                                                                                                                                                                                         ",
"                                                                                                                                                                                                                                            N N m N N ^ ^ N ^ S L W ~ ` ] | J y q 0 w a c B V K U P L L                                                                                                                                                                                                                         ",
"                                                                                                                                                                                                                                          F F N N N M ^ m ^ N ^ L R ! ! / ! k w 0 0 0 a c B V K P K K G                                                                                                                                                                                                                         ",
"                                                                                                                                                                                                                                          J ^ N S M N ^ S ^ S N I E ^ ^ ! G p q q w 0 f f B C K L S P                                                                                                                                                                                                                           ",
"                                                                                                                                                                                                                                          S N F ^ M M ^ S ^ ^ ^ ! ^ ^ ! E v w w p i u f B V C K K K L                                                                                                                                                                                                                           ",
"                                                                                                                                                                                                                                          ^ M N N M M ^ ^ ^ ^ ^ E ! W ! T h p p i i i f B V K K L L G                                                                                                                                                                                                                           ",
"                                                                                                                                                                                                                                        N J ^ N ^ M M ^ ^ N ^ N I I W ! N p e p u i i c B C C S L K K                                                                                                                                                                                                                           ",
"                                                                                                                                                                                                                                        R J J G ^ M ^ ^ ^ N ^ ^ J L E R j p w w w w a B C C K K P L J                                                                                                                                                                                                                           ",
"                                                                                                                                                                                                                                        T G G J M ^ N ^ M ^ M ^ L I E F s p w q 9 w a m C C C K U I J                                                                                                                                                                                                                           ",
"                                                                                                                                                                                                                                      F J S S G m M N ^ M S S S J J L   k p p u i p f B C K K K I S                                                                                                                                                                                                                             ",
"                                                                                                                                                                                                                                      G J G G G ^ M ^ S ^ m S S H J     h p p p a a x B C C C P ! H                                                                                                                                                                                                                             ",
"                                                                                                                                                                                                                                      J R J J H ^ N S S S H S C A S     s s p p u u f B C C K P ! L                                                                                                                                                                                                                             ",
"                                                                                                                                                                                                                                    G L J L J J S ^ S S S H F H J N     s s d s e u c B C K K C G G                                                                                                                                                                                                                             ",
"                                                                                                                                                                                                                                    T R J R R J S N S S S S S F J       s s s s u u m B C C H C G                                                                                                                                                                                                                               ",
"                                                                                                                                                                                                                                    R R E R L R ^ S S S S S S H A       s d p s s s m V H H H K L                                                                                                                                                                                                                               ",
"                                                                                                                                                                                                                                  J T E T J ^ ^ N S S S S S H H         d d p s d i m C S H L L R                                                                                                                                                                                                                               ",
"                                                                                                                                                                                                                                  Q ^ Q ^ J ^ N G S S S C H F S         d s t p i d m C C H I H J                                                                                                                                                                                                                               ",
"                                                                                                                                                                                                                                  R W Q T ^ ^ G S S S S N K J           j h t p s d M S H H L L H                                                                                                                                                                                                                               ",
"                                                                                                                                                                                                                                  W Q R ^ L H S S S H N S ^ N           j s t t i x B C S H L J                                                                                                                                                                                                                                 ",
"                                                                                                                                                                                                                                E / ^ L T L G S N H N H H S             j s t t e x M C C H J L                                                                                                                                                                                                                                 ",
"                                                                                                                                                                                                                                Q Q E Q R T G S S S S S ^ M           k k p t t w m m C H L I L                                                                                                                                                                                                                                 ",
"                                                                                                                                                                                                                                ^ E Q E ^ J A S N C S F M             k j p e e e m B V S E I J                                                                                                                                                                                                                                 ",
"                                                                                                                                                                                                                              R W E R R J F A A S C S S N             j j p t w e x M B H W I J                                                                                                                                                                                                                                 ",
"                                                                                                                                                                                                                              R E E R J H A A A S Z S S               j j t t e u m M C H I I                                                                                                                                                                                                                                   ",
"                                                                                                                                                                                                                              Q / E T J J S A A Z S G Z               j j t e e a m V C J L I                                                                                                                                                                                                                                   ",
"                                                                                                                                                                                                                            T E T R J J S A V A V A S                 j p e w 0 s m B A L I J                                                                                                                                                                                                                                   ",
"                                                                                                                                                                                                                            T R T J J J A A A A B A A                 j p q 9 9 s M A S L R J                                                                                                                                                                                                                                   ",
"                                                                                                                                                                                                                            T J G S G F A B B M B Z                   j t q 5 9 d m A S J R H                                                                                                                                                                                                                                   ",
"                                                                                                                                                                                                                            H J G F A A B B V B b m                   j r q 9 9 z m A H I R                                                                                                                                                                                                                                     ",
"                                                                                                                                                                                                                          A G J J S S N B B B B M                     s w 9 9 9 z m A J J J                                                                                                                                                                                                                                     ",
"                                                                                                                                                                                                                          J H S A H H V V B M M M                     s w 9 9 w x m A J R L                                                                                                                                                                                                                                     ",
"                                                                                                                                                                                                                          H H G A S V V M m m m                       e 5 5 2 u f M B H J G                                                                                                                                                                                                                                     ",
"                                                                                                                                                                                                                        A G S A H N B M M m m c                       q 5 2 6 u x m M N M m                                                                                                                                                                                                                                     ",
"                                                                                                                                                                                                                        S F A V S M M M m m m                         5 1 5 q u x m x x v                                                                                                                                                                                                                                       ",
"                                                                                                                                                                                                                        S S A A V m m m m m x                         5 5 4 5 i x x f x B                                                                                                                                                                                                                                       ",
"                                                                                                                                                                                                                      D S S S C V f f B m f x                         6 5 5 5 i d x m M B                                                                                                                                                                                                                                       ",
"                                                                                                                                                                                                                      A S C S C B B B c m m                           6 2 5 2 p z m M m m                                                                                                                                                                                                                                       ",
"                                                                                                                                                                                                                      A Z V K V f B m c m x                           4 3 2 6 i f x d f z                                                                                                                                                                                                                                       ",
"                                                                                                                                                                                                                    Z Z B B C m f c c m f                             > < > 2 u s i s f                                                                                                                                                                                                                                         ",
"                                                                                                                                                                                                                    Z A b b c x f B f m f                             < ; ; 2 y a d f z                                                                                                                                                                                                                                         ",
"                                                                                                                                                                                                                    Z b z a i f f f c f                               4 < < 6 y d f z z                                                                                                                                                                                                                                         ",
"                                                                                                                                                                                                                    b v f y u d i i f f                             4 3 < < 6 y i a f j                                                                                                                                                                                                                                         ",
"                                                                                                                                                                                                                  x v z i 0 y y y y i                               4 2 < < 6 8 u z f j                                                                                                                                                                                                                                         ",
"                                                                                                                                                                                                                  j j h y y 0 0 w i i                               4 1 < < 6 y i i a                                                                                                                                                                                                                                           ",
"                                                                                                                                                                                                                  h p w w y w 0 6 w                                 2 3 < < 6 w w 8 i                                                                                                                                                                                                                                           ",
"                                                                                                                                                                                                                p p y u i w 0 y y 0                                 3 1 ; < 6 6 w 6 w                                                                                                                                                                                                                                           ",
"                                                                                                                                                                                                                y g i a y w 0 0 w                                   > : = < 5 6 6 q r                                                                                                                                                                                                                                           ",
"                                                                                                                                                                                                                > 3 4 w 8 6 6 w q                                   * % % : 2 2 5 6 9                                                                                                                                                                                                                                           ",
"                                                                                                                                                                                                                X o # > 2 2 6 6                                     o o # : < < 5 3                                                                                                                                                                                                                                             ",
"                                                                                                                                                                                                                  X X % = < 2 2                                       o o # % % * *                                                                                                                                                                                                                                             ",
"                                                                                                                                                                                                                        O # &                                                                                                                                                                                                                                                                                                   ",
"                                                                                                                                                                                                                                                                                                                                                                                                                                                                                                                                ",
"                                                                                                                                                                                                                                                                                                                                                                                                                                                                                                                                ",
"                                                                                                                                                                                                                                                                                                                                                                                                                                                                                                                                ",
"                                                                                                                                                                                                                                                                                                                                                                                                                                                                                                                                "
};
