/* XPM */
static char *out[] = {
/* columns rows colors chars-per-pixel */
"256 256 146 2 ",
"   c None",
".  c #120F0C",
"X  c #1C140F",
"o  c #171111",
"O  c #1C1511",
"+  c #1E1816",
"@  c #22170F",
"#  c #201712",
"$  c #241A15",
"%  c #2A1E17",
"&  c #241B18",
"*  c #2D1F19",
"=  c #2D221A",
"-  c #34251C",
";  c #37281E",
":  c #3A2A1E",
">  c #362B27",
",  c #3C2C23",
"<  c #3E3026",
"1  c #402D1F",
"2  c #412F22",
"3  c #433125",
"4  c #493526",
"5  c #4D3827",
"6  c #453428",
"7  c #4A3629",
"8  c #4D3A2C",
"9  c #533D2D",
"0  c #423430",
"q  c #4D3C31",
"w  c #533E31",
"e  c #57402F",
"r  c #59412E",
"t  c #554132",
"y  c #5B4433",
"u  c #5E4836",
"i  c #56443F",
"p  c #5B4639",
"a  c #5E493A",
"s  c #604734",
"d  c #624936",
"f  c #634C3B",
"g  c #694E3B",
"h  c #66503E",
"j  c #6C523D",
"k  c #72553E",
"l  c #644F41",
"z  c #665143",
"x  c #6C5442",
"c  c #6D5947",
"v  c #6F574A",
"b  c #6F5A4A",
"n  c #715641",
"m  c #755A44",
"M  c #7A5D45",
"N  c #755C4A",
"B  c #7A5E49",
"V  c #725E52",
"C  c #7E6047",
"Z  c #76604F",
"A  c #7D614B",
"S  c #776050",
"D  c #7D6452",
"F  c #82654D",
"G  c #86684F",
"H  c #88694E",
"J  c #826651",
"K  c #856953",
"L  c #8A6D55",
"P  c #856C5A",
"I  c #8A6F59",
"U  c #8E7057",
"Y  c #8D715A",
"T  c #917156",
"R  c #93755C",
"E  c #96785F",
"W  c #99795E",
"Q  c #856D61",
"!  c #877061",
"~  c #8E7463",
"^  c #8E7668",
"/  c #937760",
"(  c #967961",
")  c #9B7D63",
"_  c #9B7E69",
"`  c #A07F63",
"'  c #9E8066",
"]  c #9E8169",
"[  c #978171",
"{  c #9A8274",
"}  c #A28266",
"|  c #A4856A",
" . c #A8876B",
".. c #A7886E",
"X. c #AB8A6E",
"o. c #A48772",
"O. c #A68972",
"+. c #AD8D72",
"@. c #A68D7A",
"#. c #AA8E79",
"$. c #B08F72",
"%. c #AF9075",
"&. c #AE927A",
"*. c #B29275",
"=. c #B4957A",
"-. c #B89779",
";. c #B6997E",
":. c #BA9A7D",
">. c #C09E7F",
",. c #AF9681",
"<. c #B29680",
"1. c #B69A82",
"2. c #BC9D82",
"3. c #B79C88",
"4. c #BEA185",
"5. c #BDA28A",
"6. c #C09F81",
"7. c #C3A385",
"8. c #C4A689",
"9. c #C6A88B",
"0. c #CAAB8C",
"q. c #C5A990",
"w. c #CCAE91",
"e. c #CEB192",
"r. c #CCB29A",
"t. c #D2B495",
"y. c #D5B897",
"u. c #D2B699",
"i. c #D6BA9A",
"p. c #D9BD9C",
"a. c #D5BDA2",
"s. c #D9BFA3",
"d. c #DBC09F",
"f. c #DCC2A2",
"g. c #D7C4AB",
"h. c #DDC8AB",
"j. c #D8C7B3",
"k. c #DCCBB2",
"l. c #DECFB8",
"z. c #DFD3BA",
"x. c #E0C8A7",
"c. c #E3CDAC",
"v. c #E2CFB4",
"b. c #E6D3B3",
"n. c #E6D5BB",
"m. c #E8D6B8",
/* pixels */
"                                                                                                                                                                                                                                                                                                                                                                                                                                                                                                                                ",
"                                                                                                                                                                                                                                                                                                                                                                                                                                                                                                                                ",
"                                                                                                                                                                                                                                                                                                                                                                                                                                                                                                                                ",
"                                                                                                                                                                                                                                                                                                                                                                                                                                                                                                                                ",
"                                                                                                                                                                                                                                                                                                                                                                                                                                                                                                                                ",
"                                                                                                                                                                                                                                                                                                                                                                                                                                                                                                                                ",
"                                                                                                                                                                                                                                                                                                                                                                                                                                                                                                                                ",
"                                                                                                                                                                                                                                                                                                                                                                                                                                                                                                                                ",
"                                                                                                                                                                                                                                                                                                                                                                                                                                                                                                                                ",
"                                                                                                                                                                                                                                                                                                                                                                                                                                                                                                                                ",
"                                                                                                                                                                                                                                                                                                                                                                                                                                                                                                                                ",
"                                                                                                                                                                                                                                                                                                                                                                                                                                                                                                                                ",
"                                                                                                                                                                                                                                                                                                                                                                                                                                                                                                                                ",
"                                                                                                                                                                                                                                                                                                                                                                                                                                                                                                                                ",
"                                                                                                                                                                                                                                                                                                                                                                                                                                                                                                                                ",
"                                                                                                                                                                                                                                                                                                                                                                                                                                                                                                                                ",
"                                                                                                                                                                                                                                                                                                                                                                                                                                                                                                                                ",
"                                                                                                                                                                                                                                                                                                                                                                                                                                                                                                                                ",
"                                                                                                                                                                                                                                                                                                                                                                                                                                                                                                                                ",
"                                                                                                                                                                                                                                                                                                                                                                                                                                                                                                                                ",
"                                                                                                                                                                                                                                                                                                                                                                                                                                                                                                                                ",
"                                                                                                                                                                                                                                                                                                                                                                                                                                                                                                                                ",
"                                                                                                                                                                                                                                                                                                                                                                                                                                                                                                                                ",
"                                                                                                                                                                                                                                                                                                                                                                                                                                                                                                                                ",
"                                                                                                                                                                                                                                                                                                                                                                                                                                                                                                                                ",
"                                                                                                                                                                                                                                                                                                                                                                                                                                                                                                                                ",
"                                                                                                                                                                                                                                                                                                                                                                                                                                                                                                                                ",
"                                                                                                                                                                                                                                                                                                                                                                                                                                                                                                                                ",
"                                                                                                                                                                                                                                                                                                                                                                                                                                                                                                                                ",
"                                                                                                                                                                                                                    j.n.z.z.                                                                                                                                                                                                                                                                                                    ",
"                                                                                                                                                                                                                    h.c.b.b.m.n.n.n.v.j.                                                                                                                                                                                                                                                                                        ",
"                                                                                                                                                                                                                    f.f.f.f.f.f.x.c.b.b.m.m.m.v.k.k.                                                                                                                                                                                                                                                                            ",
"                                                                                                                                                                                                                    x.d.d.d.d.d.d.d.d.d.f.d.x.f.c.c.c.h.b.b.k.f.                                                                                                                                                                                                                                                                ",
"                                                                                                                                                                                                                  d.d.d.d.d.d.d.d.d.d.d.d.d.d.d.d.d.d.d.f.x.x.f.f.f.f.a.u.r.                                                                                                                                                                                                                                                    ",
"                                                                                                                                                                                                                  c.d.d.d.d.d.d.d.d.d.d.d.d.d.d.d.d.d.d.d.d.d.0.t.y.y.t.t.t.e.t.u.                                                                                                                                                                                                                                              ",
"                                                                                                                                                                                                                  g.d.y.y.y.y.y.d.>.d.0.d.d.0.d.d.d.d.d.d.d.d.d.i.t.0.8.6.6.6.6.8.6.                                                                                                                                                                                                                                            ",
"                                                                                                                                                                                                                  f.d.d.y.0.e.e.0.0.e.d.d.0.d.d.0.e.d.e.d.d.d.d.i.t.0.0.0.0.9.6.5.                                                                                                                                                                                                                                              ",
"                                                                                                                                                                                                                  x.d.e.y.e.0.0.>.d.>.>.>.d.>.d.e.d.d.e.>.d.9.e.e.0.0.w.w.e.w.e.q.                                                                                                                                                                                                                                              ",
"                                                                                                                                                                                                                  d.5.d.0.0.9.9.>.d.d.>.0.0.0.e.e.e.9.d.d.d.d.d.0.0.e.t.e.w.e.0.9.                                                                                                                                                                                                                                              ",
"                                                                                                                                                                                                                r.e.d.>.9.9.7.9.>.>.9.0.0.0.0.0.9.0.e.>.>.d.>.>.0.e.0.0.0.0.0.0.7.                                                                                                                                                                                                                                              ",
"                                                                                                                                                                                                                r.e.9.9.9.:.7.7.0.0.>.5.d.>.d.>.>.>.d.0.0.0.>.d.0.0.0.0.8.0.9.0.8.                                                                                                                                                                                                                                              ",
"                                                                                                                                                                                                                r.e.0.9.7.4.4.7.>.>.>.>.>.>.d.5.d.>.>.>.d.>.>.d.9.6.6.7.8.8.9.8.3.                                                                                                                                                                                                                                              ",
"                                                                                                                                                                                                                e.9.9.9.4.7.7.7.5.5.0.d.>.>.>.>.d.>.>.>.>.>.5.>.9.7.0.7.7.0.0.9.                                                                                                                                                                                                                                                ",
"                                                                                                                                                                                                                e.7.7.4.4.:.:.:.>.>.>.>.0.>.d.>.>.0.5.d.>.d.d.>.w.0.7.0.0.0.0.9.                                                                                                                                                                                                                                                ",
"                                                                                                                                                                                                                9.>.:.>.>.>.>.>.:.>.>.>.>.5.0.>.0.>.d.>.d.>.d.>.e.w.0.9.0.0.0.9.                                                                                                                                                                                                                                                ",
"                                                                                                                                                                                                              5.>.>.:.*.*.:.:.:.;.;.:.>.>.>.>.0.>.>.>.>.>.>.>.d.0.0.0.0.9.0.0.8.                                                                                                                                                                                                                                                ",
"                                                                                                                                                                                                              5.*.*.*.*.+.*.*.*.*.*.;.*.:.:.>.>.d.>.>.>.>.>.5.>.7.0.0.0.7.8.9.8.                                                                                                                                                                                                                                                ",
"                                                                                                                                                                                                              ,.X.X.$.*.X...$.$.*.*.*.=.:.:.:.>.>.>.>.>.d.5.>.>.7.0.0.7.9.8.9.8.                                                                                                                                                                                                                                                ",
"                                                                                                                                                                                                              <.X.X.X.X.X.X.X.$.*.$.*.*.*.-.-.-.-.>.>.>.d.:.>.d.7.7.0.0.7.7.0.                                                                                                                                                                                                                                                  ",
"                                                                                                                                                                                                              =.$.X.X. .X.X.X.X.X.*.X.X.$.$.-.-.-.-.-.>.>.>.>.>.>.0.7.7.0.0.0.                                                                                                                                                                                                                                                  ",
"                                                                                                                                                                                                              X.X.X. . .} X.$.*.*.$.*.X.X. .X.*.-.-.:.:.>.>.>.>.>.7.7.0.9.9.9.                                                                                                                                                                                                                                                  ",
"                                                                                                                                                                                                            @...}  . .}  .X.X.$.*.X.$.X. . . .X.$.*.-.:.>.>.>.>.7.>.7.7.7.0.6.                                                                                                                                                                                                                                                  ",
"                                                                                                                                                                                                            O.' } }  .} } } X.X.X.X.X.X.X.X.X.X.X.$.-.-.-.-.>.>.>.>.6.7.6.6.>.                                                                                                                                                                                                                                                  ",
"                                                                                                                                                                                                            @.' } } } } } }  .X.X. .X.X.X.$.X.X.X.$.*.*.*.-.>.-.:.:.>.>.>.>.:.                                                                                                                                                                                                                                                  ",
"                                                                                                                                                                                                            O.W T ' T } } } } X.X.}  .X.X.X.X.X.X.$.$.*.*.*.-.-.-.-.-.-.>.:.                                                                                                                                                                                                                                                    ",
"                                                                                                                                                                                                            Y R T H T T }  . .X.X.X. . .X.X.X.X.X.$.$.$.*.*.*.-.*.-.-.-.-.>.                                                                                                                                                                                                                                                    ",
"                                                                                                                                                                                                            U G H H H H T } }  . . . . . . . .X.X.X.$.$.$.$.$.$.*.-.:.:.:.=.                                                                                                                                                                                                                                                    ",
"                                                                                                                                                                                                          [ R L H H H H H H T } } }  .} } } }  . .X.$.$.$.$.$.X.$.$.-.:.:.*.                                                                                                                                                                                                                                                    ",
"                                                                                                                                                                                                          ! G L H H H H H H H } } } ' } }  . . .X.X.$.$.-.$.$.X.X.$.*.-.=.+.                                                                                                                                                                                                                                                    ",
"                                                                                                                                                                                                          V k M C H H H H H H T W } ' } } } } X.X.X.$.$.$.$.$.$.X.$.$.$.*.+.                                                                                                                                                                                                                                                    ",
"                                                                                                                                                                                                            7 t u u j C C H H T W } } } } } }  .X.X.X.$.$.X.X.X.X.X.X. .X.                                                                                                                                                                                                                                                      ",
"                                                                                                                                                                                                                      8 5 s g C G U W W }  . .}  .X. .$.$.X. .}  .X. . .X.                                                                                                                                                                                                                                                      ",
"                                                                                                                                                                                                                                < < 5 s k F T W }  . .$.*.X.} }  .} } } `                                                                                                                                                                                                                                                       ",
"                                                                                                                                                                                                                                  X X @ % * : 4 r k C T ) ) R )  .` W } `                                                                                                                                                                                                                                                       ",
"                                                                                                                                                                                                                                > & X # X @ X O O &       f h m A K Y R Y                                                                                                                                                                                                                                                       ",
"                                                                                                                                                                                                                                0 * $ $ $ # # # + =                   f                                                                                                                                                                                                                                                         ",
"                                                                                                                                                                                                                                q > , ; ; ; - * = q                                                                                                                                                                                                                                                                             ",
"                                                                                                                                                                                                                                i 6 8 w 9 8 8 3 8 N                                                                                                                                                                                                                                                                             ",
"                                                                                                                                                                                                                                z y g g d d l d x !                                                                                                                                                                                                                                                                             ",
"                                                                                                                                                                                                                                  z N N n N m N A _                                                                                                                                                                                                                                                                             ",
"                                                                                                                                                                                                                                  N F K D A J K L {                                                                                                                                                                                                                                                                             ",
"                                                                                                                                                                                                                                  F L K K F K I ( @.                                                                                                                                                                                                                                                                            ",
"                                                                                                                                                                                                                                  K R I L K K I ) #.                                                                                                                                                                                                                                                                            ",
"                                                                                                                                                                                                                                  J ( L R Y I T _ =.                                                                                                                                                                                                                                                                            ",
"                                                                                                                                                                                                                                  x L U / ( E R R +.                                                                                                                                                                                                                                                                            ",
"                                                                                                                                                                                                                                  D Y / ` o.| | ) | #.                                                                                                                                                                                                                                                                          ",
"                                                                                                                                                                                                            3.8.q.8.6.5.6.8.8.6.5.3.2.7.8.8.0.8.8.8.9.8.8.8.6.5.3.1.<.<.<.@.                                                                                                                                                                                                                                                    ",
"                                                                                                                                                                                                            o.| O.+.$.&.$.>.<.6.:.:.:.6.6.6.>.9.7.7.6.7.6.6.8.8.6.2.1.1.2.<.                                                                                                                                                                                                                                                    ",
"                                                                                                                                                                                                            `  .`  . .X.X.*.>.1.>.:.6.>.6.>.>.6.7.6.6.6.6.6.6.6.2.1.<.:.:.1.                                                                                                                                                                                                                                                    ",
"                                                                                                                                                                                                            o.o. .X.X.X.$.=.6.r.r.8.7.6.:.>.-.-.2.:.:.:.6.6.8.3.2.-.;.;.2.<.                                                                                                                                                                                                                                                    ",
"                                                                                                                                                                                                            o.X. .X.$.$.-.6.u.a.a.f.g.u.q.5.5.:.-.;.;.:.;.>.5.;.2.1.:.-.-.<.                                                                                                                                                                                                                                                    ",
"                                                                                                                                                                                                            #.$.$.$.$.-.-.8.t.t.i.f.f.f.f.d.d.e.>.:.:.;.:.:.>.>.2.2.1.<.1.<.                                                                                                                                                                                                                                                    ",
"                                                                                                                                                                                                            #.-.-.-.$.$.-.0.w.w.r.0.w.r.i.u.t.5.:.:.4.>.>.4.>.5.6.2.6.1.1.-.                                                                                                                                                                                                                                                    ",
"                                                                                                                                                                                                            +.$.$.$.$.$.1.w.w.w.w.w.9.9.w.w.9.;.=.;.;.>.4.>.5.>.2.6.6.*.=.=.                                                                                                                                                                                                                                                    ",
"                                                                                                                                                                                                             .X. . .X.X.0.i.u.e.r.w.w.0.9.5.>.;.*.*.%.*.;.>.>.>.2.2.1.<.+.#.                                                                                                                                                                                                                                                    ",
"                                                                                                                                                                                                            | X. . .| $.t.i.i.u.e.e.r.w.e.5.:.;.=.*.%.%.*.:.>.:.2.2.6.1.*.#.                                                                                                                                                                                                                                                    ",
"                                                                                                                                                                                                            O.X. .` ` >.w.t.e.e.e.w.0.w.0.5.:.-.*.*.%.+.*.-.:.>.6.2.2.2.1.<.                                                                                                                                                                                                                                                    ",
"                                                                                                                                                                                                            X.X.` W  .0.t.t.0.w.w.0.9.0.0.>.;.*.*.%.$.+.*.:.:.:.2.6.3.6.6.<.                                                                                                                                                                                                                                                    ",
"                                                                                                                                                                                                            ) | ` R =.w.0.t.t.t.w.w.w.w.8.:.=.*.%.$.$.X.*.:.-.:.2.2.2.2.2.<.                                                                                                                                                                                                                                                    ",
"                                                                                                                                                                                                            } } W ) 0.w.t.t.t.t.u.e.e.w.7.:.:.*.$.$.$.$.-.:.:.:.:.:.:.2.2.1.                                                                                                                                                                                                                                                    ",
"                                                                                                                                                                                                            ) ` W $.t.t.e.w.e.t.t.e.e.0.7.2.:.=.$.$.*.*.;.-.:.:.2.:.:.2.2.3.                                                                                                                                                                                                                                                    ",
"                                                                                                                                                                                                            ) ) ) :.0.w.w.0.9.0.0.0.9.7.:.:.:.*.*.*.%.*.*.*.%.*.:.2.2.:.2.2.                                                                                                                                                                                                                                                    ",
"                                                                                                                                                                                                            ( W | 8.0.8.9.9.9.9.0.0.9.4.:.:.:.-.-.*.*.*.*.*.*.*.:.2.:.:.2.=.                                                                                                                                                                                                                                                    ",
"                                                                                                                                                                                                            E E :.i.y.0.0.9.9.7.7.8.>.:.:.:.-.-.*.%.*.*.*.*.%.%.*.:.:.:.:.=.                                                                                                                                                                                                                                                    ",
"                                                                                                                                                                                                            R | 0.i.y.t.w.9.7.7.4.>.:.:.:.-.=.-.*.*.:.*.*.*.*.%.$.=.=.=.:.;.                                                                                                                                                                                                                                                    ",
"                                                                                                                                                                                                            ( =.w.0.w.8.0.9.0.9.7.4.:.:.:.-.-.*.%.*.:.*.*.*.*.*.$.$.-.=.;.;.                                                                                                                                                                                                                                                    ",
"                                                                                                                                                                                                            ) 4.0.8.0.0.8.8.8.8.>.>.:.:.:.;.*.*.$.*.-.-.*.*.;.*.*.=.=.-.<.<.                                                                                                                                                                                                                                                    ",
"                                                                                                                                                                                                            o.w.w.0.e.e.w.0.7.7.:.:.:.:.:.*.*.$.$.*.*.-.*.;.*.;.=.-.=.-.-.<.                                                                                                                                                                                                                                                    ",
"                                                                                                                                                                                                            7.w.0.0.0.0.t.0.0.6.:.:.-.:.;.-.*.X.*.*.-.-.-.*.;.;.-.-.=.-.;.;.                                                                                                                                                                                                                                                    ",
"                                                                                                                                                                                                            w.0.0.0.7.2.8.7.7.=.*.:.-.*.*.*.*.*.*.-.*.*.-.;.*.*.*.=.-.*.=.;.                                                                                                                                                                                                                                                    ",
"                                                                                                                                                                                                          5.0.w.0.9.9.9.7.:.*.*.*.:.:.:.*.*.%.$.*.-.*.*.*.*.*.*.*.=.*.=.*.&.                                                                                                                                                                                                                                                    ",
"                                                                                                                                                                                                          w.w.w.0.w.0.0.0.7.2.-.*.:.:.-.*.*.$.$.*.*.*.*.*.$.$.$.*.*.*.*.=.=.                                                                                                                                                                                                                                                    ",
"                                                                                                                                                                                                          w.w.0.0.0.0.9.0.0.7.*.*.:.-.*.*.*.$.$.*.*.*.$.*.*.%.$.+.$.*.*.*.=.                                                                                                                                                                                                                                                    ",
"                                                                                                                                                                                                        w.w.0.q.w.0.0.9.7.7.:.=.*.*.*.*.*.$.$.%.*.*.*.*.$.*.%.$.+.$.*.+.=.=.                                                                                                                                                                                                                                                    ",
"                                                                                                                                                                                                        e.e.e.e.w.0.0.0.0.9.>.*.*.*.*.*.$.X.$.$.*.*.*.*.*.*.*.+.$.+.*.*.*.&.                                                                                                                                                                                                                                                    ",
"                                                                                                                                                                                                      8.9.0.0.0.0.0.0.8.0.0.-.*.$.*.*.*.X.X.$.$.*.*.=.*.*.-.-.+.+.$.$.+.*.#.                                                                                                                                                                                                                                                    ",
"                                                                                                                                                                                                      e.0.0.0.e.0.0.8.6.>.>.*.*.$.$.$.$.X.X.$.*.+.*.*.=.*.*.$.+.+.+.+.&.*.=.                                                                                                                                                                                                                                                    ",
"                                                                                                                                                                                                    5.0.0.w.0.0.0.8.7.>.-.$.X.$.X. .X.X.X.$.X.*.*.+.*.*.*.$.*.+.X.+.$.+.%.&.                                                                                                                                                                                                                                                    ",
"                                                                                                                                                                                                    q.0.0.0.0.9.9.7.:.-.*. . . .} }  . .......%.%.*.%.*.*.*.*.*.+.+.#.$.+.#.                                                                                                                                                                                                                                                    ",
"                                                                                                                                                                                                    9.9.7.7.8.8.9.7.4.*.X. .} } } } }  .X.X.X.+.%.+.+.*.%.*.X.X. .X.$.$.$.$.                                                                                                                                                                                                                                                    ",
"                                                                                                                                                                                                  5.7.8.4.:.4.4.:.:.:.X. .} } } } ' ' ....X.+.+.+.+.X.*.+.+.+.+.+. .+.$.*.+.                                                                                                                                                                                                                                                    ",
"                                                                                                                                                                                                  2.2.:.:.4.:.:.*.+.-.X.} } } } ' W ' ......+.+.X...X.X.+.X.+.*.$.+.O.$.=.=.                                                                                                                                                                                                                                                    ",
"                                                                                                                                                                                                =.;.;.:.4.2.-.*.` ` o.` ` ` ` ` R W } o.| ....| | | |  . .+.+.+.=.*.+.+.+.=.                                                                                                                                                                                                                                                    ",
"                                                                                                                                                                                                &.+.+.=.2.:.=.O.` ( ) ` o.` W W T ` } | | X.| | | | }  .| +.X.X.+.$.+.+.+.$.                                                                                                                                                                                                                                                    ",
"                                                                                                                                                                                                %...] ) E | | ' ( ` ) ) ) ) W R W ` | | | | | | | | | | | X.X.+.+.+.+.+.X.+.                                                                                                                                                                                                                                                    ",
"                                                                                                                                                                                              O.] } ) Y L U U U Y ` ) ) ( W R R E ` ) } | ' | } ` | ` | | | | | |  .| +.X.+.                                                                                                                                                                                                                                                    ",
"                                                                                                                                                                                              ` ) R L K R W T / ) ` ) ) E T I T R ) ) ' ' ' ' ' ` ` ) ` ` | | ` ` ` | |  .+.                                                                                                                                                                                                                                                    ",
"                                                                                                                                                                                              R R K B M A Y Y ) _ ( ) ) E T L T R E ( ) ' ] ' ' ) ) E E ) ` } | ) ) ) } | | o.                                                                                                                                                                                                                                                  ",
"                                                                                                                                                                                            [ @.1.1.@.@.@.,.&.&.O./ L T R T L T R E R ) ) ) ' ) ) ( ( ( ) ) ` ` ` _ ) ` | +.O.                                                                                                                                                                                                                                                  ",
"                                                                                                                                                                                            5.8.8.4.1.&.&.+...o.<.1._ K F H L T R E R E E ) ) ) ) W W ( ( ) ) ) ) ` _ } |  .O.                                                                                                                                                                                                                                                  ",
"                                                                                                                                                                                              | } } _ ( T ) +.*.%.O.+.o.( ! L I R R ( ( ' E E E ) E R E E ) ) ) ) ) ) ) } | O.                                                                                                                                                                                                                                                  ",
"                                                                                                                                                                                              / ( R ) } W ) *.:.=.....O.O.] Y L U U E ( ( E ' ( W ( E E E E ) ) ) ) ) ) ` } o.                                                                                                                                                                                                                                                  ",
"                                                                                                                                                                                              L ( R ( ) } ' | *.2.=.+.+.+.} T K L K U R R ' ( ( ) ) ) E ) E ) ) ) ) ) ) ) | o.                                                                                                                                                                                                                                                  ",
"                                                                                                                                                                                                R R R W | | ) ) =.2.=.+.+.+.( K K K U Y Y R E E ( ) ) ) ( R ( ( R R R ) ) ) ..                                                                                                                                                                                                                                                  ",
"                                                                                                                                                                                                K K L L R R T R } 2.=.$.+.$.) L G K K K U Y R R R ( ) ) E R R R R ( / R ) ) _                                                                                                                                                                                                                                                   ",
"                                                                                                                                                                                                N B A K L L U T ) =.=.*.+.$.} K K A F G K U U Y R E / E E R R R T T R / ) ) '                                                                                                                                                                                                                                                   ",
"                                                                                                                                                                                                  x g x B G G G K +.=.*.$.+.| L K K F A F K L U Y R R R R T R Y R R R T R ) )                                                                                                                                                                                                                                                   ",
"                                                                                                                                                                                                  l d y h C F G F } =.*.*.=.+.L K L K L K F F F K U Y R R Y Y L L I T I T R /                                                                                                                                                                                                                                                   ",
"                                                                                                                                                                                                  f u y f C M F F R =.*.*.*.%.U N F J J L K K J L L I T R R T I L I L I I T R                                                                                                                                                                                                                                                   ",
"                                                                                                                                                                                                    k Z h k k M C U *.=.;.:.*.T F F F N J L I L L L L L I Y L T I L T L L U I                                                                                                                                                                                                                                                   ",
"                                                                                                                                                                                                    Z D D A C M C G +.:.:.:.-.E m M F M F J F G L K L L T T L L L L L L K L I                                                                                                                                                                                                                                                   ",
"                                                                                                                                                                                                    f h k A K A C C ..:.4.4.:.' m m m n n F F F K K L K L ~ L L K L L L L L I I                                                                                                                                                                                                                                                 ",
"                                                                                                                                                                                                    t t t h D A F F W >.7.4.4...m n n n g n n F F F F J K K I I K H K K K K L I                                                                                                                                                                                                                                                 ",
"                                                                                                                                                                                                      8 t y c C F F U -.>.8.8.*.m x n n n g j n F F F F F F K I I K K J K K I I                                                                                                                                                                                                                                                 ",
"                                                                                                                                                                                                      t 8 t h C C F H X.4.4.9.;.F x x n n n g n n v N F F F J J K H J J J K J K                                                                                                                                                                                                                                                 ",
"                                                                                                                                                                                                        t t h C C C F } :.4.4.:.F g x g x n n n n n n n n F F F K K J J B B B B                                                                                                                                                                                                                                                 ",
"                                                                                                                                                                                                        8 t u c F H F W :.>.8.4.I g g g g g n x x x k n n m F M B B N n x l z x                                                                                                                                                                                                                                                 ",
"                                                                                                                                                                                                        q 8 t u c K U U -.4.4.4./ x g s g x x F I I F l y d l l w 7 6 6 6 >                                                                                                                                                                                                                                                     ",
"                                                                                                                                                                                                          7 8 4 u D R R *.4.4.4./ 8 2 2 d n d L _ #._ _ R W / ( V                                                                                                                                                                                                                                                               ",
"                                                                                                                                                                                                          6 4 8 e C R U +.4.>.8._ - - : r r d I _ O.#.+._ #.` _ !                                                                                                                                                                                                                                                               ",
"                                                                                                                                                                                                          < 4 e e j K K ) 2.3.8.` 4 1 5 9 r r L o.O.X._ o.X.#.O.^                                                                                                                                                                                                                                                               ",
"                                                                                                                                                                                                            7 8 9 f A A L :.6.7.-.9 1 9 s r d L #.#.O.X.X.#.$.&.{                                                                                                                                                                                                                                                               ",
"                                                                                                                                                                                                            7 7 8 f B M G $.2.8.3.p - 5 s g g L #.$.O.+.&.&.*.&.o._                                                                                                                                                                                                                                                             ",
"                                                                                                                                                                                                              7 8 s B B F X.2.8.6.l @ 4 s g n I #.$.&.&.-.*.:.1.#.,.                                                                                                                                                                                                                                                            ",
"                                                                                                                                                                                                              7 7 u Z k C ' >.4.8.b # 4 9 r j U %.&.=.;.:.;.;.1.&.=.                                                                                                                                                                                                                                                            ",
"                                                                                                                                                                                                              6 < y C C k W >.4.8.P = < 9 e h U %.%.=.:.2.1.;.;.<.1.                                                                                                                                                                                                                                                            ",
"                                                                                                                                                                                                                q t Z C C U =.4.0.[ - , e r d H &.&.=.2.2.2.:.;.<.2.3.                                                                                                                                                                                                                                                          ",
"                                                                                                                                                                                                                t 8 c F C K *.>.5.@.< 3 e u j G +.&.=.4.7.;.;.;.<.2.4.                                                                                                                                                                                                                                                          ",
"                                                                                                                                                                                                                t < u D A D X.>.2.@.q 7 y d g G +.*.%.1.8.2.;.;.:.2.7.                                                                                                                                                                                                                                                          ",
"                                                                                                                                                                                                                  : e c A C ' -.;.@.l w 9 9 y G +.=.%.-.2.:.;.=.;.2.5.5.                                                                                                                                                                                                                                                        ",
"                                                                                                                                                                                                                  < : t n j K %.=.&.N w 9 9 g G +.=.=.;.1.=.;.;.<.2.8.5.                                                                                                                                                                                                                                                        ",
"                                                                                                                                                                                                                    ; : e 5 j | &.<.D 8 9 r g F +.=.=.=.:.;.;.=.2.2.8.q.                                                                                                                                                                                                                                                        ",
"                                                                                                                                                                                                                    ; : 4 3 u ) &.<.P w 8 5 s M  .$.$.*.=.;.=.=.<.7.8.q.                                                                                                                                                                                                                                                        ",
"                                                                                                                                                                                                                    - : e e d Y #.=.P 6 4 7 s m X.*.*.=.=.=.=.#.1.2.5.w.5.                                                                                                                                                                                                                                                      ",
"                                                                                                                                                                                                                      - 4 u g G +.<.^ q 8 9 s M | *.*.*.=.=.*.=.=.4.8.q.q.                                                                                                                                                                                                                                                      ",
"                                                                                                                                                                                                                      - - 5 d A o.,._ w w 9 s m | $.*.*.=.=.=.&.=.3.5.8.q.                                                                                                                                                                                                                                                      ",
"                                                                                                                                                                                                                      = = : 9 j ` &.o.l 9 9 s m } $.$.$.=.=.=.=.=.4.5.5.q.                                                                                                                                                                                                                                                      ",
"                                                                                                                                                                                                                        $ = : 9 I o._ l 9 9 s k } $.$.*.*.=.=.;.=.;.4.8.8.5.                                                                                                                                                                                                                                                    ",
"                                                                                                                                                                                                                        = $ = - f P J f y 9 s m ` +.$.=.=.;.<.=.=.1.4.5.8.5.                                                                                                                                                                                                                                                    ",
"                                                                                                                                                                                                                          # @ @ = q w y w s d m ` +.+.=.;.2.=.=.=.2.2.5.5.7.                                                                                                                                                                                                                                                    ",
"                                                                                                                                                                                                                            + + w a a t u y y k ` $.$.&.:.6.2.=.1.2.4.4.8.5.                                                                                                                                                                                                                                                    ",
"                                                                                                                                                                                                                                v z a i y y d k ` X.$.$.;.3.1.=.<.;.1.4.5.8.4.                                                                                                                                                                                                                                                  ",
"                                                                                                                                                                                                                                z z f p y y d k ` X.+.*.=.;.2.2.=.=.;.4.5.8.5.                                                                                                                                                                                                                                                  ",
"                                                                                                                                                                                                                                v v l y y y d m ) +.X.$.=.;.2.1.=.%.=.4.5.8.4.                                                                                                                                                                                                                                                  ",
"                                                                                                                                                                                                                                v x l y y y s k ) $.X.*.=.=.;.1.=.&.=.4.5.5.4.                                                                                                                                                                                                                                                  ",
"                                                                                                                                                                                                                                  x l p y y s k W X.X.*.=.;.;.2.;.*.*.1.4.5.1.=.                                                                                                                                                                                                                                                ",
"                                                                                                                                                                                                                                  v l p s y d j W X.X.%.&.=.:.1.1.*.%.;.4.4.=.=.                                                                                                                                                                                                                                                ",
"                                                                                                                                                                                                                                  v a y d y d j E X.X.+.=.=.;.<.1.*.%.=.4.5.;.=.                                                                                                                                                                                                                                                ",
"                                                                                                                                                                                                                                  v f y p u d j W X.X.$.=.;.;.2.;.*.%.&.4.5.2.=.                                                                                                                                                                                                                                                ",
"                                                                                                                                                                                                                                  N z p d s u j R X.X.+.=.;.;.;.:.%.%.%.;.5.4.-.=.                                                                                                                                                                                                                                              ",
"                                                                                                                                                                                                                                  S c d s s d g R +.X.$.=.;.:.1.;.%.%.%.=.5.5.4.3.                                                                                                                                                                                                                                              ",
"                                                                                                                                                                                                                                  D N a d d s d U  .X.$.&.=.:.:.;.X.%.%.=.4.5.1.;.                                                                                                                                                                                                                                              ",
"                                                                                                                                                                                                                                  S z a d a s d U X.X.$.&.*.:.1.=.} %.%.&.=.;.1.2.&.                                                                                                                                                                                                                                            ",
"                                                                                                                                                                                                                                  b z a g s s g L X. .X.&.=.1.2.&.( | X.| %.&.;.2.3.                                                                                                                                                                                                                                            ",
"                                                                                                                                                                                                                                  N z f g f s g L X.X.X.$.=.1.1.&.E E ' | %.&.1.1.3.                                                                                                                                                                                                                                            ",
"                                                                                                                                                                                                                                  b z l z f s g L X.$.$.#.$.1.:.*.' U ' | O.%.=.2.2.                                                                                                                                                                                                                                            ",
"                                                                                                                                                                                                                                  b z a j j g g L +.+.+.+.%.=.;.*.R Y ] ] ..+.&.3.2.,.                                                                                                                                                                                                                                          ",
"                                                                                                                                                                                                                                  b z f j j g g L +.+.+.%.*.&.;.-.U K ' | ] O.+.=.4.<.                                                                                                                                                                                                                                          ",
"                                                                                                                                                                                                                                  c z f f f f h K X.+.+.%.%.%.;.-.Y D ( ] | @.+.=.5.5.                                                                                                                                                                                                                                          ",
"                                                                                                                                                                                                                                  l a a a h j j K X.+.%.+.%.%.-.=.Y A R ] ] O.%.&.<.5.                                                                                                                                                                                                                                          ",
"                                                                                                                                                                                                                                  z l p p a j j K +.%.%.+.%.*.=.=.L N I ) ) O.&.=.&.4.,.                                                                                                                                                                                                                                        ",
"                                                                                                                                                                                                                                  z f a p p f j K +.%.%.%.%.%.*.=.L j K / ] O.&.&.=.1.5.                                                                                                                                                                                                                                        ",
"                                                                                                                                                                                                                                  l a p u u u u A ..%.%.+.X.%.*.*.K f A / ] ..%.&.=.<.4.                                                                                                                                                                                                                                        ",
"                                                                                                                                                                                                                                  z l a a y e t m ..@.+.%.%.X.X.%.K s B I _ ] &.&.&.=.<.                                                                                                                                                                                                                                        ",
"                                                                                                                                                                                                                                  z l p p p y y c | +.O.+.+.%.%.%.K 9 j K ) ] +.&.=.=.<.,.                                                                                                                                                                                                                                      ",
"                                                                                                                                                                                                                                  l a t w y t y m | O.+.+.+.X.%.*.L e y D / ) o.#.=.=.=.<.                                                                                                                                                                                                                                      ",
"                                                                                                                                                                                                                                  t t q 8 w t d x ] ..o.O.+.%.%.*.L y d B R _ } &.&.&.<.=.                                                                                                                                                                                                                                      ",
"                                                                                                                                                                                                                                  6 < < 8 8 y p m / ....X.+.+.+.*.K 9 r m P | O.&.&.=.=.&.&.                                                                                                                                                                                                                                    ",
"                                                                                                                                                                                                                                  q 8 q q 8 w w g ) } | | +.+.+.+.K 3 5 d K ] +.+.&.=.&.,.,.                                                                                                                                                                                                                                    ",
"                                                                                                                                                                                                                                  p a i q 6 7 9 y I ] ....| X.+.+.K , 3 9 A _ O.+.&.&.&.&.&.                                                                                                                                                                                                                                    ",
"                                                                                                                                                                                                                                  a p w w q 7 8 9 L ] ) ] | +.X.X.L ; 2 4 j Y ) ] O.+.+.%.@.                                                                                                                                                                                                                                    ",
"                                                                                                                                                                                                                                  a p w w 8 8 5 9 K ) ) _ } |  .X.K - - 2 y F T T R ) ] ] O.                                                                                                                                                                                                                                    ",
"                                                                                                                                                                                                                                  p p q 8 < 6 4 w F E E ( ( ` | ` K - * - 5 M J L U R ) _ ] ]                                                                                                                                                                                                                                   ",
"                                                                                                                                                                                                                                  t w q 6 , , 2 8 B U Y E ) ) ` ` F 2 * - 2 x F R ( E ) ) ) _                                                                                                                                                                                                                                   ",
"                                                                                                                                                                                                                                  q q 0 q 6 , , 8 m F H L T E ) ` K 2 - - 1 g F E ) ) ( ) ) _                                                                                                                                                                                                                                   ",
"                                                                                                                                                                                                                                  i p p p w 6 6 w B J K G H I R ) J : - 1 1 s m L U R ( ) ) _                                                                                                                                                                                                                                   ",
"                                                                                                                                                                                                                                  z v N c h j h m L / I Y / T E ( K 3 2 2 5 d m H L W ) ) ) (                                                                                                                                                                                                                                   ",
"                                                                                                                                                                                                                                  V D S m m Z A I ` ` _ _ ` ( R ( K 6 2 4 9 g F T W ` ` } | (                                                                                                                                                                                                                                   ",
"                                                                                                                                                                                                                                  D D N Z A C A / _ o.| | _ | } ` P 8 7 9 r d F E ( ` ` | | ]                                                                                                                                                                                                                                   ",
"                                                                                                                                                                                                                                  P S N B K D D R ( _ ( _ | o.O.#.N 9 8 9 9 g F T ) _ ` ] ) )                                                                                                                                                                                                                                   ",
"                                                                                                                                                                                                                                  D D Z Z A A A Y Y Y R ] ] O.O.` l w 9 9 r k F L R W } ` ) (                                                                                                                                                                                                                                   ",
"                                                                                                                                                                                                                                D D D D A H D G ' Y ' Y ' ] ] ] I w 8 9 9 r g F H T W } ) ` )                                                                                                                                                                                                                                   ",
"                                                                                                                                                                                                                                D P D D D D K I Y R ' ' ' ] ] ' N w w 8 5 9 g F H T W ` ) W                                                                                                                                                                                                                                     ",
"                                                                                                                                                                                                                                Y I G D A A U E R ' ' ] ] ] ] ' z w 8 9 5 9 k m H T W W E )                                                                                                                                                                                                                                     ",
"                                                                                                                                                                                                                                Y P L K Z A Y ' [ ' ' Y [ ' ] I w 9 8 9 9 9 g F H T W W W )                                                                                                                                                                                                                                     ",
"                                                                                                                                                                                                                                P L D D C C P [ ' ' ' ' / ' ' Z w 9 9 y s s g F T T W W ) (                                                                                                                                                                                                                                     ",
"                                                                                                                                                                                                                                Y P K D A D P ' ' ' Y ' ' ' ] c p w y r r s k F T T W W ) R                                                                                                                                                                                                                                     ",
"                                                                                                                                                                                                                              I Y L L K K L Y ' P Y ' Y ' ' ^ h p p r 9 r s k F T T R ) ' (                                                                                                                                                                                                                                     ",
"                                                                                                                                                                                                                              Y I K K K J K / Y Y R R R R '     p w 9 9 9 r k F T T W W ` )                                                                                                                                                                                                                                     ",
"                                                                                                                                                                                                                              Y P K J F A K R I Y U R R R Y     y 9 7 7 5 s M H T W T ` ` R                                                                                                                                                                                                                                     ",
"                                                                                                                                                                                                                              I P K K K K Y R R R R R Y Y Y     g w w w w d m H T T W ` } R                                                                                                                                                                                                                                     ",
"                                                                                                                                                                                                                              I L I L K L R Y Y U R R R '       f p w p s s M F T W W ` O./                                                                                                                                                                                                                                     ",
"                                                                                                                                                                                                                            P Y K L L K L Y Y T R Y R R R       p w w w w s M G T R R E / /                                                                                                                                                                                                                                     ",
"                                                                                                                                                                                                                            Y Y I Y I L R Y R T R R R E ~       p d l w 9 s m H T R R R / (                                                                                                                                                                                                                                     ",
"                                                                                                                                                                                                                            Y Y Y Y P Y T U Y Y Y R R (         s s p p r s m H T T E / '                                                                                                                                                                                                                                       ",
"                                                                                                                                                                                                                            / Y Y Y Y R Y Y Y R R Y ( R         p d w f d s m H T W ( ) )                                                                                                                                                                                                                                       ",
"                                                                                                                                                                                                                            ( ~ Y Y ! / Y U Y R R R ( Y         a a y y d u m K T R ) ' (                                                                                                                                                                                                                                       ",
"                                                                                                                                                                                                                          / ( Y Y Y Y Y Y U U Y U R /           a a t t u u C F T R W ) (                                                                                                                                                                                                                                       ",
"                                                                                                                                                                                                                          Y ~ Y Y Y Y Y U Y U Y R R Y           a a t t u u M K T R W ' '                                                                                                                                                                                                                                       ",
"                                                                                                                                                                                                                          / / R K P I Y U Y Y U R E             f a t e y u C H T W W W (                                                                                                                                                                                                                                       ",
"                                                                                                                                                                                                                          ( / Y Y P Y U Y U U Y R (             h a t t t y m F Y R ) ) (                                                                                                                                                                                                                                       ",
"                                                                                                                                                                                                                          ~ ! I Y Y Y K U U Y Y R Y             h a t t e y C F U R ] ' '                                                                                                                                                                                                                                       ",
"                                                                                                                                                                                                                        Y ~ Y Y I I I U U U Y Y /               l a t t e y B F U R ] ] (                                                                                                                                                                                                                                       ",
"                                                                                                                                                                                                                        P Y Y I P I I I I U U R Y               h p t t e r m G L R ] ] (                                                                                                                                                                                                                                       ",
"                                                                                                                                                                                                                        P Y Y K K I U U Y L Y Y R               h a t t e y M F U Y ' '                                                                                                                                                                                                                                         ",
"                                                                                                                                                                                                                        ~ ~ I P K I K L L U Y Y                   h t t e t m G U ( ' (                                                                                                                                                                                                                                         ",
"                                                                                                                                                                                                                        Y K K K K I L U L K Y Y                   f t e 8 e m G U R ] ]                                                                                                                                                                                                                                         ",
"                                                                                                                                                                                                                        I D D D P K L L K L L K                   a q 7 6 e m K Y ( ( ]                                                                                                                                                                                                                                         ",
"                                                                                                                                                                                                                      K K D A A K K K U L K K                     p t 7 4 e C F U ( ( (                                                                                                                                                                                                                                         ",
"                                                                                                                                                                                                                      D D K A A G K K K K K H                     p 7 7 4 e c G Y ( ' (                                                                                                                                                                                                                                         ",
"                                                                                                                                                                                                                      D A D A J U H U K G K G                     a 8 7 5 r k F Y ( ) )                                                                                                                                                                                                                                         ",
"                                                                                                                                                                                                                      K J A M K K U K H G G                       p e 4 4 y m F Y ( ( /                                                                                                                                                                                                                                         ",
"                                                                                                                                                                                                                      J J A A A G K H G F F                       t 7 6 3 y j F L Y Y U                                                                                                                                                                                                                                         ",
"                                                                                                                                                                                                                    J F A B A F G G G F G A                       8 3 < 4 r k A F K K K                                                                                                                                                                                                                                         ",
"                                                                                                                                                                                                                    B J B m A F A F H G F                         3 < < 4 y j F A A K K                                                                                                                                                                                                                                         ",
"                                                                                                                                                                                                                    D F A B B F A G G F F                         3 3 2 3 r j M C F L                                                                                                                                                                                                                                           ",
"                                                                                                                                                                                                                    F A C F F F F F F G                           7 < 3 3 9 j M F K L                                                                                                                                                                                                                                           ",
"                                                                                                                                                                                                                    A B k F F F F F F F                           8 3 3 3 9 h C F A F                                                                                                                                                                                                                                           ",
"                                                                                                                                                                                                                  M M M F F F C F F F C                           4 < , 1 9 h m M m A                                                                                                                                                                                                                                           ",
"                                                                                                                                                                                                                  B B m M k k C C C F                             , ; , : 5 d k n M C                                                                                                                                                                                                                                           ",
"                                                                                                                                                                                                                  A m x g k M M C F F                             , - - - 5 d m B M A                                                                                                                                                                                                                                           ",
"                                                                                                                                                                                                                  M k f w d k k k F k                             2 , - ; 5 s k m B m                                                                                                                                                                                                                                           ",
"                                                                                                                                                                                                                  x j f 9 d k k g k                                 2 ; ; 4 9 g m M B                                                                                                                                                                                                                                           ",
"                                                                                                                                                                                                                  g g p r d d d g k                                 , ; : 5 s g m m m                                                                                                                                                                                                                                           ",
"                                                                                                                                                                                                                d d s 9 r d d s g j                                 > , : 9 9 g g g k                                                                                                                                                                                                                                           ",
"                                                                                                                                                                                                                w w 5 5 r s s d d                                   , - - 4 9 g d g j                                                                                                                                                                                                                                           ",
"                                                                                                                                                                                                                s w r s s s s g d                                   , - - 3 9 d y f                                                                                                                                                                                                                                             ",
"                                                                                                                                                                                                                p w r d d s s s u                                   > * = 3 9 9 y f                                                                                                                                                                                                                                             ",
"                                                                                                                                                                                                                6 6 4 w y 9 s d                                     = $ % , 4 9 y y                                                                                                                                                                                                                                             ",
"                                                                                                                                                                                                                + + & 2 5 9 9 w                                     & # # ; 2 7 8 7                                                                                                                                                                                                                                             ",
"                                                                                                                                                                                                                  . o & - 2 4 5                                     O o O % & & & &                                                                                                                                                                                                                                             ",
"                                                                                                                                                                                                                        O $ *                                                                                                                                                                                                                                                                                                   ",
"                                                                                                                                                                                                                                                                                                                                                                                                                                                                                                                                ",
"                                                                                                                                                                                                                                                                                                                                                                                                                                                                                                                                ",
"                                                                                                                                                                                                                                                                                                                                                                                                                                                                                                                                ",
"                                                                                                                                                                                                                                                                                                                                                                                                                                                                                                                                "
};
