/* XPM */
static char *out[] = {
/* columns rows colors chars-per-pixel */
"256 256 150 2 ",
"   c None",
".  c #120F0C",
"X  c #1B150F",
"o  c #171111",
"O  c #1C1511",
"+  c #21160F",
"@  c #201712",
"#  c #241A14",
"$  c #2A1E16",
"%  c #231B18",
"&  c #2B1E18",
"*  c #2E211A",
"=  c #34251C",
"-  c #37281E",
";  c #3A291E",
":  c #312521",
">  c #3C2C23",
",  c #3F2F28",
"<  c #3E312B",
"1  c #402D1F",
"2  c #412F22",
"3  c #443225",
"4  c #4A3626",
"5  c #4D3827",
"6  c #453429",
"7  c #4A3629",
"8  c #4D392C",
"9  c #533D2D",
"0  c #4D3B31",
"q  c #533E31",
"w  c #57402F",
"e  c #59412F",
"r  c #554132",
"t  c #5B4433",
"y  c #5E4836",
"u  c #54423A",
"i  c #5C4639",
"p  c #5E493A",
"a  c #604734",
"s  c #624936",
"d  c #634C3B",
"f  c #694E3B",
"g  c #66503D",
"h  c #6C523D",
"j  c #72553E",
"k  c #5E4E42",
"l  c #654F41",
"z  c #665143",
"x  c #6C5442",
"c  c #6F5847",
"v  c #6F5749",
"b  c #6F594A",
"n  c #715641",
"m  c #755A44",
"M  c #7A5D45",
"N  c #705649",
"B  c #745B49",
"V  c #7A5E49",
"C  c #7A5F52",
"Z  c #7E6047",
"A  c #77604F",
"S  c #7D614B",
"D  c #7D6452",
"F  c #82654D",
"G  c #86684E",
"H  c #88694E",
"J  c #826651",
"K  c #866A53",
"L  c #8A6D55",
"P  c #846B59",
"I  c #8A6F59",
"U  c #8E7056",
"Y  c #8D715A",
"T  c #917156",
"R  c #93755C",
"E  c #98775C",
"W  c #96785F",
"Q  c #99795E",
"!  c #846E62",
"~  c #8D7563",
"^  c #8E7668",
"/  c #927761",
"(  c #967961",
")  c #9B7C63",
"_  c #90776B",
"`  c #947A6A",
"'  c #9B7E68",
"]  c #A07F64",
"[  c #9E8066",
"{  c #9E8169",
"}  c #9C8372",
"|  c #A28266",
" . c #A4856A",
".. c #A8876A",
"X. c #A7886D",
"o. c #AA8A6D",
"O. c #A48773",
"+. c #A68972",
"@. c #AD8D72",
"#. c #A78D7B",
"$. c #AA8E7A",
"%. c #B08F72",
"&. c #AF9075",
"*. c #AE9179",
"=. c #B29275",
"-. c #B4957A",
";. c #B89779",
":. c #B6987E",
">. c #BA9A7D",
",. c #C19E7F",
"<. c #AE9580",
"1. c #B29680",
"2. c #B69A81",
"3. c #BC9D82",
"4. c #B79C88",
"5. c #BB9E88",
"6. c #BEA185",
"7. c #BDA28A",
"8. c #BCA292",
"9. c #C09F82",
"0. c #C3A385",
"q. c #C4A689",
"w. c #C6A88B",
"e. c #CAAB8D",
"r. c #C4AA92",
"t. c #CCAE91",
"y. c #C8AF9A",
"u. c #CEB192",
"i. c #CDB49C",
"p. c #D2B495",
"a. c #D5B897",
"s. c #D2B599",
"d. c #D5B99A",
"f. c #D9BD9C",
"g. c #CDB8A0",
"h. c #D5BCA2",
"j. c #D8BEA2",
"k. c #DBC09F",
"l. c #DCC2A2",
"z. c #D7C4A9",
"x. c #DAC4AB",
"c. c #DBCAAE",
"v. c #DCCDB5",
"b. c #DFCEB9",
"n. c #E2CCAB",
"m. c #E1CEB4",
"M. c #E5D2B4",
"N. c #E5D4BA",
"B. c #E8D6BA",
"V. c #E8D8BB",
/* pixels */
"                                                                                                                                                                                                                                                                                                                                                                                                                                                                                                                                ",
"                                                                                                                                                                                                                                                                                                                                                                                                                                                                                                                                ",
"                                                                                                                                                                                                                                                                                                                                                                                                                                                                                                                                ",
"                                                                                                                                                                                                                                                                                                                                                                                                                                                                                                                                ",
"                                                                                                                                                                                                                                                                                                                                                                                                                                                                                                                                ",
"                                                                                                                                                                                                                                                                                                                                                                                                                                                                                                                                ",
"                                                                                                                                                                                                                                                                                                                                                                                                                                                                                                                                ",
"                                                                                                                                                                                                                                                                                                                                                                                                                                                                                                                                ",
"                                                                                                                                                                                                                                                                                                                                                                                                                                                                                                                                ",
"                                                                                                                                                                                                                                                                                                                                                                                                                                                                                                                                ",
"                                                                                                                                                                                                                                                                                                                                                                                                                                                                                                                                ",
"                                                                                                                                                                                                                                                                                                                                                                                                                                                                                                                                ",
"                                                                                                                                                                                                                                                                                                                                                                                                                                                                                                                                ",
"                                                                                                                                                                                                                                                                                                                                                                                                                                                                                                                                ",
"                                                                                                                                                                                                                                                                                                                                                                                                                                                                                                                                ",
"                                                                                                                                                                                                                                                                                                                                                                                                                                                                                                                                ",
"                                                                                                                                                                                                                                                                                                                                                                                                                                                                                                                                ",
"                                                                                                                                                                                                                                                                                                                                                                                                                                                                                                                                ",
"                                                                                                                                                                                                                                                                                                                                                                                                                                                                                                                                ",
"                                                                                                                                                                                                                                                                                                                                                                                                                                                                                                                                ",
"                                                                                                                                                                                                                                                                                                                                                                                                                                                                                                                                ",
"                                                                                                                                                                                                                                                                                                                                                                                                                                                                                                                                ",
"                                                                                                                                                                                                                                                                                                                                                                                                                                                                                                                                ",
"                                                                                                                                                                                                                                                                                                                                                                                                                                                                                                                                ",
"                                                                                                                                                                                                                                                                                                                                                                                                                                                                                                                                ",
"                                                                                                                                                                                                                                                                                                                                                                                                                                                                                                                                ",
"                                                                                                                                                                                                                                                                                                                                                                                                                                                                                                                                ",
"                                                                                                                                                                                                                                                                                                                                                                                                                                                                                                                                ",
"                                                                                                                                                                                                                                                                                                                                                                                                                                                                                                                                ",
"                                                                                                                                                                                                                    b.B.b.v.                                                                                                                                                                                                                                                                                                    ",
"                                                                                                                                                                                                                    m.n.M.M.V.B.B.m.b.c.                                                                                                                                                                                                                                                                                        ",
"                                                                                                                                                                                                                  g.l.l.l.l.l.n.n.n.M.M.M.B.M.b.v.c.                                                                                                                                                                                                                                                                            ",
"                                                                                                                                                                                                                  k.l.k.k.k.k.k.k.k.k.k.l.l.n.l.n.n.n.c.M.c.c.z.                                                                                                                                                                                                                                                                ",
"                                                                                                                                                                                                                  z.l.k.k.k.k.k.k.k.k.k.k.k.k.k.k.k.k.k.l.n.n.l.l.l.z.d.s.y.                                                                                                                                                                                                                                                    ",
"                                                                                                                                                                                                                  M.k.k.k.k.k.a.k.k.k.k.k.k.k.e.k.k.k.k.k.k.k.,.a.a.p.u.s.u.u.p.s.                                                                                                                                                                                                                                              ",
"                                                                                                                                                                                                                  c.a.k.a.a.a.a.k.k.,.k.k.k.k.k.k.k.k.k.k.k.k.k.a.p.e.q.9.9.9.9.w.                                                                                                                                                                                                                                              ",
"                                                                                                                                                                                                                  k.k.k.a.u.u.u.,.e.k.,.k.e.k.k.k.k.u.k.k.k.k.k.a.t.e.e.e.e.q.9.5.                                                                                                                                                                                                                                              ",
"                                                                                                                                                                                                                z.k.k.7.a.e.e.e.,.k.e.e.,.k.,.k.e.u.k.e.,.k.,.k.e.e.e.u.u.e.u.t.q.                                                                                                                                                                                                                                              ",
"                                                                                                                                                                                                                7.k.e.k.e.e.w.w.,.k.e.k.e.e.,.k.e.k.,.k.e.k.e.k.e.e.u.p.u.u.u.u.0.                                                                                                                                                                                                                                              ",
"                                                                                                                                                                                                                k.k.e.,.w.w.0.w.,.7.,.,.e.e.e.u.,.e.e.e.k.,.k.,.t.u.e.e.e.e.e.9.7.                                                                                                                                                                                                                                              ",
"                                                                                                                                                                                                                a.e.w.w.6.>.0.0.k.,.w.w.w.e.e.e.e.,.k.w.k.,.,.k.e.e.q.q.q.w.w.w.                                                                                                                                                                                                                                                ",
"                                                                                                                                                                                                                a.e.e.w.6.6.0.0.,.,.,.w.,.w.w.w.w.w.,.,.k.,.,.k.w.9.w.0.q.w.w.w.                                                                                                                                                                                                                                                ",
"                                                                                                                                                                                                                u.w.w.0.6.0.0.0.,.7.7.w.w.,.w.w.,.,.,.k.,.,.,.7.0.0.q.q.q.e.e.0.                                                                                                                                                                                                                                                ",
"                                                                                                                                                                                                              y.w.0.0.0.0.>.;.>.,.,.,.w.w.w.e.,.k.7.,.,.,.k.k.,.e.e.q.e.e.e.e.q.                                                                                                                                                                                                                                                ",
"                                                                                                                                                                                                              r.0.,.>.,.6.6.,.>.>.,.,.0.,.0.w.0.,.w.,.,.k.,.k.,.u.e.e.e.e.e.e.0.                                                                                                                                                                                                                                                ",
"                                                                                                                                                                                                              7.>.,.>.=.=.>.>.>.;.;.>.>.,.,.0.0.,.,.k.,.,.,.,.k.e.e.e.0.w.e.e.5.                                                                                                                                                                                                                                                ",
"                                                                                                                                                                                                              6.=.=.=.%.%.=.;.=.=.;.;.;.;.,.,.,.,.k.,.,.,.,.e.,.0.e.e.e.0.w.e.                                                                                                                                                                                                                                                  ",
"                                                                                                                                                                                                              *.o.o.%.%.o.o.o.%.&.&.=.;.;.>.,.,.,.,.e.,.k.7.7.,.0.e.e.0.q.q.w.                                                                                                                                                                                                                                                  ",
"                                                                                                                                                                                                              =.o.o.%.%.o.o.o.%.%.%.=.=.;.;.;.>.>.,.,.,.,.e.,.,.e.0.e.e.0.0.e.                                                                                                                                                                                                                                                  ",
"                                                                                                                                                                                                            <.&.o.o.o.....o.%.o.%.%.o.o.%.%.=.;.;.>.>.,.e.,.k.>.0.0.0.e.e.e.e.                                                                                                                                                                                                                                                  ",
"                                                                                                                                                                                                            *.o.......| ..o.%.%.%.&.&.o.o.o.o.;.;.>.>.>.,.,.,.,.,.,.e.0.0.w.9.                                                                                                                                                                                                                                                  ",
"                                                                                                                                                                                                            #.| ......| | o.%.%.=.o.%.o...| o.o.=.=.;.>.,.,.,.,.0.,.0.0.w.w.9.                                                                                                                                                                                                                                                  ",
"                                                                                                                                                                                                            +.[ | ..| | | ....o.o.+.o.o.o.o.o.o.%.%.;.;.;.>.,.;.,.0.9.0.,.9.                                                                                                                                                                                                                                                    ",
"                                                                                                                                                                                                            X.Q | | | | | | ..o.....o.o.o.%.o.%.o.%.%.;.=.>.,.;.;.>.>.,.,.,.                                                                                                                                                                                                                                                    ",
"                                                                                                                                                                                                            X.Q E T E | | | ....o...o.o.o.o...o.o.%.%.%.%.;.;.;.;.;.;.,.,.>.                                                                                                                                                                                                                                                    ",
"                                                                                                                                                                                                          ` U R T T T [ | ....o.o.........o...o.o.%.%.=.=.%.=.;.=.;.;.;.;.>.                                                                                                                                                                                                                                                    ",
"                                                                                                                                                                                                          _ K H H H H T T | | ..o.........| ..o.o.o.%.%.%.%.o.%.;.;.>.>.>.-.                                                                                                                                                                                                                                                    ",
"                                                                                                                                                                                                          ' T H H H H H H H [ | | | ..| ..| ....o.%.%.%.=.=.%.o.%.%.;.,.;.&.                                                                                                                                                                                                                                                    ",
"                                                                                                                                                                                                          I F L H H H H H H H | ] | | | | ........%.%.%.=.%.%.o.o.%.;.;.;.                                                                                                                                                                                                                                                      ",
"                                                                                                                                                                                                          B m S Z H H H H H H E | | Q | | | ......o.%.%.%.%.%.%.o.%.=.%.=.                                                                                                                                                                                                                                                      ",
"                                                                                                                                                                                                          8 8 t y g c Z Z H T [ Q | | | | | | ....%.%.%.o.@.o.o.o.o.o...o.                                                                                                                                                                                                                                                      ",
"                                                                                                                                                                                                                      w e s j j L R ) ] ....| ..o.....%.%...| ..o.........                                                                                                                                                                                                                                                      ",
"                                                                                                                                                                                                                                3 6 e f M H E ] ......%.%...|  .| | | | {                                                                                                                                                                                                                                                       ",
"                                                                                                                                                                                                                                @ X X # $ = 1 5 a j H E ] ) E ] ..| Q | '                                                                                                                                                                                                                                                       ",
"                                                                                                                                                                                                                                & O X O O + X @ O *       l x B J I U R                                                                                                                                                                                                                                                         ",
"                                                                                                                                                                                                                                : & # # # @ @ @ O :                   l                                                                                                                                                                                                                                                         ",
"                                                                                                                                                                                                                                < - ; ; - = = $ = u                                                                                                                                                                                                                                                                             ",
"                                                                                                                                                                                                                                0 6 8 q 8 7 7 3 q D                                                                                                                                                                                                                                                                             ",
"                                                                                                                                                                                                                                u t d d d d d d B _                                                                                                                                                                                                                                                                             ",
"                                                                                                                                                                                                                                k x V B n n m B K }                                                                                                                                                                                                                                                                             ",
"                                                                                                                                                                                                                                z B J J S S J K I $.                                                                                                                                                                                                                                                                            ",
"                                                                                                                                                                                                                                b J L K K J K U ( *.                                                                                                                                                                                                                                                                            ",
"                                                                                                                                                                                                                                  U Y Y L J K R { -.                                                                                                                                                                                                                                                                            ",
"                                                                                                                                                                                                                                  L Y L R I I T  .2.                                                                                                                                                                                                                                                                            ",
"                                                                                                                                                                                                                                  B U Y / ( R T E $.                                                                                                                                                                                                                                                                            ",
"                                                                                                                                                                                                                                  V ~ )  .X.O.| ) O.                                                                                                                                                                                                                                                                            ",
"                                                                                                                                                                                                            8.r.r.r.5.7.9.q.9.9.7.4.3.5.q.q.e.w.q.q.q.q.q.q.q.5.3.4.2.1.1.                                                                                                                                                                                                                                                      ",
"                                                                                                                                                                                                             . .+.%.$.%.=.;.2.9.>.>.,.9.,.0.,.w.0.0.0.0.0.0.0.0.3.3.2.2.2.-.                                                                                                                                                                                                                                                    ",
"                                                                                                                                                                                                             . . .....o.%.=.;.;.>.>.9.,.,.,.,.,.0.,.0.9.3.3.9.3.3.2.2.>.2.1.                                                                                                                                                                                                                                                    ",
"                                                                                                                                                                                                             ...| o.o.o.%.=.y.i.t.w.0.9.>.,.;.;.>.;.;.,.9.0.0.3.2.2.>.>.2.1.                                                                                                                                                                                                                                                    ",
"                                                                                                                                                                                                            o.o...X.%.=.=.9.j.j.k.z.k.i.7.7.,.,.>.>.:.>.>.7.,.>.9.2.;.1.2.-.                                                                                                                                                                                                                                                    ",
"                                                                                                                                                                                                            @.=.@.@.%.;.;.w.s.s.k.k.z.k.z.k.z.7.,.>.:.>.>.>.>.7.9.3.;.9.2.-.                                                                                                                                                                                                                                                    ",
"                                                                                                                                                                                                            &.=.;.=.%.%.3.t.t.u.r.r.u.k.k.u.k.>.:.>.7.,.,.7.7.,.9.9.2.1.2.-.                                                                                                                                                                                                                                                    ",
"                                                                                                                                                                                                            $.=.%.%.%.%.9.t.t.t.t.e.e.7.u.e.7.:.:.:.:.,.,.,.,.,.9.9.2.;.-.-.                                                                                                                                                                                                                                                    ",
"                                                                                                                                                                                                            ..o...o.o.%.e.d.s.u.u.u.t.w.7.7.,.:.&.&.&.=.>.>.,.,.2.9.2.1.%.$.                                                                                                                                                                                                                                                    ",
"                                                                                                                                                                                                            ..........;.a.d.d.p.u.u.t.t.u.,.:.:.:.=.&.&.&.>.>.,.9.2.9.1.*.$.                                                                                                                                                                                                                                                    ",
"                                                                                                                                                                                                            o...] Q ] 0.u.u.u.p.u.t.t.t.u.,.>.=.=.=.&.@.&.>.>.,.9.9.2.9.1.*.                                                                                                                                                                                                                                                    ",
"                                                                                                                                                                                                            o...] E o.u.p.t.e.t.e.e.w.r.w.>.;.;.=.&.&.o.:.>.>.>.9.2.9.9.9.1.                                                                                                                                                                                                                                                    ",
"                                                                                                                                                                                                            [ [ [ R >.t.u.s.p.u.u.u.t.e.6.>.-.=.%.%.%.o.;.>.>.>.3.3.3.9.3.2.                                                                                                                                                                                                                                                    ",
"                                                                                                                                                                                                            [ | R { u.u.t.p.p.p.s.u.u.t.6.>.;.=.%.%.%.&.-.;.;.>.>.>.3.>.3.2.                                                                                                                                                                                                                                                    ",
"                                                                                                                                                                                                            [ [ R ;.p.p.u.t.t.u.u.u.u.e.6.,.>.-.%.%.=.=.;.>.-.;.>.>.3.3.3.2.                                                                                                                                                                                                                                                    ",
"                                                                                                                                                                                                            W Q [ ,.w.t.t.e.w.e.e.e.w.6.,.>.>.=.=.=.=.=.=.=.=.-.3.3.>.3.3.2.                                                                                                                                                                                                                                                    ",
"                                                                                                                                                                                                            W T X.0.w.w.w.e.e.e.e.e.w.,.>.:.:.;.;.=.=.=.=.=.=.=.;.3.;.;.2.-.                                                                                                                                                                                                                                                    ",
"                                                                                                                                                                                                            W [ 6.k.p.e.w.0.0.0.6.6.,.>.>.:.;.;.=.=.=.=.=.=.&.&.=.3.3.;.2.-.                                                                                                                                                                                                                                                    ",
"                                                                                                                                                                                                            R X.e.k.p.t.t.e.6.6.0.,.>.>.>.;.;.=.=.=.-.-.=.=.=.&.&.;.;.;.>.-.                                                                                                                                                                                                                                                    ",
"                                                                                                                                                                                                            W :.e.t.t.e.e.e.e.w.6.,.>.>.>.;.;.=.&.=.;.;.=.=.=.&.%.&.-.;.>.-.                                                                                                                                                                                                                                                    ",
"                                                                                                                                                                                                            ' q.w.q.e.w.q.w.q.0.,.>.>.>.>.:.=.=.%.=.;.;.-.=.;.=.&.;.-.;.1.*.                                                                                                                                                                                                                                                    ",
"                                                                                                                                                                                                            *.t.t.e.u.u.e.w.0.0.>.>.>.>.>.-.=.%.%.=.=.;.=.-.=.>.-.;.;.;.;.1.                                                                                                                                                                                                                                                    ",
"                                                                                                                                                                                                            w.t.e.e.w.t.p.e.w.>.-.>.;.;.=.=.=.o.=.;.=.>.;.-.;.;.;.;.;.-.>.>.                                                                                                                                                                                                                                                    ",
"                                                                                                                                                                                                            t.e.e.e.6.3.w.0.9.=.;.>.;.;.-.=.=.=.=.=.=.=.-.;.-.=.&.;.-.-.-.2.                                                                                                                                                                                                                                                    ",
"                                                                                                                                                                                                          q.e.t.e.w.w.w.9.;.%.=.;.;.;.>.=.=.&.%.;.=.=.=.=.=.&.=.=.%.-.%.=.*.                                                                                                                                                                                                                                                    ",
"                                                                                                                                                                                                          t.t.e.e.e.e.e.e.0.3.;.;.;.;.;.=.&.%.%.=.=.=.=.=.o.=.=.%.-.=.-.-.-.                                                                                                                                                                                                                                                    ",
"                                                                                                                                                                                                        w.u.e.e.e.e.e.0.e.t.3.%.=.;.;.;.=.=.%.%.=.=.=.=.=.=.=.&.%.-.%.-.-.-.                                                                                                                                                                                                                                                    ",
"                                                                                                                                                                                                        r.t.e.e.e.e.e.w.0.9.;.-.=.=.=.=.=.o.%.%.=.=.=.=.=.=.=.o.%.@.%.%.-.-.                                                                                                                                                                                                                                                    ",
"                                                                                                                                                                                                        u.u.u.u.e.e.e.e.e.0.;.;.=.=.=.=.%.o.%.%.=.;.=.=.=.-.;.o.@.@.%.-.-.-.                                                                                                                                                                                                                                                    ",
"                                                                                                                                                                                                      r.q.e.e.e.e.e.e.e.e.w.;.=.=.=.=.=.o.o.%.%.&.=.-.=.=.;.=.&.@.%.@.@.%.-.                                                                                                                                                                                                                                                    ",
"                                                                                                                                                                                                      u.w.e.t.e.e.e.0.9.,.;.=.=.%.%.%.%.o.o.%.=.&.=.=.=.=.=.=.o.@.%.%.%.-.$.                                                                                                                                                                                                                                                    ",
"                                                                                                                                                                                                    7.e.e.t.e.e.e.0.9.,.;.%.o.%.o...o.o.o.o.%.=.&.@.=.=.=.&.=.o.o.o.@.@.%.-.                                                                                                                                                                                                                                                    ",
"                                                                                                                                                                                                    w.w.w.e.w.w.0.0.>.;.=...| ..| | ..| X.o.o.&.=.=.%.=.=.=.%.&.@.@.@.@.@.@.                                                                                                                                                                                                                                                    ",
"                                                                                                                                                                                                  6.w.w.q.6.q.0.w.0.>.&.o...| | | | | ..o.o.o.&.@.&.%.&.&.&.%.o.+.o.%.&.&.&.                                                                                                                                                                                                                                                    ",
"                                                                                                                                                                                                  6.q.q.>.6.6.6.>.>.;.o...| | | [ [ [ X.X.+.&.o.o.&.o.&.&.o.&.o.o...@.&.&.*.                                                                                                                                                                                                                                                    ",
"                                                                                                                                                                                                  3.3.>.,.6.>.;.&.&.;...| | | | [ [ [  .X.o.o.&.o.o...o.&.o.o.&.-.o.o.%.=.-.                                                                                                                                                                                                                                                    ",
"                                                                                                                                                                                                -.:.>.3.0.3.-.&.] ]  . . .] ] Q E Q { .. .X.X. . . . ...X.+.&.&.-.=.@.@.@.-.                                                                                                                                                                                                                                                    ",
"                                                                                                                                                                                                *.@.&.-.3.:.&...] ( ( ] ] ] Q R R |  ... .X.X.|  . .| ..o.o.o.o.@.%.%.o.o.&.                                                                                                                                                                                                                                                    ",
"                                                                                                                                                                                                @.X.' ( ( X...( ) ) ) ) ) ) E E Q | .. . . . . . . .| ......o.o.@.@.%.@.o.@.                                                                                                                                                                                                                                                    ",
"                                                                                                                                                                                              O.{ { Q U L U U U R ] ) ) E R E R Q ' [ [  .[  .[ { | | .. . .X.....X.o.+.o.@.                                                                                                                                                                                                                                                    ",
"                                                                                                                                                                                              { ) U L L W Q U ( ) ' ) ( R T T T R ( [ [ [ [ [ [ ] ] ) ) '  .| | ) ]  .....X.                                                                                                                                                                                                                                                    ",
"                                                                                                                                                                                            I Y R F B B S U U ' ' ) ) ) E T K T R R W [ { [ [ [ ) ) Q Q ) | | | ] ( ) |  .X.O.                                                                                                                                                                                                                                                  ",
"                                                                                                                                                                                            } #.2.*.+.#.#.*.$.*. .I I T T T L R ( W R ) ) ) [ [ ) ( ( ( ( ' ] | ] ' ' )  .o.O.                                                                                                                                                                                                                                                  ",
"                                                                                                                                                                                            7.q.q.7.2.-.&.$.X.O.2.-.' K F K I T R R R W ( Q ) ) ' Q E E Q ) ) ) ) ] ' |  .o.O.                                                                                                                                                                                                                                                  ",
"                                                                                                                                                                                            {  . . .' R U ) &.=.&.+.@.{ / P I I R R ( [ [ W W W ( W W R Q ( ' ) ( ) ) ) | X.O.                                                                                                                                                                                                                                                  ",
"                                                                                                                                                                                              ( R R ' | E [ =.;.*.X.+.+.X.' U I Y U R ( ( [ [ W ) ( W W Q ( ) ) ) ) ) ) | |  .                                                                                                                                                                                                                                                  ",
"                                                                                                                                                                                              Y W R W ) [ [ ..=.3.-.$.@.o. .I K L L U R R ( [ ( ) ) ) W ( ) ( ' Q ( ( ) '  .O.                                                                                                                                                                                                                                                  ",
"                                                                                                                                                                                              K Y R T )  .[ [ [ ;.3.=.@.@.@.R G K K L Y Y R R W ) ' ) ( R ( E ( W Q ( Q ) {  .                                                                                                                                                                                                                                                  ",
"                                                                                                                                                                                                P K K U R R T E o.3.-.$.@.%.( K G K K P U U Y R R ( ( ) W R R R R ( ( ( ( ) [                                                                                                                                                                                                                                                   ",
"                                                                                                                                                                                                V V S L L L U T | -.-.%.@.%.' J K S S G K U U Y R W ( W W W R R T T I R ) ) '                                                                                                                                                                                                                                                   ",
"                                                                                                                                                                                                h h g x Z F G G U =.-.%.%.%.| L L K G G G J U U U Y R R R Y R U R R R R R Q )                                                                                                                                                                                                                                                   ",
"                                                                                                                                                                                                  d t t g S F F F X.-.=.=.=.o.K K K K K J G S G K U R R R U U I L I T I T R (                                                                                                                                                                                                                                                   ",
"                                                                                                                                                                                                  p t y g m M Z Z [ -.=.-.=.o.G F F J G L L K G K L U R R R U I L L L L Y Y R                                                                                                                                                                                                                                                   ",
"                                                                                                                                                                                                  g x x g m j M Z U -.:.;.;.=.D B B F F J K I L L L L I U U I U L I Y L L Y U                                                                                                                                                                                                                                                   ",
"                                                                                                                                                                                                    A D S S Z M Z H &.>.>.>.-.[ m F F N J J J J K K L U Y Y I L L L L L L L I ~                                                                                                                                                                                                                                                 ",
"                                                                                                                                                                                                    g g m S D Z Z Z +.6.,.,.;.[ m n m m m M F F K K K L L Y U L L K L L K K L I                                                                                                                                                                                                                                                 ",
"                                                                                                                                                                                                    r r r g S S G G | ,.6.6.,.[ n n n n h h m F F F F J K K U I K K K P K K K I                                                                                                                                                                                                                                                 ",
"                                                                                                                                                                                                      r r r B Z Z S R ,.,.w.7.&.n x n n n h h n F F F F G F K L L K K K K L L I                                                                                                                                                                                                                                                 ",
"                                                                                                                                                                                                      r w r n Z Z S G %.,.7.7.:.B h h n n n h h n N C F F F J J K K J J J F K P                                                                                                                                                                                                                                                 ",
"                                                                                                                                                                                                      0 w r g Z S S Z ..,.6.7.:.F h h h h n n h n n n n B B F F G K F F V V B F                                                                                                                                                                                                                                                 ",
"                                                                                                                                                                                                        8 r y m S H D [ >.,.6.,.K f f f f h x h x h x n n m M F F V B n z l l x                                                                                                                                                                                                                                                 ",
"                                                                                                                                                                                                        8 0 r y m L H E :.,.6.6.R x f a f x x F I I J f q a d d q 7 6 3 , ,                                                                                                                                                                                                                                                     ",
"                                                                                                                                                                                                          8 8 7 p H R R ;.6.6.6.P 7 3 2 s h f L ' O.' ( / / / / C                                                                                                                                                                                                                                                               ",
"                                                                                                                                                                                                          < 3 8 r S T U &.6.6.w.Y = = ; 9 t a L O.O.@.+.O.o.o.' !                                                                                                                                                                                                                                                               ",
"                                                                                                                                                                                                          , 7 w r x K K | 3.6.0.] 1 1 5 e e e I O.O.+...O.@.+.+.^                                                                                                                                                                                                                                                               ",
"                                                                                                                                                                                                            7 5 8 g S S T :.6.q.$.4 1 9 a e a L @.$.@.O.@.@.%.-.`                                                                                                                                                                                                                                                               ",
"                                                                                                                                                                                                            7 7 8 d Z M K -.3.q.2.9 1 5 a f h L $.%.@.$.$.%.-.*.#.`                                                                                                                                                                                                                                                             ",
"                                                                                                                                                                                                            6 7 8 y Z M F @.3.0.5.i + 4 e f j I $.&.&.=.*.-.>.2.$.<.                                                                                                                                                                                                                                                            ",
"                                                                                                                                                                                                              6 7 y A j Z | ,.6.w.z % 4 w e h U &.*.:.:.>.-.2.2.<.1.                                                                                                                                                                                                                                                            ",
"                                                                                                                                                                                                              6 < y Z Z j [ ,.6.7.D % > w e g L &.&.-.>.3.3.2.>.-.2.1.                                                                                                                                                                                                                                                          ",
"                                                                                                                                                                                                                8 r S S Z U :.6.w.~ * , w e s K *.&.-.6.3.2.2.2.2.2.4.                                                                                                                                                                                                                                                          ",
"                                                                                                                                                                                                                0 8 m S Z H -.6.w.} > , w t j F &.&.-.6.0.>.>.:.2.3.6.                                                                                                                                                                                                                                                          ",
"                                                                                                                                                                                                                w < d S S F o.,.6.} 0 7 t s f G &.&.&.>.7.3.:.-.>.3.0.                                                                                                                                                                                                                                                          ",
"                                                                                                                                                                                                                  - w m S Z [ :.:.#.p r 9 e t H &.*.&.-.6.3.:.-.-.3.0.8.                                                                                                                                                                                                                                                        ",
"                                                                                                                                                                                                                  > > r j h U &.-.*.b r 9 9 s F +.;.:.:.:.-.:.:.-.3.7.q.                                                                                                                                                                                                                                                        ",
"                                                                                                                                                                                                                  > - > w 5 h X.*.*.D 8 9 w h H o.;.-.;.>.:.:.-.2.6.7.r.                                                                                                                                                                                                                                                        ",
"                                                                                                                                                                                                                    = > 3 4 y [ $.-.P 0 8 8 a V ..@.=.=.>.-.-.-.2.0.w.r.                                                                                                                                                                                                                                                        ",
"                                                                                                                                                                                                                    = ; w e s Y -.1.P 6 6 5 e M X.=.=.=.-.-.*.*.2.6.w.r.7.                                                                                                                                                                                                                                                      ",
"                                                                                                                                                                                                                      = 4 t f K $.-.~ 6 8 9 a j ..=.=.-.-.-.-.-.-.3.q.r.r.                                                                                                                                                                                                                                                      ",
"                                                                                                                                                                                                                      = = 5 s S O.<.' u q 9 a M | @.=.=.-.-.-.-.-.4.7.w.r.                                                                                                                                                                                                                                                      ",
"                                                                                                                                                                                                                      = * ; 9 h | $.O.i 9 9 a j | %.%.=.=.-.-.-.-.6.7.7.r.                                                                                                                                                                                                                                                      ",
"                                                                                                                                                                                                                        $ * ; e R +.' l t 9 a m | %.%.=.-.-.-.-.-.:.6.q.q.7.                                                                                                                                                                                                                                                    ",
"                                                                                                                                                                                                                        * $ * = i P D s 9 t a j ] @.%.-.-.>.-.-.-.2.6.7.q.7.                                                                                                                                                                                                                                                    ",
"                                                                                                                                                                                                                        + + + + = 0 u q t e a m ] @.@.-.>.4.-.-.:.3.3.7.7.q.                                                                                                                                                                                                                                                    ",
"                                                                                                                                                                                                                            o   r k p u t a a m ] o.%.=.:.6.2.-.2.2.3.6.q.7.                                                                                                                                                                                                                                                    ",
"                                                                                                                                                                                                                                z x d r t q s j ] o.%.=.-.2.3.>.:.:.3.6.7.q.4.                                                                                                                                                                                                                                                  ",
"                                                                                                                                                                                                                                v z l i t t a j ] %.o.&.-.>.2.2.:.*.:.6.7.q.6.                                                                                                                                                                                                                                                  ",
"                                                                                                                                                                                                                                b x l t q t s j Q %.o.&.-.2.3.4.:.&.:.6.7.q.6.                                                                                                                                                                                                                                                  ",
"                                                                                                                                                                                                                                N v l q q t s j ) o.&.&.-.:.2.2.*.=.-.3.7.7.7.                                                                                                                                                                                                                                                  ",
"                                                                                                                                                                                                                                  n l i a a s h Q o.o.=.-.:.>.2.:.*.*.:.6.6.6.*.                                                                                                                                                                                                                                                ",
"                                                                                                                                                                                                                                  v z i a t s j E o.o.&.&.-.>.2.2.&.-.:.6.6.:.-.                                                                                                                                                                                                                                                ",
"                                                                                                                                                                                                                                  B d t t t s f E o.o.&.*.:.2.>.>.=.&.-.7.7.>.-.                                                                                                                                                                                                                                                ",
"                                                                                                                                                                                                                                  v d r i t a h E o.o.%.*.>.2.2.>.&.&.-.6.7.2.;.*.                                                                                                                                                                                                                                              ",
"                                                                                                                                                                                                                                  B z p a t a h R o.o.%.-.:.:.:.>.=.&.&.>.0.4.:.2.                                                                                                                                                                                                                                              ",
"                                                                                                                                                                                                                                  D v p d a a f R o.o.@.-.:.>.2.2.&.&.&.:.7.7.3.2.                                                                                                                                                                                                                                              ",
"                                                                                                                                                                                                                                  D B p s s a s T X.@.%.-.-.>.2.>.+.&.&.-.2.7.6.2.                                                                                                                                                                                                                                              ",
"                                                                                                                                                                                                                                  A z p d y a f L o.o.%.%.-.>.2.-.[ +.&.*.*.>.2.2.2.                                                                                                                                                                                                                                            ",
"                                                                                                                                                                                                                                  b z p d s s f L o.o.@.$.-.2.3.&.[ ..o.O.&.&.:.4.2.                                                                                                                                                                                                                                            ",
"                                                                                                                                                                                                                                  b z d g f a s L ..o.o.@.-.>.3.=.( W [ X.@.&.:.3.3.                                                                                                                                                                                                                                            ",
"                                                                                                                                                                                                                                  B z d g d s f L o.%.o.$.=.-.2.=.) Y [  .+.&.:.4.2.                                                                                                                                                                                                                                            ",
"                                                                                                                                                                                                                                  v z d x j f f U @.&.@.+.&.:.:.=.W Y { {  .@.*.2.6.<.                                                                                                                                                                                                                                          ",
"                                                                                                                                                                                                                                  b z p h n s f L o.o.o.&.&.&.:.-.U K '  .{ O.*.:.6.2.                                                                                                                                                                                                                                          ",
"                                                                                                                                                                                                                                  x z d p d d f G o.&.&.&.&.&.:.:.U J (  . .+.&.*.7.7.                                                                                                                                                                                                                                          ",
"                                                                                                                                                                                                                                  z p d p d h g K +.+.&.&.=.&.;.:.U S R { { +.&.*.:.7.                                                                                                                                                                                                                                          ",
"                                                                                                                                                                                                                                  z d i t d h x L +.&.=.&.&.&.=.:.L B L ' ( O.-.*.-.2.4.                                                                                                                                                                                                                                        ",
"                                                                                                                                                                                                                                  z d i i y p h G X.&.&.&.&.&.=.-.L h K ( ' O.&.-.*.2.7.                                                                                                                                                                                                                                        ",
"                                                                                                                                                                                                                                  k p p y y t y S O.&.&.&.o.o.&.=.P s F ~ { X.&.-.-.2.4.                                                                                                                                                                                                                                        ",
"                                                                                                                                                                                                                                  z p p p t r e B  .&.+.&.o.&.&.=.K s B I '  .$.*.*.-.2.                                                                                                                                                                                                                                        ",
"                                                                                                                                                                                                                                  z p p i t t t m  .+.&.o.=.%.&.=.L 9 g K ' { #.-.-.-.2.1.                                                                                                                                                                                                                                      ",
"                                                                                                                                                                                                                                  l p u r r t t x  .+.+.@.o.%.&.=.L e t S ( )  .@.*.-.1.2.                                                                                                                                                                                                                                      ",
"                                                                                                                                                                                                                                  u r 8 0 9 r p n ' X.O.+.&.o.&.=.I t s V Y { | *.*.*.:.<.                                                                                                                                                                                                                                      ",
"                                                                                                                                                                                                                                  6 > 6 8 8 r y x '  .O.o.&.&.o.%.L 9 e m I { +.&.*.:.*.*.*.                                                                                                                                                                                                                                    ",
"                                                                                                                                                                                                                                  0 0 0 0 8 q r f ( X. . .@.o.@.%.L 3 5 s K ' +.&.*.-.*.-.<.                                                                                                                                                                                                                                    ",
"                                                                                                                                                                                                                                  i p u 0 6 7 9 r U | |  .X.@.@.@.L ; 3 9 S ' X.+.*.-.-.:.*.                                                                                                                                                                                                                                    ",
"                                                                                                                                                                                                                                  k i q q q 7 8 9 K ' ] ] O.o.X.o.L > > 3 h U ' { X.+.+.$.$.                                                                                                                                                                                                                                    ",
"                                                                                                                                                                                                                                  p i q q 8 7 9 9 K ( Q ' | X.X.o.L = = 1 t S R R W ' [ { X.{                                                                                                                                                                                                                                   ",
"                                                                                                                                                                                                                                  k q q 0 2 3 6 0 F R ( E ) ]  .] K = & = 4 m G T I R ) ' | '                                                                                                                                                                                                                                   ",
"                                                                                                                                                                                                                                  q q 0 6 , > 3 8 M L R R ) ) ] ] H ; * = 2 x F T ( E ' ) ' '                                                                                                                                                                                                                                   ",
"                                                                                                                                                                                                                                  q 0 6 0 0 > > 7 n J K L R E ( ] L 2 = = 1 s F R ' ) Q Q ' '                                                                                                                                                                                                                                   ",
"                                                                                                                                                                                                                                    u i q q 6 3 q F J G K J U E ] J 2 = ; 1 a m L T R Q ( ) '                                                                                                                                                                                                                                   ",
"                                                                                                                                                                                                                                  z b b c g g g n L / Y Y R U R ( K 6 2 1 5 s n H T R ) ) ' (                                                                                                                                                                                                                                   ",
"                                                                                                                                                                                                                                  b D D m m A S P ] O.' ' ] ( R / L 8 2 4 9 f F T R ] ] ' | )                                                                                                                                                                                                                                   ",
"                                                                                                                                                                                                                                  D D B B J S S / ' ' ' ] ] ]  .] K 8 6 9 9 f F R ( ]  . .X.{                                                                                                                                                                                                                                   ",
"                                                                                                                                                                                                                                  P D B B J D D Y ( ] ] ' O.#.+.$.C 9 9 9 9 f F T ( ) ] | ) '                                                                                                                                                                                                                                   ",
"                                                                                                                                                                                                                                  P D m A S S S Y R R W { { X.@.] l q 9 9 e j F T T Q ] ] ' (                                                                                                                                                                                                                                   ",
"                                                                                                                                                                                                                                D D D A D K S K R W R R [ { { { Y q 8 9 9 9 f F H T Q | ) ) (                                                                                                                                                                                                                                   ",
"                                                                                                                                                                                                                                D I D D S G K P ~ [ [ W [ { { { C q q 9 5 9 h F H I Q ] Q Q (                                                                                                                                                                                                                                   ",
"                                                                                                                                                                                                                                Y Y D D S S L R W W [ { { { { { x q 0 8 5 9 h m H T E Q Q '                                                                                                                                                                                                                                     ",
"                                                                                                                                                                                                                                Y I D K A S D { { ( { ~ { { { P q 9 9 9 9 9 f F H T E Q Q )                                                                                                                                                                                                                                     ",
"                                                                                                                                                                                                                                Y D D K Z A I { [ [ ( [ ( { { A q 9 9 9 a a f F T T E Q ) (                                                                                                                                                                                                                                     ",
"                                                                                                                                                                                                                                Y L L D S D Y { { R [ R [ [ { b s q e a e a f F T T R Q ) R                                                                                                                                                                                                                                     ",
"                                                                                                                                                                                                                              Y I L L L D L I { Y [ R R ( [ [ g a i e e e a j F T T E ) | (                                                                                                                                                                                                                                     ",
"                                                                                                                                                                                                                              Y I P K K J J R Y R R R R W [     q q q 0 9 a j G T E T | | Q                                                                                                                                                                                                                                     ",
"                                                                                                                                                                                                                              Y I J J F S K R Y U U Y R R Y     s q 8 7 5 e j H E T E Q Q R                                                                                                                                                                                                                                     ",
"                                                                                                                                                                                                                              I K K K K J Y R Y Y R R Y R R     l q q q t s M H T E E [ { R                                                                                                                                                                                                                                     ",
"                                                                                                                                                                                                                              I I I K K U R Y R R R R R ~       f a q a e a M F T T E | O.)                                                                                                                                                                                                                                     ",
"                                                                                                                                                                                                                            I Y L L K L Y Y Y Y Y R R R [       i q q q 9 a m F T T R R ( /                                                                                                                                                                                                                                     ",
"                                                                                                                                                                                                                            Y Y P Y L I Y Y R T R R R W Y       i s d t 9 t M H T T E R W (                                                                                                                                                                                                                                     ",
"                                                                                                                                                                                                                            Y Y Y Y P Y R U Y T Y R R (         a a i t t t M F T R W W '                                                                                                                                                                                                                                       ",
"                                                                                                                                                                                                                            R Y Y Y I R Y U Y R R Y ( R         i i i i a a M F T E W Q [                                                                                                                                                                                                                                       ",
"                                                                                                                                                                                                                            ` ~ Y Y Y ( Y Y U Y R U [ D         p p i i s s m G T E [ ( (                                                                                                                                                                                                                                       ",
"                                                                                                                                                                                                                          Y / R Y Y Y Y U U Y U Y [ [           p y r r y s m G T R W [ [                                                                                                                                                                                                                                       ",
"                                                                                                                                                                                                                          Y R Y Y I Y Y U Y Y Y Y R I           p d r r y s B G T E W ( '                                                                                                                                                                                                                                       ",
"                                                                                                                                                                                                                          ~ / ~ Y P P Y Y U U Y R [             y p r w t y S G T R W [ (                                                                                                                                                                                                                                       ",
"                                                                                                                                                                                                                          ( / Y Y P Y Y I Y I Y W Y             d p r w r t Z S U R ) ) (                                                                                                                                                                                                                                       ",
"                                                                                                                                                                                                                          ~ ! I Y Y I I U U U I W Y             g g r r w e m G U R { ' '                                                                                                                                                                                                                                       ",
"                                                                                                                                                                                                                          ~ Y Y I Y I I U U I L R               g p r r w t B F U Y [ [ (                                                                                                                                                                                                                                       ",
"                                                                                                                                                                                                                        I Y Y I D I Y I U I U [ Y               g p r r w e M G U R [ [ '                                                                                                                                                                                                                                       ",
"                                                                                                                                                                                                                        P Y Y P J U Y U L Y I / R               g p r r w r Z S U R [ W [                                                                                                                                                                                                                                       ",
"                                                                                                                                                                                                                        Y Y U P K P L L U L U Y                   d r r r r Z G I W [ [                                                                                                                                                                                                                                         ",
"                                                                                                                                                                                                                        Y P P J K Y L L L K L Y                   g r r w w c F Y W [ [                                                                                                                                                                                                                                         ",
"                                                                                                                                                                                                                        P D D J K K L L L K L K                   p w 6 > w m G I R ` [                                                                                                                                                                                                                                         ",
"                                                                                                                                                                                                                      K K D S S K L L K L H K                     u w 4 4 w Z D U W [ (                                                                                                                                                                                                                                         ",
"                                                                                                                                                                                                                      D D J S V D L K U L K K                     r w 4 4 w m F Y / ) [                                                                                                                                                                                                                                         ",
"                                                                                                                                                                                                                      S S J S J U K K U K H K                     d w > w t j F U ( [ '                                                                                                                                                                                                                                         ",
"                                                                                                                                                                                                                      P J S V K K L G G G G                       y w 4 3 t n F Y R ( /                                                                                                                                                                                                                                         ",
"                                                                                                                                                                                                                      J J S V F G K G G F F                       r < 3 3 e j S U R R I                                                                                                                                                                                                                                         ",
"                                                                                                                                                                                                                    F F S S S S G G G F G Z                       r > 3 4 e x S S K G D                                                                                                                                                                                                                                         ",
"                                                                                                                                                                                                                    S J S B Z F S F G G F                         3 > 3 7 t j Z S S K K                                                                                                                                                                                                                                         ",
"                                                                                                                                                                                                                    D S M M S F F F G G F                         3 3 3 3 e h m Z S U P                                                                                                                                                                                                                                         ",
"                                                                                                                                                                                                                    F S j F H H F F F F                           8 3 3 3 w h Z S H P                                                                                                                                                                                                                                           ",
"                                                                                                                                                                                                                    S V M F F Z F F F F                           w 3 > > w g Z F F G                                                                                                                                                                                                                                           ",
"                                                                                                                                                                                                                  M V m M F Z Z F Z F F                           7 , , 1 w f m Z c Z                                                                                                                                                                                                                                           ",
"                                                                                                                                                                                                                  V M m j F Z M F Z F                             > - ; ; 5 s h j Z Z                                                                                                                                                                                                                                           ",
"                                                                                                                                                                                                                  A m x f j M M M F F                             > = = = 5 s n M M S                                                                                                                                                                                                                                           ",
"                                                                                                                                                                                                                  B j d t a j j j F j                             2 2 = ; 8 a j m M M                                                                                                                                                                                                                                           ",
"                                                                                                                                                                                                                  x h d 9 s j h f j                                 > = = 5 a f m M B                                                                                                                                                                                                                                           ",
"                                                                                                                                                                                                                  h d a e s s s f j                                 2 = ; 5 9 h m m m                                                                                                                                                                                                                                           ",
"                                                                                                                                                                                                                s s a 9 e s s a f f                                 > : ; 5 q f f f n                                                                                                                                                                                                                                           ",
"                                                                                                                                                                                                                q 9 9 5 e s a s f                                   > : = 4 9 f a d l                                                                                                                                                                                                                                           ",
"                                                                                                                                                                                                                i q 9 a a a s f s                                   2 - * 4 9 a a d                                                                                                                                                                                                                                             ",
"                                                                                                                                                                                                                i q e s s a a a t                                   : & = 3 8 9 t f                                                                                                                                                                                                                                             ",
"                                                                                                                                                                                                                6 2 6 q t e t s                                     & % & 2 6 9 t t                                                                                                                                                                                                                                             ",
"                                                                                                                                                                                                                O @ & 2 5 8 9 e                                     # @ @ - 2 5 8 8                                                                                                                                                                                                                                             ",
"                                                                                                                                                                                                                  o o % = 2 4 4                                     O O O & & % # %                                                                                                                                                                                                                                             ",
"                                                                                                                                                                                                                        X @ *                                                                                                                                                                                                                                                                                                   ",
"                                                                                                                                                                                                                                                                                                                                                                                                                                                                                                                                ",
"                                                                                                                                                                                                                                                                                                                                                                                                                                                                                                                                ",
"                                                                                                                                                                                                                                                                                                                                                                                                                                                                                                                                ",
"                                                                                                                                                                                                                                                                                                                                                                                                                                                                                                                                "
};
