/* XPM */
static char *out[] = {
/* columns rows colors chars-per-pixel */
"256 256 154 2 ",
"   c None",
".  c #130E0E",
"X  c #1C140F",
"o  c #161212",
"O  c #1D1512",
"+  c #21160E",
"@  c #201711",
"#  c #241A15",
"$  c #2A1D15",
"%  c #271C19",
"&  c #281E18",
"*  c #2D211A",
"=  c #34251C",
"-  c #38271C",
";  c #37281E",
":  c #39291E",
">  c #332721",
",  c #352820",
"<  c #3C2C23",
"1  c #422E1F",
"2  c #412E23",
"3  c #443225",
"4  c #493526",
"5  c #4D3827",
"6  c #45342A",
"7  c #49362A",
"8  c #47382D",
"9  c #4D392B",
"0  c #533D2D",
"q  c #4E3C31",
"w  c #523E31",
"e  c #57402F",
"r  c #59412E",
"t  c #554133",
"y  c #5B4434",
"u  c #5F4837",
"i  c #544239",
"p  c #5B4639",
"a  c #5E493A",
"s  c #604733",
"d  c #634936",
"f  c #694C36",
"g  c #634C3B",
"h  c #694F3A",
"j  c #6C523D",
"k  c #71543E",
"l  c #5E4E4B",
"z  c #644F41",
"x  c #684F40",
"c  c #665142",
"v  c #6C5442",
"b  c #6B5947",
"n  c #6D5749",
"m  c #6E594A",
"M  c #715642",
"N  c #755944",
"B  c #7A5D46",
"V  c #755C4A",
"C  c #7A5E49",
"Z  c #7D6047",
"A  c #77604C",
"S  c #7D624B",
"D  c #766253",
"F  c #7C6452",
"G  c #82654C",
"H  c #86684E",
"J  c #896A4F",
"K  c #826651",
"L  c #866953",
"P  c #8A6D55",
"I  c #846C5B",
"U  c #8A6E59",
"Y  c #8E7057",
"T  c #8E715A",
"R  c #917156",
"E  c #93755C",
"W  c #96785F",
"Q  c #99795E",
"!  c #836E63",
"~  c #8C7465",
"^  c #8F7967",
"/  c #927761",
"(  c #967961",
")  c #9B7C63",
"_  c #957C6B",
"`  c #9C7F69",
"'  c #A07F64",
"]  c #9E8066",
"[  c #9E8169",
"{  c #9B8477",
"}  c #A28266",
"|  c #A4856A",
" . c #A8876A",
".. c #A7886E",
"X. c #AA8A6E",
"o. c #A38772",
"O. c #A68971",
"+. c #AD8D72",
"@. c #A08679",
"#. c #A58B79",
"$. c #AA8F7A",
"%. c #B08F72",
"&. c #AF9075",
"*. c #AE927B",
"=. c #B29275",
"-. c #B4957A",
";. c #B8977A",
":. c #B6987D",
">. c #BA9A7D",
",. c #C09E7E",
"<. c #AD9480",
"1. c #B29781",
"2. c #B69A82",
"3. c #BB9D82",
"4. c #B69D8A",
"5. c #BB9F89",
"6. c #BEA185",
"7. c #BEA289",
"8. c #BBA491",
"9. c #C09F81",
"0. c #C3A385",
"q. c #C9A787",
"w. c #C4A689",
"e. c #C6A88B",
"r. c #CAAB8D",
"t. c #C2A790",
"y. c #C6AB92",
"u. c #CCAE91",
"i. c #CAAF98",
"p. c #CEB193",
"a. c #C7B49A",
"s. c #C9B29A",
"d. c #D1B495",
"f. c #D5B897",
"g. c #D1B69B",
"h. c #D6BA9A",
"j. c #D9BD9D",
"k. c #C8B3A1",
"l. c #D4BCA2",
"z. c #D8BEA2",
"x. c #DBC09F",
"c. c #D5C3A7",
"v. c #DCC3A2",
"b. c #DFC8A7",
"n. c #DACAAE",
"m. c #DCCCB4",
"M. c #E0C7A6",
"N. c #E2CBAB",
"B. c #E4D0AF",
"V. c #E4D2B4",
"C. c #E8D5B7",
"Z. c #E6D5BA",
"A. c #E9D7BA",
"S. c #E8D8BC",
/* pixels */
"                                                                                                                                                                                                                                                                                                                                                                                                                                                                                                                                ",
"                                                                                                                                                                                                                                                                                                                                                                                                                                                                                                                                ",
"                                                                                                                                                                                                                                                                                                                                                                                                                                                                                                                                ",
"                                                                                                                                                                                                                                                                                                                                                                                                                                                                                                                                ",
"                                                                                                                                                                                                                                                                                                                                                                                                                                                                                                                                ",
"                                                                                                                                                                                                                                                                                                                                                                                                                                                                                                                                ",
"                                                                                                                                                                                                                                                                                                                                                                                                                                                                                                                                ",
"                                                                                                                                                                                                                                                                                                                                                                                                                                                                                                                                ",
"                                                                                                                                                                                                                                                                                                                                                                                                                                                                                                                                ",
"                                                                                                                                                                                                                                                                                                                                                                                                                                                                                                                                ",
"                                                                                                                                                                                                                                                                                                                                                                                                                                                                                                                                ",
"                                                                                                                                                                                                                                                                                                                                                                                                                                                                                                                                ",
"                                                                                                                                                                                                                                                                                                                                                                                                                                                                                                                                ",
"                                                                                                                                                                                                                                                                                                                                                                                                                                                                                                                                ",
"                                                                                                                                                                                                                                                                                                                                                                                                                                                                                                                                ",
"                                                                                                                                                                                                                                                                                                                                                                                                                                                                                                                                ",
"                                                                                                                                                                                                                                                                                                                                                                                                                                                                                                                                ",
"                                                                                                                                                                                                                                                                                                                                                                                                                                                                                                                                ",
"                                                                                                                                                                                                                                                                                                                                                                                                                                                                                                                                ",
"                                                                                                                                                                                                                                                                                                                                                                                                                                                                                                                                ",
"                                                                                                                                                                                                                                                                                                                                                                                                                                                                                                                                ",
"                                                                                                                                                                                                                                                                                                                                                                                                                                                                                                                                ",
"                                                                                                                                                                                                                                                                                                                                                                                                                                                                                                                                ",
"                                                                                                                                                                                                                                                                                                                                                                                                                                                                                                                                ",
"                                                                                                                                                                                                                                                                                                                                                                                                                                                                                                                                ",
"                                                                                                                                                                                                                                                                                                                                                                                                                                                                                                                                ",
"                                                                                                                                                                                                                                                                                                                                                                                                                                                                                                                                ",
"                                                                                                                                                                                                                                                                                                                                                                                                                                                                                                                                ",
"                                                                                                                                                                                                                                                                                                                                                                                                                                                                                                                                ",
"                                                                                                                                                                                                                    m.                                                                                                                                                                                                                                                                                                          ",
"                                                                                                                                                                                                                  m.C.S.S.S.Z.m.m.                                                                                                                                                                                                                                                                                              ",
"                                                                                                                                                                                                                  b.v.v.M.N.N.B.C.C.Z.Z.Z.V.m.n.                                                                                                                                                                                                                                                                                ",
"                                                                                                                                                                                                                a.x.x.x.x.x.x.x.x.x.x.x.N.N.N.b.V.V.B.n.N.n.b.                                                                                                                                                                                                                                                                  ",
"                                                                                                                                                                                                                a.x.x.x.x.x.x.x.x.x.x.x.x.x.x.x.x.x.b.x.b.N.b.x.b.v.l.g.g.                                                                                                                                                                                                                                                      ",
"                                                                                                                                                                                                                c.x.x.x.x.x.x.x.x.x.x.x.x.x.x.p.x.x.x.x.x.x.f.f.f.d.p.p.i.p.i.g.                                                                                                                                                                                                                                                ",
"                                                                                                                                                                                                                c.x.x.f.x.f.f.x.x.x.p.x.x.x.x.x.x.x.x.x.x.x.f.x.d.u.w.0.9.9.9.e.                                                                                                                                                                                                                                                ",
"                                                                                                                                                                                                                x.x.x.e.f.f.f.f.,.x.p.p.x.p.x.x.x.p.d.x.f.x.f.f.u.u.u.q.r.q.9.9.                                                                                                                                                                                                                                                ",
"                                                                                                                                                                                                                a.x.x.r.a.r.0.e.p.r.x.,.p.p.,.x.r.x.p.r.f.p.p.p.r.r.u.p.u.p.p.w.                                                                                                                                                                                                                                                ",
"                                                                                                                                                                                                                x.x.e.e.r.e.e.e.,.r.,.p.p.p.p.x.,.x.x.p.f.f.p.r.u.p.p.p.u.u.u.r.                                                                                                                                                                                                                                                ",
"                                                                                                                                                                                                              a.r.p.a.e.e.e.0.e.x.,.x.,.,.x.,.,.p.p.p.r.p.f.p.p.u.u.r.r.r.r.r.9.                                                                                                                                                                                                                                                ",
"                                                                                                                                                                                                              c.x.0.e.e.,.6.0.e.,.,.7.,.x.x.,.r.,.p.r.r.r.p.r.r.r.r.w.w.w.r.r.5.                                                                                                                                                                                                                                                ",
"                                                                                                                                                                                                              a.r.e.0.0.,.,.0.0.,.r.r.,.,.,.r.7.r.p.,.r.r.,.q.r.9.0.0.w.w.q.w.5.                                                                                                                                                                                                                                                ",
"                                                                                                                                                                                                              a.r.a.e.,.0.6.0.0.,.r.,.r.x.,.,.x.p.,.r.p.p.q.r.,.q.w.w.q.q.r.e.                                                                                                                                                                                                                                                  ",
"                                                                                                                                                                                                              r.e.0.0.,.,.:.>.0.,.7.r.,.,.7.,.,.,.r.,.,.q.r.r.p.r.q.r.r.r.r.r.                                                                                                                                                                                                                                                  ",
"                                                                                                                                                                                                              r.,.,.,.,.>.>.,.,.,.,.,.,.,.7.r.,.,.r.r.r.,.x.x.,.u.r.q.q.r.r.r.                                                                                                                                                                                                                                                  ",
"                                                                                                                                                                                                              7.>.>.:.:.>.,.:.>.:.,.,.,.,.,.,.r.r.,.,.r.,.,.,.x.r.u.r.w.e.r.w.                                                                                                                                                                                                                                                  ",
"                                                                                                                                                                                                            7.:.=.>.=.=.-.-.=.=.:.:.:.:.,.,.,.7.7.r.,.x.,.r.r.,.r.r.q.w.w.w.e.                                                                                                                                                                                                                                                  ",
"                                                                                                                                                                                                            *.&.X.%.%.X.X.&.&.=.&.&.=.:.,.,.,.,.,.,.,.7.r.,.,.a.r.r.q.w.w.e.w.                                                                                                                                                                                                                                                  ",
"                                                                                                                                                                                                            *.X.X.X.+.%. . .%.%.%.=.=.=.;.;.;.,.,.,.,.,.r.,.r.,.0.0.r.e.r.r.6.                                                                                                                                                                                                                                                  ",
"                                                                                                                                                                                                            :.X.X.X. . .X.%.X.X.%.+.X.%.=.=.;.;.;.;.,.,.,.r.,.e.q.0.0.q.0.r.                                                                                                                                                                                                                                                    ",
"                                                                                                                                                                                                            &. .X.X. .}  .X.%.%.&.%. .X.X.X.%.=.>.>.,.,.,.,.,.,.9.0.0.q.w.0.                                                                                                                                                                                                                                                    ",
"                                                                                                                                                                                                            .. . .| }  . .X.%.=.+.+.+.X. . .X.=.=.:.>.,.,.,.,.,.0.0.0.0.0.0.                                                                                                                                                                                                                                                    ",
"                                                                                                                                                                                                          @.} } } } } }  . .X.%.+.X.X.X. . .X.X.%.=.;.;.>.,.,.,.,.,.0.0.0.3.                                                                                                                                                                                                                                                    ",
"                                                                                                                                                                                                          @.Q } } } } } }  .X.X. . .X.X.+.%.X.X.%.=.=.=.;.>.;.,.>.>.,.,.,.:.                                                                                                                                                                                                                                                    ",
"                                                                                                                                                                                                          { ] E } ] ] ] ] } X.X. . .X.X.X.X.X.%.X.%.%.=.=.;.;.=.;.;.>.>.>.;.                                                                                                                                                                                                                                                    ",
"                                                                                                                                                                                                          [ Q Q R J ] } } }  .X. . . ...X. ...X.X.%.%.=.=.=.=.;.;.;.;.>.>.                                                                                                                                                                                                                                                      ",
"                                                                                                                                                                                                          U H J J J J ] } }  . . . . . .}  . .X.X.%.%.%.%.%.X.=.=.;.>.>.;.                                                                                                                                                                                                                                                      ",
"                                                                                                                                                                                                          ) J H J J J J J J }  .}  . . .}  . . .%.%.%.%.;.%.%.%.=.;.>.>.;.                                                                                                                                                                                                                                                      ",
"                                                                                                                                                                                                          U P P J J Z J J J } } Q } } } }  . . . .%.%.%.%.%.%.X.%.=.;.;.-.                                                                                                                                                                                                                                                      ",
"                                                                                                                                                                                                        ! S G J J J J J J J R R } } Q } }  . . .X.X.%.%.%.%.%.X.%.%.%.=.+.                                                                                                                                                                                                                                                      ",
"                                                                                                                                                                                                        l u d j j Z J J J J R } } } } } } }  . .X.X.%.%.%.X.X.%. .X. .X.X.                                                                                                                                                                                                                                                      ",
"                                                                                                                                                                                                                8 e y h f Z Z J Q } } }  . .}  .X. .X.%.X. .}  .X. . . .|                                                                                                                                                                                                                                                       ",
"                                                                                                                                                                                                                            5 r r g k G R R } }  . .X.%.+.| } | } } } }                                                                                                                                                                                                                                                         ",
"                                                                                                                                                                                                                                O X * = : 5 r f k J R } } Q ) |  .} Q }                                                                                                                                                                                                                                                         ",
"                                                                                                                                                                                                                                * o O X O O @ @ %       x j N C L U E E                                                                                                                                                                                                                                                         ",
"                                                                                                                                                                                                                                > # # @ @ @ @ X #                   a                                                                                                                                                                                                                                                           ",
"                                                                                                                                                                                                                                < , , = = = * $ <                                                                                                                                                                                                                                                                               ",
"                                                                                                                                                                                                                                8 7 0 0 7 9 4 2 z                                                                                                                                                                                                                                                                               ",
"                                                                                                                                                                                                                                i y g g g g u u F                                                                                                                                                                                                                                                                               ",
"                                                                                                                                                                                                                                c v V N v M N V T                                                                                                                                                                                                                                                                               ",
"                                                                                                                                                                                                                                c S K S S S K L / *.                                                                                                                                                                                                                                                                            ",
"                                                                                                                                                                                                                                n K U L K L P T ` -.                                                                                                                                                                                                                                                                            ",
"                                                                                                                                                                                                                                V T Y Y P K P W | 1.                                                                                                                                                                                                                                                                            ",
"                                                                                                                                                                                                                                v W T Y R U U ) +.2.                                                                                                                                                                                                                                                                            ",
"                                                                                                                                                                                                                                a L T Y ( / E R | *.                                                                                                                                                                                                                                                                            ",
"                                                                                                                                                                                                                                c S T W [ [ ` ) ( +.                                                                                                                                                                                                                                                                            ",
"                                                                                                                                                                                                            8.8.8.8.4.4.2.1.4.4.<.#.-.1.2.5.9.0.3.7.w.7.5.5.5.2.2.1.1.1.*.                                                                                                                                                                                                                                                      ",
"                                                                                                                                                                                                          { -.%.-.;.;.;.,.9.3.9.6.6.,.0.0.q.q.q.0.w.0.0.0.w.w.0.9.2.2.>.2.                                                                                                                                                                                                                                                      ",
"                                                                                                                                                                                                          ~ ' ' |  . .+.%.=.;.2.;.>.,.,.,.,.,.,.0.9.,.9.9.9.5.3.2.2.2.2.2.                                                                                                                                                                                                                                                      ",
"                                                                                                                                                                                                          ~ | | |  . . .X.;.u.i.e.7.0.>.,.;.;.,.,.>.>.9.9.0.9.3.;.:.;.3.3.                                                                                                                                                                                                                                                      ",
"                                                                                                                                                                                                          ^  . .| X.+.%.%.w.z.z.c.l.g.y.7.>.,.,.-.:.:.:.>.7.,.4.3.2.2.;.;.                                                                                                                                                                                                                                                      ",
"                                                                                                                                                                                                          ^ +.%.X.X.%.=.9.u.g.h.z.b.b.c.c.x.a.7.,.>.:.:.>.>.,.,.9.3.;.:.3.                                                                                                                                                                                                                                                      ",
"                                                                                                                                                                                                          _ $.-.;.%.%.=.9.i.u.g.u.p.d.h.h.h.d.6.>.,.,.,.,.,.7.,.9.3.2.2.2.                                                                                                                                                                                                                                                      ",
"                                                                                                                                                                                                          ^ %.%.=.=.%.%.9.u.u.u.u.r.r.r.u.u.6.:.:.:.,.7.,.7.7.>.3.9.;.;.-.                                                                                                                                                                                                                                                      ",
"                                                                                                                                                                                                          / +. . .X. .%.f.h.d.u.p.p.u.e.e.y.>.:.&.-.&.>.,.,.,.>.3.3.2.*.%.                                                                                                                                                                                                                                                      ",
"                                                                                                                                                                                                          ~ |  . .'  .9.h.h.h.g.p.u.u.u.e.6.:.=.-.&.+.&.&.,.,.7.3.3.9.1.-.                                                                                                                                                                                                                                                      ",
"                                                                                                                                                                                                          ~ |  .' ' ' u.d.d.d.u.d.u.u.u.r.,.;.-.=.=.&.+.&.:.>.,.9.3.3.4.2.$.                                                                                                                                                                                                                                                    ",
"                                                                                                                                                                                                          / +. .' Q ;.d.d.u.u.u.y.r.e.y.7.,.-.=.=.&.+.X.*.,.>.,.3.9.3.9.3.1.                                                                                                                                                                                                                                                    ",
"                                                                                                                                                                                                          ! ' ' E W e.p.p.f.p.p.u.u.u.e.9.:.=.%.=.%.X.X.;.;.;.,.3.3.9.0.5.1.                                                                                                                                                                                                                                                    ",
"                                                                                                                                                                                                          I ' ' E &.d.p.p.d.h.f.d.d.d.e.3.:.-.=.%.%.%.=.;.;.;.>.>.>.2.3.9.1.                                                                                                                                                                                                                                                    ",
"                                                                                                                                                                                                          I ` Q Q e.d.d.p.p.p.p.d.d.u.e.3.3.:.%.X.%.X.;.;.;.;.:.>.>.3.>.3.2.                                                                                                                                                                                                                                                    ",
"                                                                                                                                                                                                          I W E | e.p.p.p.r.e.u.r.r.q.9.>.3.;.%.=.&.%.=.=.-.=.;.,.3.>.3.3.:.                                                                                                                                                                                                                                                    ",
"                                                                                                                                                                                                            E E >.e.e.e.e.r.r.e.r.e.0.>.>.;.;.-.=.=.=.;.=.=.&.=.>.>.>.2.3.-.                                                                                                                                                                                                                                                    ",
"                                                                                                                                                                                                            E | d.h.p.r.e.e.q.w.q.q.,.;.>.>.;.-.=.=.=.=.=.=.=.&.;.>.>.>.>.1.                                                                                                                                                                                                                                                    ",
"                                                                                                                                                                                                            R 2.d.j.d.d.r.q.6.6.6.>.>.>.;.;.;.%.&.=.:.=.=.=.=.&.%.:.;.;.2.;.                                                                                                                                                                                                                                                    ",
"                                                                                                                                                                                                            ` e.u.p.r.r.r.r.e.q.6.>.>.,.;.;.=.%.&.;.:.=.=.=.=.=.%.%.;.-.:.1.                                                                                                                                                                                                                                                    ",
"                                                                                                                                                                                                            -.r.e.r.r.q.w.w.q.w.,.>.>.>.;.=.=.%.%.=.;.;.:.=.=.=.=.-.;.:.;.*.                                                                                                                                                                                                                                                    ",
"                                                                                                                                                                                                            w.u.u.u.d.u.r.w.0.3.>.>.>.;.>.=.=.X.%.=.=.;.=.=.=.>.=.:.;.:.;.=.                                                                                                                                                                                                                                                    ",
"                                                                                                                                                                                                            u.u.r.r.u.d.d.r.0.:.;.;.;.=.=.=.=.X.=.;.;.;.=.;.=.:.:.:.;.:.;.2.                                                                                                                                                                                                                                                    ",
"                                                                                                                                                                                                          y.u.r.r.e.3.w.0.0.>.-.>.;.=.;.=.=.%.=.=.=.=.=.:.;.:.:.=.;.=.=.;.1.                                                                                                                                                                                                                                                    ",
"                                                                                                                                                                                                          r.u.r.r.r.r.0.:.-.=.-.;.;.;.;.=.%.X.%.;.=.%.=.=.=.=.=.-.-.-.=.-.-.                                                                                                                                                                                                                                                    ",
"                                                                                                                                                                                                        y.p.u.r.r.r.r.r.q.3.;.-.;.>.;.=.=.=.%.&.=.=.=.=.=.%.%.%.%.=.-.-.-.-.                                                                                                                                                                                                                                                    ",
"                                                                                                                                                                                                        u.u.u.r.r.r.q.r.u.q.=.=.;.;.=.=.=.X.X.=.=.=.=.=.=.=.=.=.X.-.=.=.-.-.                                                                                                                                                                                                                                                    ",
"                                                                                                                                                                                                      y.u.r.r.u.r.r.r.0.0.>.-.=.=.=.=.=.%.X.&.&.=.=.=.=.=.=.%.X.X.%.=.$.=.-.                                                                                                                                                                                                                                                    ",
"                                                                                                                                                                                                      p.p.p.p.p.r.r.p.r.q.>.;.=.%.=.=.%.%.X.%.&.=.=.-.=.=.=.=.%.%.+.%.=.=.=.                                                                                                                                                                                                                                                    ",
"                                                                                                                                                                                                    t.r.r.u.r.e.r.r.q.r.r.>.=.%.=.=.%.%.X.X.+.%.=.-.=.=.-.-.-.+.%.%.$.%.=.*.                                                                                                                                                                                                                                                    ",
"                                                                                                                                                                                                    y.u.e.u.r.u.r.r.0.0.,.;.=.=.%.%.%.X.X.X.&.&.=.=.=.=.=.-.=.+.%.%.%.%.=.-.                                                                                                                                                                                                                                                    ",
"                                                                                                                                                                                                    r.r.r.u.u.e.r.0.>.>.=.X.%.X. .X.X.X.X.X.+.=.=.X.=.=.=.%.%.+.+.+.+.+.%.*.                                                                                                                                                                                                                                                    ",
"                                                                                                                                                                                                  e.e.e.r.r.e.w.w.,.>.=. .}  .} } } }  ...X.X.&.=.&.%.=.=.=.+.+.X.+.+.+.+.+.                                                                                                                                                                                                                                                    ",
"                                                                                                                                                                                                  e.e.e.w.e.e.e.0.,.=. . .} } } } } } X.X...X.+.+.&.&.=.=.=.+.+. .+.+.=.+.+.                                                                                                                                                                                                                                                    ",
"                                                                                                                                                                                                6.w.w.6.>.6.6.>.>.>.%. .} } } } } ] ] ..X.+.+.+.&.+.X.=.%.+.X.%.X. .+.%.=.-.                                                                                                                                                                                                                                                    ",
"                                                                                                                                                                                                3.3.>.3.6.>.>.&.&.;. .} } } } } ] ] | | ....X.&.X.X.X.X.+.X.%.$.%.+.+.+.*.=.                                                                                                                                                                                                                                                    ",
"                                                                                                                                                                                                :.:.>.6.6.-.=.| '  .' } ' ' ' Q Q } | ..| ....| | |  . .X.+.+.%.-.%.X.%.=.=.                                                                                                                                                                                                                                                    ",
"                                                                                                                                                                                              *.+.+.-.3.>.-...] ( Q ` ' ' Q E R Q } | | | ....| | | } X.X.X.+.X.$.%.%.X.$.=.                                                                                                                                                                                                                                                    ",
"                                                                                                                                                                                              +...] ) E } | ) Q ) ) Q Q Q Q E E ' } | | | | | | | } | | | X.X.X.%.%.$.X. .%.                                                                                                                                                                                                                                                    ",
"                                                                                                                                                                                            O.| [ ) T Y T Y U E ) ' ) Q Q E E Q ] ] } } | } | } | } | | | | ..|  .X.X.+.X.+.                                                                                                                                                                                                                                                    ",
"                                                                                                                                                                                            ` ) T P L W Q T W ) ` ) Q E R R T R W ] ] ] [ [ } [ ' ' ' ' ' | | ' ` }  . .X...                                                                                                                                                                                                                                                    ",
"                                                                                                                                                                                            E E L B B G P T ( ) / ) ) Q U L Y E T W W ] [ } ] ] ) ) Q ( ) ' | | ) Q ` } | |                                                                                                                                                                                                                                                     ",
"                                                                                                                                                                                          { #.1.2.#.#.#.<.*.*.o./ P R R R P Y W W W W W ] ] ] ] ) ) ( Q ) ` ' ' } ) ) ' | O.O.                                                                                                                                                                                                                                                  ",
"                                                                                                                                                                                          5.w.w.0.2.=.$.$.| | 1.-.` I G H J Y T T W W W W Q Q ] ) ( Q Q ( ) ) ) ) ` ` } | +.O.                                                                                                                                                                                                                                                  ",
"                                                                                                                                                                                            | } | ` E R Q +.=.$.+.$.| ( I U R Y W W W ( ] W W W ) W W W ( ) ) ' Q ) ) ` } | O.                                                                                                                                                                                                                                                  ",
"                                                                                                                                                                                            / W R ) | ( Q =.:.-.O.| O.+.[ E U Y P T W ] W ] ] W ( W W W Q Q ) ) ) ) ) ) ' | |                                                                                                                                                                                                                                                   ",
"                                                                                                                                                                                            I E E W ) ) ] | &.>.-.+.+.+.X.E P P Y L Y T W W ( ] ) ( W ( ( ( ) ) ) ) ) ) ` | O.                                                                                                                                                                                                                                                  ",
"                                                                                                                                                                                              T R Y W | | Q Q &.5.=.+.+.+.Q L L L P Y T T W W W ) ] ) ) Q ( / ) Q Q W W ) | |                                                                                                                                                                                                                                                   ",
"                                                                                                                                                                                              K L L U R E R R } 3.;.%.+.%.| L L H L Y P T T W T W ( ) ) W E E E E / W W ) ) `                                                                                                                                                                                                                                                   ",
"                                                                                                                                                                                              V V V H L P L R Q -.-.=.$.+.| L L L S F H P Y T T E W W ) W W E E R E R / ) ) `                                                                                                                                                                                                                                                   ",
"                                                                                                                                                                                                j g g N G G G H  .-.=.%.+.X.P L P H F S S P Y Y T E E E E E E T E / R E W ) `                                                                                                                                                                                                                                                   ",
"                                                                                                                                                                                                g y t g N G G G ) -.=.%.=.+.T G P P H L G G G L P Y T E R T T P P Y R U Y W W                                                                                                                                                                                                                                                   ",
"                                                                                                                                                                                                y y y a k B Z Z Y -.-.=.=.=.] S G G K L U L H K H P R E E E R Y P P Y P Y E T                                                                                                                                                                                                                                                   ",
"                                                                                                                                                                                                  j b j j M N N H X.:.:.:.=.T Z V G G G H P U P P P P U R U U U U U U P P T Y                                                                                                                                                                                                                                                   ",
"                                                                                                                                                                                                  A A S Z Z N Z Z  .:.6.>.:.] S G V G V G K H L L P P U U R U Y P P P P L P T                                                                                                                                                                                                                                                   ",
"                                                                                                                                                                                                  a a j A S Z Z B ] >.,.,.>...Z N M N N V G G K L L P P U T U P P P P P P P P U                                                                                                                                                                                                                                                 ",
"                                                                                                                                                                                                    t t a A S Z Z R >.6.6.,.-.S M N M M f M G G K G K L L P U P L L L L L L L !                                                                                                                                                                                                                                                 ",
"                                                                                                                                                                                                    8 8 t h Z Z S J =.,.0.7.>.F x M M M M k f N G G K K H K P U P L L L L P P P                                                                                                                                                                                                                                                 ",
"                                                                                                                                                                                                    8 8 e a Z Z S Z ] ,.6.7.6.L k x M M M x f M x G G G G K K H P L K K K K L P                                                                                                                                                                                                                                                 ",
"                                                                                                                                                                                                      9 e u N S S Z E >.,.7.6.] M M x f M M M x M M M M N G G G L L K K G C C K                                                                                                                                                                                                                                                 ",
"                                                                                                                                                                                                      8 9 t j S J G J ;.,.6.6.[ M f h h x x M k x M M M N G G G G L G B N M M V                                                                                                                                                                                                                                                 ",
"                                                                                                                                                                                                        9 t t g F J J &.,.6.7...N M h f h x x N K K V x s s x x w w w q 9 3 8                                                                                                                                                                                                                                                   ",
"                                                                                                                                                                                                        8 5 7 e A T Y | 6.6.7.&.s w 0 4 d M k P ` #.` / K U U U c                                                                                                                                                                                                                                                               ",
"                                                                                                                                                                                                        3 3 7 8 h Y Y ] ,.6.7.-.3 % = - y s y U ` ` %.` ` ` ` ` !                                                                                                                                                                                                                                                               ",
"                                                                                                                                                                                                          6 5 9 u S J T =.6.6.3.0 $ 1 2 0 r s P ` +.#.+.O.O.+.O.~                                                                                                                                                                                                                                                               ",
"                                                                                                                                                                                                          6 9 5 y A S S +.6.6.5.g $ 1 0 r r w L #.+.+.` +.+.+.&.{                                                                                                                                                                                                                                                               ",
"                                                                                                                                                                                                          6 6 7 e v Z B } >.0.w.F $ 1 4 r f f P $.$.+.+.$.+.-.*.@.{                                                                                                                                                                                                                                                             ",
"                                                                                                                                                                                                            6 4 e v Z B Q >.5.e./ $ $ 3 s f v P +.+.$.&.*.-.;.2.$.#.                                                                                                                                                                                                                                                            ",
"                                                                                                                                                                                                            6 3 9 N N k R ;.6.e.{ * O 3 e r j P &.-.-.-.;.;.2.3.<.*.                                                                                                                                                                                                                                                            ",
"                                                                                                                                                                                                              < 9 v B N H &.6.e.*.< @ 1 e r h P +.&.:.2.3.3.;.2.-.1.2.                                                                                                                                                                                                                                                          ",
"                                                                                                                                                                                                              8 8 j S B Z | >.e.6.i # ; 5 r d S &.&.*.3.2.3.>.3.1.2.4.                                                                                                                                                                                                                                                          ",
"                                                                                                                                                                                                              q 9 y S S S ] 3.6.7.c * < e y h Z +.&.:.6.w.3.;.:.;.2.6.                                                                                                                                                                                                                                                          ",
"                                                                                                                                                                                                                < 8 Z S Z Q ;.6.3.A < 6 e s j G O.&.=.;.w.3.:.:.1.3.w.                                                                                                                                                                                                                                                          ",
"                                                                                                                                                                                                                < < y S N J &.:.4.F 6 q 0 r s C O.-.$.-.6.3.2.-.;.3.7.7.                                                                                                                                                                                                                                                        ",
"                                                                                                                                                                                                                  < 3 g j k [ &.-._ t t 9 e r B ..-.:.:.2.:.:.2.1.2.w.7.                                                                                                                                                                                                                                                        ",
"                                                                                                                                                                                                                  < - 4 6 9 Y &.-.{ c q 9 e f G ..-.-.:.>.:.:.-.;.3.w.e.                                                                                                                                                                                                                                                        ",
"                                                                                                                                                                                                                  , = 3 4 5 Z +.-.#.n q 7 0 s N } =.=.=.;.2.-.-.1.0.e.t.7.                                                                                                                                                                                                                                                      ",
"                                                                                                                                                                                                                    = 4 e r N [ -.$.m 8 7 7 0 j } =.=.=.-.1.-.=.1.3.w.y.t.                                                                                                                                                                                                                                                      ",
"                                                                                                                                                                                                                    = : 5 d j [ =.<.n < 6 5 w k ) =.=.=.-.-.=.-.-.3.7.8.t.                                                                                                                                                                                                                                                      ",
"                                                                                                                                                                                                                      * < r g T $.<.D 6 0 0 y k ) %.%.-.-.:.-.-.-.3.e.e.y.                                                                                                                                                                                                                                                      ",
"                                                                                                                                                                                                                      * * 4 e G +.$.! w 0 0 0 k Q %.%.=.-.-.-.-.*.6.7.e.y.7.                                                                                                                                                                                                                                                    ",
"                                                                                                                                                                                                                      * * * 1 d [ O.I t r 0 r j Q %.%.%.-.-.-.-.:.:.2.w.e.7.                                                                                                                                                                                                                                                    ",
"                                                                                                                                                                                                                        * # * : v F n t t r r h E %.$.-.-.;.2.-.:.:.2.7.t.7.                                                                                                                                                                                                                                                    ",
"                                                                                                                                                                                                                        @ O # # < w u t t 0 s f E X.%.=.-.3.:.-.:.:.3.6.e.e.                                                                                                                                                                                                                                                    ",
"                                                                                                                                                                                                                                  c a i y y y h R X.%.%.;.9.3.-.1.2.3.6.7.e.6.                                                                                                                                                                                                                                                  ",
"                                                                                                                                                                                                                                  z a w y w y h R X.%.%.-.2.3.2.:.2.:.6.7.7.7.                                                                                                                                                                                                                                                  ",
"                                                                                                                                                                                                                                  v z p y y y f P %.+.+.-.2.2.3.:.-.:.6.7.e.7.                                                                                                                                                                                                                                                  ",
"                                                                                                                                                                                                                                  n z p w t y f P X.%.+.-.-.3.3.2.&.&.6.7.e.0.2.                                                                                                                                                                                                                                                ",
"                                                                                                                                                                                                                                  n x p w w s f P X.%.%.-.:.:.2.:.*.=.2.6.7.7.2.                                                                                                                                                                                                                                                ",
"                                                                                                                                                                                                                                  v z p y y s f H  .X.%.-.:.:.2.2.-.&.:.6.e.6.:.                                                                                                                                                                                                                                                ",
"                                                                                                                                                                                                                                  n v a y y y h H  .X.+.=.-.:.3.2.-.&.:.2.e.:.:.                                                                                                                                                                                                                                                ",
"                                                                                                                                                                                                                                  n x y y t y f G X.X.+.*.-.:.2.>.:.&.=.2.7.6.:.*.                                                                                                                                                                                                                                              ",
"                                                                                                                                                                                                                                  m g y y y y d G  . .+.=.2.2.3.3.-.=.&.:.7.6.:.:.                                                                                                                                                                                                                                              ",
"                                                                                                                                                                                                                                  n c p y y y d G  .X.+.=.2.:.:.:.-.&.&.-.6.7.2.:.                                                                                                                                                                                                                                              ",
"                                                                                                                                                                                                                                  V n g y y y d G  .X.+.=.1.;.2.3.-.+.&.*.3.w.6.3.1.                                                                                                                                                                                                                                            ",
"                                                                                                                                                                                                                                  D D g u s s s N ' X.%.=.-.;.3.2.&.+.&.-.2.7.7.3.1.                                                                                                                                                                                                                                            ",
"                                                                                                                                                                                                                                  D m z p u y d N ' +.+.%.=.;.2.3.+.| $.&.-.*.2.2.2.                                                                                                                                                                                                                                            ",
"                                                                                                                                                                                                                                  m c a a u u s N ' X.X.&.=.2.2.:...) X.+.O.&.-.3.3.                                                                                                                                                                                                                                            ",
"                                                                                                                                                                                                                                  m c a g g y s k ' X.X.+.=.1.3.-.+.E ) ] +.*.=.2.5.2.                                                                                                                                                                                                                                          ",
"                                                                                                                                                                                                                                  m b g g g s d N ' +.+.+.&.-.3.-.X.R ) [ O.+.=.3.3.2.                                                                                                                                                                                                                                          ",
"                                                                                                                                                                                                                                  b c a g j j d k ] &.X.&.&.&.:.:.X.U ) | | ..+.:.6.4.                                                                                                                                                                                                                                          ",
"                                                                                                                                                                                                                                  n b a g v j d k ] &.&.&.&.&.:.:.| K T [ [ [ +.*.3.6.                                                                                                                                                                                                                                          ",
"                                                                                                                                                                                                                                  m c a a g g d j ] X.&.&.&.&.:.3.+.G P ) | O.+.*.:.7.4.                                                                                                                                                                                                                                        ",
"                                                                                                                                                                                                                                  z c a a a g g j ) &.&.O.&.=.=.:.$.C L ) [ O.#.&.&.4.7.                                                                                                                                                                                                                                        ",
"                                                                                                                                                                                                                                    z p t u h v k ) +.&.&.&.&.=.-.+.N G / ` ` +.=.-.-.6.                                                                                                                                                                                                                                        ",
"                                                                                                                                                                                                                                    z p i u u h N W &.&.&.&.&.&.-.$.M V U ) [ #.*.-.:.4.4.                                                                                                                                                                                                                                      ",
"                                                                                                                                                                                                                                    a a i u y u g T &.*.+.+.&.&.=.+.M j L ( [ +.*.*.:.2.4.                                                                                                                                                                                                                                      ",
"                                                                                                                                                                                                                                    a p p y y e y U +.&.&.+.+.+.$.+.v h F / ` O.&.*.-.-.2.                                                                                                                                                                                                                                      ",
"                                                                                                                                                                                                                                    l u y y t y y L +.+.+.+.&.+.%.X.N r N T ` | *.*.:.-.2.<.                                                                                                                                                                                                                                    ",
"                                                                                                                                                                                                                                    g p i 0 y y y F ..+.O.+.+.&.=.X.N 0 g I ) ) O.&.-.1.1.1.                                                                                                                                                                                                                                    ",
"                                                                                                                                                                                                                                    p i 8 w 0 t u S O.O.O.&.&.&.=.+.M t g S / ` | *.*.:.1.*.                                                                                                                                                                                                                                    ",
"                                                                                                                                                                                                                                    8 < 6 8 9 y g C | o.O.+.+.X.%.%.v 5 s C T | O.*.-.*.-.1.                                                                                                                                                                                                                                    ",
"                                                                                                                                                                                                                                    6 6 8 9 w w y V ' [ ....+.+.+.+.c < 5 j U | +.*.-.-.*.-.*.                                                                                                                                                                                                                                  ",
"                                                                                                                                                                                                                                    w p w 8 6 9 0 h ) | | | O.X.+.X.g - 4 r K [ ..O.*.*.-.*.1.                                                                                                                                                                                                                                  ",
"                                                                                                                                                                                                                                    p w w w 7 5 7 s E ` ' o.X.X.X.+.v = 3 3 M E [ } ..&.*.+.O.                                                                                                                                                                                                                                  ",
"                                                                                                                                                                                                                                    l w w w 9 9 5 g U ) ) ' | X.X.X.v $ - 1 u G E E W ] [ [ O.                                                                                                                                                                                                                                  ",
"                                                                                                                                                                                                                                    l w q 8 < 6 7 y J ( W ( ' '  . .v % * - 0 B J U U E ) ] [ _                                                                                                                                                                                                                                 ",
"                                                                                                                                                                                                                                    w w 6 6 < < 3 w G E ( ( ( ' | ' v = = = 3 M H E Q Q ` ) ] `                                                                                                                                                                                                                                 ",
"                                                                                                                                                                                                                                    q 8 6 8 6 < 2 w B L P Y ( ( ) ' M , - - 2 h G W ) ) ) W ) [                                                                                                                                                                                                                                 ",
"                                                                                                                                                                                                                                    i w w w q 6 2 w G G H H J E ) ) M - - - 2 f B P R E W ) ) )                                                                                                                                                                                                                                 ",
"                                                                                                                                                                                                                                    c c n c g g x v U U P U P E W ) N 2 2 4 5 f B J Y W ) ) ) Q                                                                                                                                                                                                                                 ",
"                                                                                                                                                                                                                                    m F V n N C G J ` ' ( ` ` E Y ( C 7 2 4 0 f C E E ' ] ) [ /                                                                                                                                                                                                                                 ",
"                                                                                                                                                                                                                                    F F V V S V K _ ' ` ' ` ` ' ) ) A 7 0 0 r h H E ( ' | | | )                                                                                                                                                                                                                                 ",
"                                                                                                                                                                                                                                    I A n C K S K / ` ` ' ` o...O.O.V w 0 0 r k G E Q ) } ` ` )                                                                                                                                                                                                                                 ",
"                                                                                                                                                                                                                                  F L A N V F S F T W W ] [ ..X...` g w w 0 s k G J R Q ' ' )                                                                                                                                                                                                                                   ",
"                                                                                                                                                                                                                                  D F F V F K S P E E T T ] [ [ O.L w 0 0 0 s N G J R ' ' Q `                                                                                                                                                                                                                                   ",
"                                                                                                                                                                                                                                  U L S K K G K T E E ^ ] ] { ] ` n w w 0 5 0 N G H R Q ) Q Q                                                                                                                                                                                                                                   ",
"                                                                                                                                                                                                                                  T I F F S S U T ] E ] ] ] [ [ / g w 0 5 0 s k G J R Q Q Q )                                                                                                                                                                                                                                   ",
"                                                                                                                                                                                                                                  U U I S Z F ] [ ] ^ ] ] ] ] [ K w w 0 0 0 0 k G J R Q W W )                                                                                                                                                                                                                                   ",
"                                                                                                                                                                                                                                U I F L S A A E ] [ [ E ^ ] ] ] n w w 0 s s f N H J R Q Q W W                                                                                                                                                                                                                                   ",
"                                                                                                                                                                                                                                U T P F F S F ] ] ] E ] ( ] [ ( x u y u 0 s s N J R E E ) Q /                                                                                                                                                                                                                                   ",
"                                                                                                                                                                                                                                U U P P F P F E ^ E E E ( ( ] E a y t r r s s G J R R E ) ) E                                                                                                                                                                                                                                   ",
"                                                                                                                                                                                                                                Y I P L L K U E E E E E E ] ^   a p w 0 0 0 d B J E R Q ' ' E                                                                                                                                                                                                                                   ",
"                                                                                                                                                                                                                                Y P K K G S Y T T T T T Y E ]   g w w 7 5 0 d Z J E R Q ' Q E                                                                                                                                                                                                                                   ",
"                                                                                                                                                                                                                              I I L L L L L ~ E R R E T U U     x a t w y y f B J R Q Q [ )                                                                                                                                                                                                                                     ",
"                                                                                                                                                                                                                              P U U Y U P T T Y T R R E E ]     g g y u s s f B J E R Q | |                                                                                                                                                                                                                                     ",
"                                                                                                                                                                                                                              U Y U P U P T T Y W T T T W W     a y w y w w g G J R R W / (                                                                                                                                                                                                                                     ",
"                                                                                                                                                                                                                              T U Y Y I T T T R T R E E E       p a g g s 0 f B P R E R R (                                                                                                                                                                                                                                     ",
"                                                                                                                                                                                                                              ~ U T Y U T Y Y T T T T E E       g y a a s t f G J R E E ( (                                                                                                                                                                                                                                     ",
"                                                                                                                                                                                                                            T E ~ T Y T E T Y E T T E ( T       g p a y g u h C J E W ( ) )                                                                                                                                                                                                                                     ",
"                                                                                                                                                                                                                            T / W T ~ T E U T T T T ] T           a u p u d j Z R R Q ( W W                                                                                                                                                                                                                                     ",
"                                                                                                                                                                                                                            ( / T T T E T Y T T T R E Y           a u t y u j S J E Q ] ) W                                                                                                                                                                                                                                     ",
"                                                                                                                                                                                                                            E ~ T T T T U Y Y Y T E E             h a t y u j S R E E Q ) (                                                                                                                                                                                                                                     ",
"                                                                                                                                                                                                                            _ T T U I T U Y Y Y T E E             g u t t y j S R R E Q (                                                                                                                                                                                                                                       ",
"                                                                                                                                                                                                                          / ( / ~ U U T P T Y Y T ] T             h a t y r j S P R W ) )                                                                                                                                                                                                                                       ",
"                                                                                                                                                                                                                          T ~ T T T T T Y P Y Y E U               v p t t e j S P Y ) [ )                                                                                                                                                                                                                                       ",
"                                                                                                                                                                                                                          ~ ~ T T T T P P Y U T E T               c p t t e j G P Y ( [ )                                                                                                                                                                                                                                       ",
"                                                                                                                                                                                                                          T T T I I U U U Y P T E I               g i t t 0 j Z J Y ( [ )                                                                                                                                                                                                                                       ",
"                                                                                                                                                                                                                          T T Y K U Y Y P P P T W                 j t i y e j Z J T ] ] E                                                                                                                                                                                                                                       ",
"                                                                                                                                                                                                                        ~ ~ T I U I P P P U U T U                 h p t t e j S Y T W ] (                                                                                                                                                                                                                                       ",
"                                                                                                                                                                                                                        T U Y I L P P P P P P T                   c p t 9 e j S P T _ ] W                                                                                                                                                                                                                                       ",
"                                                                                                                                                                                                                        U L F F L P L P P J L P                   h t 9 7 5 j S Y T ( ] W                                                                                                                                                                                                                                       ",
"                                                                                                                                                                                                                        U K S S F P P J P L J K                   a e 9 7 5 j S P T ) ) /                                                                                                                                                                                                                                       ",
"                                                                                                                                                                                                                        K K L S F P H P L L L                     u t 9 7 e j Z Y E ) )                                                                                                                                                                                                                                         ",
"                                                                                                                                                                                                                      F K K S G T L L P L H K                     g t 9 5 0 k S P T ) )                                                                                                                                                                                                                                         ",
"                                                                                                                                                                                                                      K L F S K P P L H H H G                     a t 5 7 e j Z P ~ ) (                                                                                                                                                                                                                                         ",
"                                                                                                                                                                                                                      L L G S S F J J H S H                       t 9 6 3 9 j Z L T W Y                                                                                                                                                                                                                                         ",
"                                                                                                                                                                                                                      K S S S G S H J G H S                       t 6 3 4 0 j Z G K G F                                                                                                                                                                                                                                         ",
"                                                                                                                                                                                                                    F K S C C G G G J H G Z                       7 < < 7 e j B S Z G L                                                                                                                                                                                                                                         ",
"                                                                                                                                                                                                                    S G S S C G S G G G G                         6 3 6 3 5 j N V S L U                                                                                                                                                                                                                                         ",
"                                                                                                                                                                                                                    S K G G G G Z G G G G                         9 6 3 3 5 j N G G L L                                                                                                                                                                                                                                         ",
"                                                                                                                                                                                                                    S S k G G G G G G G                           t 3 2 3 5 d B G G G S                                                                                                                                                                                                                                         ",
"                                                                                                                                                                                                                    S B G G Z Z Z G G G                             3 3 2 0 f M N N B                                                                                                                                                                                                                                           ",
"                                                                                                                                                                                                                  A S B k B Z Z Z Z G Z                             , < : 4 y j k N B                                                                                                                                                                                                                                           ",
"                                                                                                                                                                                                                  C C v h k N B G G G                               , = = 4 s k N B C                                                                                                                                                                                                                                           ",
"                                                                                                                                                                                                                  V N j u y k k k B k                               2 - - 4 s k N N B                                                                                                                                                                                                                                           ",
"                                                                                                                                                                                                                  N j g 0 s k k f k k                               2 , - 4 w f M B C                                                                                                                                                                                                                                           ",
"                                                                                                                                                                                                                  v g g 0 s s f h k                                 2 , - 4 w h M N N                                                                                                                                                                                                                                           ",
"                                                                                                                                                                                                                g g g 0 r f s r f h                                 < , - 5 w h h h M                                                                                                                                                                                                                                           ",
"                                                                                                                                                                                                                p y 0 5 s s s f s                                   < - = 4 0 f s g h                                                                                                                                                                                                                                           ",
"                                                                                                                                                                                                                w w 0 u s s s f s                                   < , = 2 0 s y g h                                                                                                                                                                                                                                           ",
"                                                                                                                                                                                                                p p w f f s r s u                                   > = = 2 0 0 w g                                                                                                                                                                                                                                             ",
"                                                                                                                                                                                                                3 3 3 w t 0 s s                                     * % & 2 6 0 t u                                                                                                                                                                                                                                             ",
"                                                                                                                                                                                                                O O % 2 0 5 0 w                                     # O @ = < 7 9 8                                                                                                                                                                                                                                             ",
"                                                                                                                                                                                                                  o o % = 2 4 4                                     O O O % $ # & #                                                                                                                                                                                                                                             ",
"                                                                                                                                                                                                                        O @ =                                                                                                                                                                                                                                                                                                   ",
"                                                                                                                                                                                                                                                                                                                                                                                                                                                                                                                                ",
"                                                                                                                                                                                                                                                                                                                                                                                                                                                                                                                                ",
"                                                                                                                                                                                                                                                                                                                                                                                                                                                                                                                                ",
"                                                                                                                                                                                                                                                                                                                                                                                                                                                                                                                                "
};
