/* XPM */
static char *out[] = {
/* columns rows colors chars-per-pixel */
"256 256 152 2 ",
"   c None",
".  c #120B06",
"X  c #160F0A",
"o  c #11100C",
"O  c #1C130E",
"+  c #171311",
"@  c #1D1511",
"#  c #1E1914",
"$  c #20160F",
"%  c #201713",
"&  c #241A14",
"*  c #291D16",
"=  c #271E18",
"-  c #291E19",
";  c #2E221A",
":  c #34251B",
">  c #36291F",
",  c #3B2A1E",
"<  c #332720",
"1  c #372921",
"2  c #3C2C22",
"3  c #3F3026",
"4  c #3F312A",
"5  c #412E22",
"6  c #453225",
"7  c #493526",
"8  c #45342A",
"9  c #49362A",
"0  c #4D392C",
"q  c #533D2D",
"w  c #4D3B30",
"e  c #533E31",
"r  c #593F30",
"t  c #56402E",
"y  c #59412F",
"u  c #564133",
"i  c #5B4433",
"p  c #5E4837",
"a  c #574438",
"s  c #5B4639",
"d  c #5E493B",
"f  c #614633",
"g  c #634936",
"h  c #694D36",
"j  c #644C3B",
"k  c #694E3A",
"l  c #66503E",
"z  c #6C523D",
"x  c #72553E",
"c  c #644E40",
"v  c #6A4F40",
"b  c #665243",
"n  c #6D5442",
"m  c #6E5749",
"M  c #6E594B",
"N  c #715642",
"B  c #755A44",
"V  c #7A5D46",
"C  c #735B4A",
"Z  c #7A5F49",
"A  c #755E53",
"S  c #785F50",
"D  c #7E6047",
"F  c #7E624B",
"G  c #7D6452",
"H  c #7E6957",
"J  c #82654D",
"K  c #86684F",
"L  c #88694F",
"P  c #826651",
"I  c #866952",
"U  c #8A6D55",
"Y  c #856C5B",
"T  c #8A6E59",
"R  c #8E7057",
"E  c #8E715A",
"W  c #917156",
"Q  c #93755C",
"!  c #98775B",
"~  c #96785F",
"^  c #997A5E",
"/  c #8C7461",
"(  c #8E766B",
")  c #927661",
"_  c #957962",
"`  c #9B7C63",
"'  c #947B69",
"]  c #9C7F69",
"[  c #A07F63",
"{  c #9E8066",
"}  c #9D816A",
"|  c #978070",
" . c #9D8372",
".. c #A28266",
"X. c #A4856A",
"o. c #A8876A",
"O. c #A6886E",
"+. c #AA8A6E",
"@. c #A38671",
"#. c #A68972",
"$. c #AD8D72",
"%. c #A08679",
"&. c #A58A7A",
"*. c #AC8E79",
"=. c #B08F72",
"-. c #AF9075",
";. c #AE9179",
":. c #B29275",
">. c #B4957A",
",. c #B8977A",
"<. c #B6987E",
"1. c #BA9A7D",
"2. c #C09E7D",
"3. c #AD9480",
"4. c #B39681",
"5. c #B69982",
"6. c #BB9D82",
"7. c #B99E8A",
"8. c #BEA185",
"9. c #B7A088",
"0. c #BEA289",
"q. c #C09F81",
"w. c #C3A385",
"e. c #C9A787",
"r. c #C4A68A",
"t. c #C6A88B",
"y. c #CAAB8C",
"u. c #C1A790",
"i. c #C5AB92",
"p. c #CCAE91",
"a. c #C3AE98",
"s. c #CEB193",
"d. c #CDB39A",
"f. c #D1B495",
"g. c #D5B897",
"h. c #D3B699",
"j. c #D6B99A",
"k. c #D9BE9D",
"l. c #D6BDA1",
"z. c #D9BEA1",
"x. c #DBC09F",
"c. c #DCC3A3",
"v. c #DBC6AD",
"b. c #DBCBB4",
"n. c #DED0B3",
"m. c #DFD0B8",
"M. c #E0C8A7",
"N. c #E2CCAB",
"B. c #E0CFB6",
"V. c #E5D4B5",
"C. c #E5D5BB",
"Z. c #E8D8BE",
/* pixels */
"                                                                                                                                                                                                                                                                                                                                                                                                                                                                                                                                ",
"                                                                                                                                                                                                                                                                                                                                                                                                                                                                                                                                ",
"                                                                                                                                                                                                                                                                                                                                                                                                                                                                                                                                ",
"                                                                                                                                                                                                                                                                                                                                                                                                                                                                                                                                ",
"                                                                                                                                                                                                                                                                                                                                                                                                                                                                                                                                ",
"                                                                                                                                                                                                                                                                                                                                                                                                                                                                                                                                ",
"                                                                                                                                                                                                                                                                                                                                                                                                                                                                                                                                ",
"                                                                                                                                                                                                                                                                                                                                                                                                                                                                                                                                ",
"                                                                                                                                                                                                                                                                                                                                                                                                                                                                                                                                ",
"                                                                                                                                                                                                                                                                                                                                                                                                                                                                                                                                ",
"                                                                                                                                                                                                                                                                                                                                                                                                                                                                                                                                ",
"                                                                                                                                                                                                                                                                                                                                                                                                                                                                                                                                ",
"                                                                                                                                                                                                                                                                                                                                                                                                                                                                                                                                ",
"                                                                                                                                                                                                                                                                                                                                                                                                                                                                                                                                ",
"                                                                                                                                                                                                                                                                                                                                                                                                                                                                                                                                ",
"                                                                                                                                                                                                                                                                                                                                                                                                                                                                                                                                ",
"                                                                                                                                                                                                                                                                                                                                                                                                                                                                                                                                ",
"                                                                                                                                                                                                                                                                                                                                                                                                                                                                                                                                ",
"                                                                                                                                                                                                                                                                                                                                                                                                                                                                                                                                ",
"                                                                                                                                                                                                                                                                                                                                                                                                                                                                                                                                ",
"                                                                                                                                                                                                                                                                                                                                                                                                                                                                                                                                ",
"                                                                                                                                                                                                                                                                                                                                                                                                                                                                                                                                ",
"                                                                                                                                                                                                                                                                                                                                                                                                                                                                                                                                ",
"                                                                                                                                                                                                                                                                                                                                                                                                                                                                                                                                ",
"                                                                                                                                                                                                                                                                                                                                                                                                                                                                                                                                ",
"                                                                                                                                                                                                                                                                                                                                                                                                                                                                                                                                ",
"                                                                                                                                                                                                                                                                                                                                                                                                                                                                                                                                ",
"                                                                                                                                                                                                                                                                                                                                                                                                                                                                                                                                ",
"                                                                                                                                                                                                                                                                                                                                                                                                                                                                                                                                ",
"                                                                                                                                                                                                                                                                                                                                                                                                                                                                                                                                ",
"                                                                                                                                                                                                                                                                                                                                                                                                                                                                                                                                ",
"                                                                                                                                                                                                                  b.Z.Z.C.C.C.m.b.b.                                                                                                                                                                                                                                                                                            ",
"                                                                                                                                                                                                                  x.M.x.M.M.n.n.V.V.V.n.V.V.n.n.V.n.n.n.n.N.n.                                                                                                                                                                                                                                                                  ",
"                                                                                                                                                                                                                  x.x.x.x.x.x.x.x.x.x.x.M.x.M.x.M.M.M.x.n.N.M.x.v.c.z.z.z.l.h.d.                                                                                                                                                                                                                                                ",
"                                                                                                                                                                                                                  M.x.x.x.x.x.x.x.x.x.x.x.x.x.x.x.x.x.x.x.x.g.g.g.g.p.y.y.q.q.p.i.                                                                                                                                                                                                                                              ",
"                                                                                                                                                                                                                  c.x.x.x.x.x.x.x.x.x.x.x.x.x.x.x.x.x.x.x.x.x.x.g.p.y.y.u.y.q.q.5.                                                                                                                                                                                                                                              ",
"                                                                                                                                                                                                                  x.d.x.x.g.g.x.x.x.s.x.x.x.x.x.x.x.y.x.x.g.g.x.g.p.y.y.y.f.p.e.0.                                                                                                                                                                                                                                              ",
"                                                                                                                                                                                                                x.x.x.s.g.g.s.s.2.x.x.2.y.x.2.x.s.x.x.y.g.g.g.s.p.y.s.s.s.f.s.s.r.                                                                                                                                                                                                                                              ",
"                                                                                                                                                                                                                0.x.i.p.s.s.y.y.y.y.2.s.s.s.y.x.y.x.y.x.g.g.g.s.s.s.s.f.s.s.y.y.9.                                                                                                                                                                                                                                              ",
"                                                                                                                                                                                                                0.i.x.p.y.y.y.t.y.y.y.y.2.x.2.y.y.y.x.2.g.y.g.s.y.s.y.y.e.e.p.y.                                                                                                                                                                                                                                                ",
"                                                                                                                                                                                                                t.s.i.y.t.t.w.t.2.y.y.y.y.2.x.2.t.y.y.y.y.y.y.y.y.y.t.w.t.t.t.t.                                                                                                                                                                                                                                                ",
"                                                                                                                                                                                                                a.s.y.t.t.2.w.w.2.y.y.0.2.x.x.2.y.t.t.w.y.y.e.e.e.q.t.e.e.t.t.t.                                                                                                                                                                                                                                                ",
"                                                                                                                                                                                                                i.t.i.2.2.1.9.w.y.8.y.2.2.2.2.0.e.e.e.t.y.y.e.y.t.e.t.e.t.y.y.y.                                                                                                                                                                                                                                                ",
"                                                                                                                                                                                                                i.t.i.t.w.2.w.w.2.2.2.y.8.x.2.0.t.e.e.y.e.y.y.y.p.p.e.t.y.y.p.y.                                                                                                                                                                                                                                                ",
"                                                                                                                                                                                                                i.t.2.t.2.2.1.1.t.2.2.2.0.2.x.2.y.y.e.y.y.y.2.x.y.y.y.e.t.y.p.y.                                                                                                                                                                                                                                                ",
"                                                                                                                                                                                                                9.t.2.2.2.2.1.1.2.2.9.2.2.y.0.2.2.y.e.2.t.2.t.y.y.p.s.y.e.t.y.e.                                                                                                                                                                                                                                                ",
"                                                                                                                                                                                                                2.1.<.<.<.2.1.1.1.<.1.1.9.2.2.2.t.2.y.2.2.y.t.2.e.y.y.y.t.w.r.t.                                                                                                                                                                                                                                                ",
"                                                                                                                                                                                                                1.<.<.>.-.>.,.,.:.<.,.1.1.2.2.2.2.t.2.t.t.t.t.y.e.t.y.e.t.t.y.t.                                                                                                                                                                                                                                                ",
"                                                                                                                                                                                                                ;.=.=.=.+.+.=.=.=.=.:.:.,.,.,.2.,.2.2.2.t.2.t.t.e.w.t.e.y.t.y.r.                                                                                                                                                                                                                                                ",
"                                                                                                                                                                                                              &.O.+.+.=.=.+.+.+.=.=.:.:.:.:.,.,.,.2.2.2.2.t.t.2.w.w.w.t.e.t.y.q.                                                                                                                                                                                                                                                ",
"                                                                                                                                                                                                              &.O.o.+.+.+.o.+.+.+.=.-.+.=.=.=.,.,.,.1.,.2.i.2.2.r.q.w.e.e.t.r.w.                                                                                                                                                                                                                                                ",
"                                                                                                                                                                                                              &.+.o.o.+.o.o.+.=.$.$.=.=.+.+.o.+.=.,.1.1.2.2.2.2.q.w.q.w.w.r.r.                                                                                                                                                                                                                                                  ",
"                                                                                                                                                                                                              #...o.o.....o.+.=.=.=.+.=.+.+.o.o.+.=.=.,.,.1.2.2.1.w.w.2.w.w.q.                                                                                                                                                                                                                                                  ",
"                                                                                                                                                                                                              | ............o.+.=.=.=.+.+.+.+.+.+.=.=.,.,.:.,.2.1.1.2.1.2.q.q.                                                                                                                                                                                                                                                  ",
"                                                                                                                                                                                                              } ..............o.+.+.o.+.+.+.$.+.=.+.=.=.:.:.,.2.,.,.,.,.1.1.1.                                                                                                                                                                                                                                                  ",
"                                                                                                                                                                                                               .{ ..{ ......{ ..+.O.o.+.+.+.+.+.+.+.=.=.:.:.:.:.,.,.,.1.1.2.1.                                                                                                                                                                                                                                                  ",
"                                                                                                                                                                                                              } W W { L ........+.+.o.o.o.o.+.o.+.=.=.=.:.:.,.=.=.:.,.2.1.q.,.                                                                                                                                                                                                                                                  ",
"                                                                                                                                                                                                              Y W W W W W ......+.+.+.o.o.o.o.o.o.+.+.=.=.:.:.:.+.=.=.,.1.1.,.                                                                                                                                                                                                                                                  ",
"                                                                                                                                                                                                              I D L D L L L L ! ....o...o...o.o.o.o.+.=.=.:.:.:.=.+.=.=.,.<.,.                                                                                                                                                                                                                                                  ",
"                                                                                                                                                                                                              ) W L L L L L L L ! ............o.o.o.+.=.=.=.:.=.:.=.=.=.:.=.$.                                                                                                                                                                                                                                                  ",
"                                                                                                                                                                                                              P L L L L L L L L W ..............o.+.+.=.=.=.=.=.+.=.+.=.o.+.$.                                                                                                                                                                                                                                                  ",
"                                                                                                                                                                                                              n D D J K L L L W W ! ........o.o.o.o.+.+.+.=.=.+.o.o.o.o.o.+.X.                                                                                                                                                                                                                                                  ",
"                                                                                                                                                                                                              w t u p p x B x D J L ! ^ ......o.o.+.+.+.=.=.:.+.o.o.o.......X.                                                                                                                                                                                                                                                  ",
"                                                                                                                                                                                                                                t t 7 q f h x D D L W ! ` X.X.{ ! ..o.......{                                                                                                                                                                                                                                                   ",
"                                                                                                                                                                                                                                    @ O O % & = ; : > 9   z B n n B F P P U                                                                                                                                                                                                                                                     ",
"                                                                                                                                                                                                                                    = % @ @ % $ @ O @                                                                                                                                                                                                                                                                           ",
"                                                                                                                                                                                                                                    1 : : : : : : - <                                                                                                                                                                                                                                                                           ",
"                                                                                                                                                                                                                                    8 8 9 9 q 0 0 9 d                                                                                                                                                                                                                                                                           ",
"                                                                                                                                                                                                                                    w u g j j c j p G                                                                                                                                                                                                                                                                           ",
"                                                                                                                                                                                                                                    c z B B B C B B )                                                                                                                                                                                                                                                                           ",
"                                                                                                                                                                                                                                    m F I F F P I I }                                                                                                                                                                                                                                                                           ",
"                                                                                                                                                                                                                                    C I E T U T Q Q @.                                                                                                                                                                                                                                                                          ",
"                                                                                                                                                                                                                                    G E Q W T Q ` ] $.                                                                                                                                                                                                                                                                          ",
"                                                                                                                                                                                                                                    I ~ Q Q T Q Q X.>.5.                                                                                                                                                                                                                                                                        ",
"                                                                                                                                                                                                                                    G ` Q _ ) W Q X.<.7.                                                                                                                                                                                                                                                                        ",
"                                                                                                                                                                                                                                    n Q Q _ ` ' ~ ` ;.5.                                                                                                                                                                                                                                                                        ",
"                                                                                                                                                                                                                                    M T Q ] X.X.{ Q } ;.                                                                                                                                                                                                                                                                        ",
"                                                                                                                                                                                                              7.q.u.u.u.u.q.t.q.0.9.4.5.5.6.5.6.5.<.>.5.4.4.                                                                                                                                                                                                                                                                    ",
"                                                                                                                                                                                                              @.[ o.+.$.:.:.,.,.6.1.2.q.q.w.e.e.e.e.r.e.r.r.r.r.r.7.5.5.4.4.;.                                                                                                                                                                                                                                                  ",
"                                                                                                                                                                                                              @.o.o.O.O.[ =.=.6.6.6.1.2.2.2.2.2.w.w.w.2.8.q.w.q.q.6.6.1.5.5.5.                                                                                                                                                                                                                                                  ",
"                                                                                                                                                                                                              #.$.X.O.+.=.=.:.p.d.d.i.9.8.2.1.1.2.2.2.1.2.9.9.2.6.6.5.1.5.5.>.                                                                                                                                                                                                                                                  ",
"                                                                                                                                                                                                              $.$.$.$.=.:.:.q.h.l.c.c.x.x.0.2.1.1.<.<.<.2.2.2.9.6.6.<.<.1.5.4.                                                                                                                                                                                                                                                  ",
"                                                                                                                                                                                                              $.:.>.=.=.,.q.p.s.d.c.x.c.x.x.d.s.0.2.1.<.1.1.2.9.6.6.5.1.>.>.>.                                                                                                                                                                                                                                                  ",
"                                                                                                                                                                                                              >.,.,.,.:.:.q.p.p.f.d.p.d.h.d.x.x.0.1.1.2.1.2.2.2.q.6.q.5.5.5.>.                                                                                                                                                                                                                                                  ",
"                                                                                                                                                                                                              >.=.=.:.=.,.y.g.f.f.f.d.y.p.x.t.0.1.-.<.2.2.2.2.9.q.6.6.6.,.4.>.                                                                                                                                                                                                                                                  ",
"                                                                                                                                                                                                              $.+.+.=.=.2.k.z.z.h.f.f.d.p.i.0.2.>.-.-.>.2.2.9.2.6.6.q.1.;.=.>.                                                                                                                                                                                                                                                  ",
"                                                                                                                                                                                                              #.=.+.+.:.s.g.k.k.g.f.f.f.0.p.2.:.-.-.$.+.-.1.2.2.q.6.6.4.4.=.#.                                                                                                                                                                                                                                                  ",
"                                                                                                                                                                                                            ' >.+.o.o.2.g.g.g.f.f.s.f.d.x.p.1.:.-.-.-.$.-.<.1.1.6.6.1.6.6.*.*.                                                                                                                                                                                                                                                  ",
"                                                                                                                                                                                                            ' $.+.X.$.p.g.j.j.f.f.p.p.p.p.w.>.;.:.=.=.+.=.1.1.1.6.6.6.6.5.6.*.                                                                                                                                                                                                                                                  ",
"                                                                                                                                                                                                            ' o.X.[ 8.g.h.g.k.j.g.h.f.f.i.6.:.=.-.-.+.+.:.1.1.1.1.q.6.q.r.6.                                                                                                                                                                                                                                                    ",
"                                                                                                                                                                                                            ' X.o.$.h.j.g.g.g.j.j.j.f.p.w.1.,.=.+.+.+.+.,.,.,.>.1.6.5.6.6.6.                                                                                                                                                                                                                                                    ",
"                                                                                                                                                                                                            ' ..o.6.f.h.h.f.s.f.f.f.f.p.q.1.1.=.=.+.+.=.,.,.,.,.1.,.1.1.6.6.                                                                                                                                                                                                                                                    ",
"                                                                                                                                                                                                            ' [ :.f.p.p.s.f.s.f.s.s.y.w.1.,.,.=.+.=.+.=.:.:.,.,.<.6.1.1.6.6.                                                                                                                                                                                                                                                    ",
"                                                                                                                                                                                                            _ X.y.k.k.f.s.y.p.p.y.p.y.1.<.,.>.=.:.=.=.:.:.-.-.-.,.1.1.1.1.5.                                                                                                                                                                                                                                                    ",
"                                                                                                                                                                                                            ' ,.j.z.k.g.f.p.y.e.e.r.6.,.,.,.:.:.:.=.:.:.:.:.-.-.=.1.6.<.1.<.                                                                                                                                                                                                                                                    ",
"                                                                                                                                                                                                            ] t.h.g.g.s.f.f.s.y.r.w.,.1.,.:.:.:.:.:.:.:.:.<.,.-.=.>.,.,.1.6.                                                                                                                                                                                                                                                    ",
"                                                                                                                                                                                                            >.f.f.p.f.p.y.f.y.y.2.2.1.<.<.:.:.=.+.:.,.,.:.:.>.-.=.=.,.>.,.1.                                                                                                                                                                                                                                                    ",
"                                                                                                                                                                                                            i.h.f.f.j.f.f.p.y.y.2.1.1.<.:.:.=.+.+.:.:.,.:.:.-.:.=.=.:.:.>.1.                                                                                                                                                                                                                                                    ",
"                                                                                                                                                                                                            j.f.f.f.f.j.g.s.y.w.,.:.,.:.:.:.=.+.+.:.,.,.-.:.,.:.<.>.>.>.,.>.                                                                                                                                                                                                                                                    ",
"                                                                                                                                                                                                          d.h.f.f.f.r.y.p.y.w.,.,.,.=.=.:.:.+.+.:.:.,.:.,.,.,.:.,.>.>.>.,.1.                                                                                                                                                                                                                                                    ",
"                                                                                                                                                                                                        i.f.f.s.s.p.s.e.w.6.,.:.,.:.:.,.:.=.+.=.:.:.:.,.,.,.:.,.>.>.,.>.>.5.                                                                                                                                                                                                                                                    ",
"                                                                                                                                                                                                        h.j.f.f.f.f.f.s.t.q.,.>.:.,.,.:.=.=.+.$.:.:.=.:.:.:.,.:.:.:.>.:.:.>.                                                                                                                                                                                                                                                    ",
"                                                                                                                                                                                                      s.f.f.s.f.f.f.p.f.f.t.,.$.:.,.:.=.+.+.+.=.:.:.:.:.:.$.:.:.=.=.>.;.:.>.                                                                                                                                                                                                                                                    ",
"                                                                                                                                                                                                      h.h.f.f.f.s.s.p.y.e.1.=.$.:.=.=.=.=.+.$.=.:.:.:.=.:.:.$.$.=.=.=.:.>.>.                                                                                                                                                                                                                                                    ",
"                                                                                                                                                                                                    a.f.f.g.g.f.f.f.f.f.e.,.=.=.=.=.=.=.+.+.$.-.:.:.:.$.$.:.:.=.$.$.=.=.>.>.                                                                                                                                                                                                                                                    ",
"                                                                                                                                                                                                    g.s.f.f.s.s.s.y.p.p.w.:.=.=.+.=.+.+.+.+.$.-.-.:.:.:.:.:.:.$.=.$.*.=.$.>.                                                                                                                                                                                                                                                    ",
"                                                                                                                                                                                                  p.f.f.f.f.s.s.p.y.e.w.,.=.=.+.=.=.$.o.o.$.$.$.:.:.>.:.:.,.:.$.$.$.=.=.:.;.                                                                                                                                                                                                                                                    ",
"                                                                                                                                                                                                  d.s.f.f.f.s.s.y.e.w.,.+.o.=.o.o.$.+.o.+.+.$.-.-.:.:.:.:.:.:.:.$.=.$.$.:.;.                                                                                                                                                                                                                                                    ",
"                                                                                                                                                                                                t.s.p.p.s.p.p.y.e.2.,.o...............O.$.+.+.-.$.-.:.:.:.+.$.+.$.$.=.$.=.*.                                                                                                                                                                                                                                                    ",
"                                                                                                                                                                                                p.p.y.r.t.y.y.t.e.,.+.....^ ........o.o.O.+.+.-.-.$.=.=.:.-.:.+.O.$.+.$.$.=.                                                                                                                                                                                                                                                    ",
"                                                                                                                                                                                              r.r.r.r.w.r.r.8.1.2.:.......! ..! { ..X.O.O.O.+.-.-.-.-.:.:.=.-.$.+.$.$.=.$.#.                                                                                                                                                                                                                                                    ",
"                                                                                                                                                                                              0.w.8.r.t.8.2.>.-.>.O...^ ......! ^ X.X.O.O.+.-.+.+.:.+.+.:.$.+.+.O.O.$.=.=.>.                                                                                                                                                                                                                                                    ",
"                                                                                                                                                                                            <.<.1.8.t.r.1.>.X.{ X.` [ ` ^ ^ ! ! ` X.X.X.X.+.-.$.$.O.O.+.-.+.$.-.$.O.$.$.:.;.                                                                                                                                                                                                                                                    ",
"                                                                                                                                                                                            <.:.$.$.$.,.>.O...{ Q ^ ` ^ ! ! W Q ..X.X.O.X.O.O.O.o.X.X.O.+.$.+.-.=.$.O.$.$.>.                                                                                                                                                                                                                                                    ",
"                                                                                                                                                                                          ;.$.$.X.` Q ^ ` ` _ ` ^ ^ ^ ! Q W W ^ o.X.} X.X.O.X.{ ..X...o.+.+.+.$.=.;.$.$.$.:.                                                                                                                                                                                                                                                    ",
"                                                                                                                                                                                          #.X.} _ ` { ` Q Q _ ` ^ Q Q W W W Q ` ..X.X.X.X.O.X.X.X.X...X.o.X.O.+.$.=.$.+.$.$.                                                                                                                                                                                                                                                    ",
"                                                                                                                                                                                        ` } _ U J J T ) Q X.] ` ^ ^ W K U U Q _ { { { { { { X.X...X...o.X.o.+.O.O.+.$.+.O.$.                                                                                                                                                                                                                                                    ",
"                                                                                                                                                                                         .#.;.@.' ' ] ] ] X.Q E Q Q Q U K R Q Q E { { { { { { { ..` ..{ { ..X.{ [ X.o.O.+.O.                                                                                                                                                                                                                                                    ",
"                                                                                                                                                                                        i.i.p.i.r.0.r.7.;.>.*.) I U U U K Q ~ Q E Q { { { { { { ` ` ` ^ ` ....X.` ` [ X.X.o.                                                                                                                                                                                                                                                    ",
"                                                                                                                                                                                        $.$.-.$.X.` ` X.#.$.>.<.} I F J I R E Q Q Q Q Q { { { { ` ^ ~ ~ ^ ` { ..[ ` ` ` X.+.@.                                                                                                                                                                                                                                                  ",
"                                                                                                                                                                                        _ } ` { O.X.` O.6.1.$.@.$.X.' T U R R E Q Q E Q { Q { { Q Q ! { ~ ` ` ` ` [ ` [ X.O.@.                                                                                                                                                                                                                                                  ",
"                                                                                                                                                                                          ) ` ` X.X.[ X.:.1.<.#.O.O.X.` E E E R Q { Q { Q { Q { { E Q E ~ ^ ` ` ` ` ` [ X.X.@.                                                                                                                                                                                                                                                  ",
"                                                                                                                                                                                          Q ` _ ` X.O.+.o.$.6.<.$.+.O.] U R U U R E { Q { Q { Q ! Q Q Q ~ ~ ` ` _ ^ ` ` ] X.$.                                                                                                                                                                                                                                                  ",
"                                                                                                                                                                                          I E Q Q _ ..` ~ ` ,.6.;.$.$.O.R U U I U I R Q E { Q { { { Q { ~ ~ ` ` ` _ ` ^ ` X.X.                                                                                                                                                                                                                                                  ",
"                                                                                                                                                                                            G P U Q Q W Q ^ +.1.>.=.$.$.Q P I U I U U E E Q { Q ~ { { ~ Q _ _ ` Q ` ~ ^ ` X.X.                                                                                                                                                                                                                                                  ",
"                                                                                                                                                                                            B B B Z K U U U ` ,.;.=.$.$.Q U I I K K U U R Q Q Q ~ ~ _ _ ^ Q Q Q Q ~ Q Q ` ` }                                                                                                                                                                                                                                                   ",
"                                                                                                                                                                                            z l g g N P K K K :.>.=.=.=.` I P P H F F K U E E E E Q ^ ^ Q ~ Q Q Q Q Q Q _ ` {                                                                                                                                                                                                                                                   ",
"                                                                                                                                                                                              j p p n Z J K K o.=.=.>.=.X.J P U L K F K F U R U E Q ~ Q Q Q E E T Q Q Q Q ` `                                                                                                                                                                                                                                                   ",
"                                                                                                                                                                                              j l l l D V D D { >.>.>.>.+.F F H I U P P P J K I U T W E E E R T U Q Q U Q ! _                                                                                                                                                                                                                                                   ",
"                                                                                                                                                                                              B F G D D V D D W >.1.1.>.-.F D F P P I I I K P J K U W Q Q E E U U U U U W T Q                                                                                                                                                                                                                                                   ",
"                                                                                                                                                                                                m F F F F D D L :.2.2.<.:.E D B J Z Z J I I U I I U T W W E U E U U T U T T T                                                                                                                                                                                                                                                   ",
"                                                                                                                                                                                                u u j D I D F K +.8.8.2.1.Q C D Z Z Z Z J I P I I I I T W E T U U U U T U U W                                                                                                                                                                                                                                                   ",
"                                                                                                                                                                                                u u u d F F F K { 2.0.8.8.{ B D B B B B Z J J J I I I U U E R U I U U U U I U T                                                                                                                                                                                                                                                 ",
"                                                                                                                                                                                                  9 t a D D F K R >.w.8.0.O.x z N N N N x N B J K P I I I U U U I P I U I I I T                                                                                                                                                                                                                                                 ",
"                                                                                                                                                                                                  9 u u z F F J K $.2.8.0.-.D z N N N N N k N B Z J K K P I U U I I I I I I T T                                                                                                                                                                                                                                                 ",
"                                                                                                                                                                                                    t u l D K K F X.2.8.9.>.F z v k z N N v k v N B V J P J P P U I I P P P I I                                                                                                                                                                                                                                                 ",
"                                                                                                                                                                                                    w u a l F U I { 2.8.8.1.I n N k z z n N z z n N B B Z J P P P P P J F Z F G                                                                                                                                                                                                                                                 ",
"                                                                                                                                                                                                    w t t t z Y E ! ,.2.2.9.T x N v k k k z N z v v N N N N Z Z J J J C B N N C                                                                                                                                                                                                                                                 ",
"                                                                                                                                                                                                      0 9 9 p H E Q >.8.8.8.~ l N n k j j k n B P P J v g j v j g p e w 0 8 0                                                                                                                                                                                                                                                   ",
"                                                                                                                                                                                                      6 9 t y x E U +.2.8.0.{ t r r q 9 g N n I ] ] [ E P I U U b                                                                                                                                                                                                                                                               ",
"                                                                                                                                                                                                      3 9 0 t l L J ^ 1.8.w.} : $ * : , i g f P @.#.#.+.@.O.*.[ Y                                                                                                                                                                                                                                                               ",
"                                                                                                                                                                                                        9 t t l G D R >.2.0.&.2 . $ , , 9 r i J #.#.#.@.*.O.*.+.(                                                                                                                                                                                                                                                               ",
"                                                                                                                                                                                                        8 9 0 j F D K :.9.w.<.0 . $ , 7 y y r Z #.*.*.@.+.*.*.;. .(                                                                                                                                                                                                                                                             ",
"                                                                                                                                                                                                          4 t g D x J O.2.8.1.g X $ : 6 q f g Z @.=.$.*.=.=.>.>.&.%.                                                                                                                                                                                                                                                            ",
"                                                                                                                                                                                                          8 8 p F B V ..2.8.8.n o O * , y h x D O.;.-.;.>.>.>.1.4.&.                                                                                                                                                                                                                                                            ",
"                                                                                                                                                                                                          8 8 p F D D W ,.8.0.H & @ $ : q y l D X.>.>.<.1.6.5.5.5.;.5.                                                                                                                                                                                                                                                          ",
"                                                                                                                                                                                                            0 t F G D R <.8.0.| ; & # : 0 q f x X.;.;.6.6.6.5.6.<.5.7.                                                                                                                                                                                                                                                          ",
"                                                                                                                                                                                                            9 8 l K F U -.2.8.} 2 ; & ; 0 0 f x } >.;.6.q.6.6.6.6.<.0.                                                                                                                                                                                                                                                          ",
"                                                                                                                                                                                                              3 u D D D } 1.<.} 8 1 ; ; 0 q j z ` >.>.5.r.8.<.<.5.5.6.0.                                                                                                                                                                                                                                                        ",
"                                                                                                                                                                                                              3 3 l D V Q >.<.#.u 4 1 1 7 u h N Q ;.$.:.6.r.6.<.<.6.r.r.                                                                                                                                                                                                                                                        ",
"                                                                                                                                                                                                              3 > t i y D O.-.;.b 8 3 8 0 t i h ) >.-.>.6.7.1.6.<.5.6.t.                                                                                                                                                                                                                                                        ",
"                                                                                                                                                                                                                : > 6 3 i } ;.;.A 9 8 0 9 q q h Q >.<.<.6.6.<.1.<.6.0.r.r.                                                                                                                                                                                                                                                      ",
"                                                                                                                                                                                                                ; 2 7 t p Q :.>.Y e a a 9 e q z T =.>.1.1.6.1.5.<.6.r.r.u.                                                                                                                                                                                                                                                      ",
"                                                                                                                                                                                                                ; : t g h L *.>.( s d a 9 0 q h J +.=.:.>.1.<.>.>.6.r.t.i.                                                                                                                                                                                                                                                      ",
"                                                                                                                                                                                                                  < > t k F O.;. .d d a 9 9 9 i V +.>.:.>.,.<.>.;.5.6.i.i.u.                                                                                                                                                                                                                                                    ",
"                                                                                                                                                                                                                  : ; 3 i N  .;.%.c d w 2 9 9 i B +.:.:.>.<.<.>.<.5.6.r.i.a.                                                                                                                                                                                                                                                    ",
"                                                                                                                                                                                                                    ; ; 7 y Q -.%.m j w 8 q q y B o.=.=.>.>.1.>.<.<.9.r.t.i.                                                                                                                                                                                                                                                    ",
"                                                                                                                                                                                                                    ; & ; , z { ) M p w 0 q q y x [ =.:.:.>.>.>.>.<.6.8.r.i.0.                                                                                                                                                                                                                                                  ",
"                                                                                                                                                                                                                    ; & & ; > u s b d e q e q r z ` =.:.=.>.<.1.5.5.1.6.0.i.r.                                                                                                                                                                                                                                                  ",
"                                                                                                                                                                                                                      @ @ # #     c s u e q r r h ` =.=.>.>.1.6.>.<.6.9.8.t.t.                                                                                                                                                                                                                                                  ",
"                                                                                                                                                                                                                                    d a w q q u h ! =.=.;.1.6.6.>.5.6.6.8.r.t.0.                                                                                                                                                                                                                                                ",
"                                                                                                                                                                                                                                    c a e u r u h W =.=.;.>.7.q.5.5.5.6.8.0.0.0.                                                                                                                                                                                                                                                ",
"                                                                                                                                                                                                                                    c a e r r y h R +.=.>.>.5.6.5.<.5.6.0.0.t.t.                                                                                                                                                                                                                                                ",
"                                                                                                                                                                                                                                    c s u u q y g L +.=.=.>.1.5.8.6.>.>.0.0.0.0.9.                                                                                                                                                                                                                                              ",
"                                                                                                                                                                                                                                    c d a u u u f J +.=.$.>.<.6.9.6.>.>.5.8.0.t.0.                                                                                                                                                                                                                                              ",
"                                                                                                                                                                                                                                    b d u w q r f J o.=.$.>.<.<.6.6.>.:.<.9.t.0.8.                                                                                                                                                                                                                                              ",
"                                                                                                                                                                                                                                    b j u q r t g V X.$.$.>.<.<.6.7.,.:.>.6.0.8.<.<.                                                                                                                                                                                                                                            ",
"                                                                                                                                                                                                                                    v b s u u u f B [ $.$.>.>.<.5.6.5.:.:.5.0.w.<.<.                                                                                                                                                                                                                                            ",
"                                                                                                                                                                                                                                    b b s r u y p x [ +.$.=.>.1.6.6.6.;.;.,.0.0.6.<.                                                                                                                                                                                                                                            ",
"                                                                                                                                                                                                                                    n c u e u u i x [ +.$.>.5.5.5.6.5.:.:.>.9.t.7.<.4.                                                                                                                                                                                                                                          ",
"                                                                                                                                                                                                                                    b c i e u y i z ^ $.$.=.<.5.1.6.<.:.:.;.<.0.w.6.7.                                                                                                                                                                                                                                          ",
"                                                                                                                                                                                                                                      b j u u u f k ^ +.$.$.>.<.1.9.1.-.;.:.,.9.t.9.6.                                                                                                                                                                                                                                          ",
"                                                                                                                                                                                                                                      A b a i i y g W +.=.=.>.<.1.1.<.o.-.-.>.<.6.7.7.5.                                                                                                                                                                                                                                        ",
"                                                                                                                                                                                                                                      A j u i y f g U +.$.=.;.>.6.9.<.} O.-.-.-.;.6.6.6.                                                                                                                                                                                                                                        ",
"                                                                                                                                                                                                                                      n s a u i i g K +.+.$.;.>.6.6.,.{ ` O.X.-.;.,.6.6.                                                                                                                                                                                                                                        ",
"                                                                                                                                                                                                                                      b j s p i y f J o.$.+.=.>.<.7.,.{ E { } $.-.<.6.9.5.                                                                                                                                                                                                                                      ",
"                                                                                                                                                                                                                                      b d p s p f g F X.$.$.-.>.<.9.,.{ R ` X.X.-.;.5.8.7.                                                                                                                                                                                                                                      ",
"                                                                                                                                                                                                                                      b d a j g g g F O.$.-.$.:.>.1.,.` P ' @.X.#.-.>.9.0.                                                                                                                                                                                                                                      ",
"                                                                                                                                                                                                                                      b d s d z h g V o.-.-.$.;.>.,.1.} F E } X.#.-.;.5.r.5.                                                                                                                                                                                                                                    ",
"                                                                                                                                                                                                                                      b d s s p g g N ..$.-.-.-.;.<.5.O.V T } } #.;.;.<.9.0.                                                                                                                                                                                                                                    ",
"                                                                                                                                                                                                                                      c a s a a j k z ..-.-.-.>.>.,.5.#.n G _ } } ;.;.>.<.0.                                                                                                                                                                                                                                    ",
"                                                                                                                                                                                                                                      s a u u u j j N ` -.>.-.:.;.>.<.$.z V E ] } ;.;.<.<.9.7.                                                                                                                                                                                                                                  ",
"                                                                                                                                                                                                                                        s a u u a h n _ -.-.-.-.-.:.>.$.z n I ] } $.;.>.5.6.9.                                                                                                                                                                                                                                  ",
"                                                                                                                                                                                                                                        s u e r u u g Q -.-.-.-.-.-.:.$.n g F ) } &.;.;.>.<.9.3.                                                                                                                                                                                                                                ",
"                                                                                                                                                                                                                                        a u u u u q q P $.;.-.-.-.$.:.:.n u B E } X.;.>.<.<.3.5.                                                                                                                                                                                                                                ",
"                                                                                                                                                                                                                                        d a a u u q y D #.$.-.$.-.:.:.=.V 9 i G ' ` #.;.<.<.4.5.                                                                                                                                                                                                                                ",
"                                                                                                                                                                                                                                        s a w w u u u V #.-.$.-.$.:.:.:.V q f B E } } $.>.<.4.4.3.                                                                                                                                                                                                                              ",
"                                                                                                                                                                                                                                        u w 9 9 q q u N } #.#.-.-.=.$.:.Z 7 i x T ` #.*.>.<.4.4.5.                                                                                                                                                                                                                              ",
"                                                                                                                                                                                                                                        4 4 2 8 9 r i n ` @.O.+.$.-.=.:.F 1 7 i F ' #.*.;.>.>.>.5.                                                                                                                                                                                                                              ",
"                                                                                                                                                                                                                                        4 4 4 8 9 q e j ` X.@.+.$.$.$.:.P : , 7 k E X.$.;.>.4.;.4.3.                                                                                                                                                                                                                            ",
"                                                                                                                                                                                                                                        w w w 8 6 9 9 q U X.@.O.$.$.+.$.U : : 6 0 J ` o.@.-.;.;.;.*.                                                                                                                                                                                                                            ",
"                                                                                                                                                                                                                                        s a w w 0 9 9 q Z ] ] [ O.$.O.$.T : ; 2 5 n U _ ~ ` X.X.#.#.                                                                                                                                                                                                                            ",
"                                                                                                                                                                                                                                          a w w w 0 0 0 Z _ ` ` X.O.+.=.W : * : 2 f J R U R _ ` } X.                                                                                                                                                                                                                            ",
"                                                                                                                                                                                                                                          e w 8 4 2 7 9 n Q _ ! ` [ X.O.E 1 ; ; : q B U Q ^ ^ ` ` ] '                                                                                                                                                                                                                           ",
"                                                                                                                                                                                                                                          w 8 4 2 2 5 7 k U Q ! ` ` [ @.E 5 : : : 7 N I ` ` ` ` ` ` `                                                                                                                                                                                                                           ",
"                                                                                                                                                                                                                                          w 8 w 9 5 2 5 g J I R Q _ ` [ E 8 : , , 7 k J W W Q Q ' ` `                                                                                                                                                                                                                           ",
"                                                                                                                                                                                                                                          d s d s e 8 0 k P P K K W Q ` E e 6 7 6 q z J K U Q ^ ` ` Q                                                                                                                                                                                                                           ",
"                                                                                                                                                                                                                                          b C m v n m N J E T R U U Q _ Q e 8 5 7 r x J W Q ` ^ _ ` W                                                                                                                                                                                                                           ",
"                                                                                                                                                                                                                                          A A C Z Z P I _ @.] _ [ _ W Q Q g 9 q r f N U Q ^ ....X.]                                                                                                                                                                                                                             ",
"                                                                                                                                                                                                                                        A G C N P P S T [ ] ] @.[ ` [ _ Q k r r r f V L Q ^ ` ..` }                                                                                                                                                                                                                             ",
"                                                                                                                                                                                                                                        H G N C H L H U { { { { [ @.X.#.' j i u y h V K W Q ^ [ ` )                                                                                                                                                                                                                             ",
"                                                                                                                                                                                                                                        G F m C K K D H T E U { X.@.X.$.I u y u y h V K L Q ` ^ ` ^                                                                                                                                                                                                                             ",
"                                                                                                                                                                                                                                        H G Z G L L F { E E H { ] ] o.} n u r q r h V K K Q ^ ! Q Q                                                                                                                                                                                                                             ",
"                                                                                                                                                                                                                                      Y H S G P H H H { R { { E ] ] ] T s r y q r z V J L ! ! Q Q Q                                                                                                                                                                                                                             ",
"                                                                                                                                                                                                                                      Y Y I H F J E { Q E { | { X.} ` C u u t u y x V K W W ! Q `                                                                                                                                                                                                                               ",
"                                                                                                                                                                                                                                      / Y I K F F Q { { { E { { ` } ) j u i g g f x V K W W Q Q Q                                                                                                                                                                                                                               ",
"                                                                                                                                                                                                                                      T T K H D F U { Q { { E { ` } I j p j g g f x J L W W ! Q Q                                                                                                                                                                                                                               ",
"                                                                                                                                                                                                                                    T E E I L H I E | Q E { E { _ ' C s i i i g h x J L W W Q Q Q                                                                                                                                                                                                                               ",
"                                                                                                                                                                                                                                    / R T U U I T { E E E { { E _ ) l p a t u y g V K L W W ^ [ Q                                                                                                                                                                                                                               ",
"                                                                                                                                                                                                                                    E T I Y I P U E I E U T U T _   l p u q q q g V L W W W ! ! Q                                                                                                                                                                                                                               ",
"                                                                                                                                                                                                                                  Y R T I U I I E E U U U U E { E   b l p i i g k V L W W W ^ ~ I                                                                                                                                                                                                                               ",
"                                                                                                                                                                                                                                  Y E Y T T U E Q T U R R U U E     l j s g j h z J L W W Q X.`                                                                                                                                                                                                                                 ",
"                                                                                                                                                                                                                                  T E T T U E Q E R R R E R E T     j s s p i i k J L W W W ` _                                                                                                                                                                                                                                 ",
"                                                                                                                                                                                                                                  ) E T E E E E U R R R R E E E     j j j z i i k J L L W R T Q                                                                                                                                                                                                                                 ",
"                                                                                                                                                                                                                                E / Q Q E E Q E U R R R R E E       j j j d j p x J U W W R Q Q                                                                                                                                                                                                                                 ",
"                                                                                                                                                                                                                                E ) ) ) / Q Q U R U R R R E E       j j j j j g z D L U Q Q _ )                                                                                                                                                                                                                                 ",
"                                                                                                                                                                                                                                _ _ _ / Q | T U E U R U E Q         d l j d l h x J R W W ~ Q E                                                                                                                                                                                                                                 ",
"                                                                                                                                                                                                                                ] _ ) ) ~ _ U U U R U T E E         l l d p g p x J U W ! ~ _                                                                                                                                                                                                                                   ",
"                                                                                                                                                                                                                              / _ _ ) E ~ E U U U R R E E           l l d a g j B J R W Q ~ ~                                                                                                                                                                                                                                   ",
"                                                                                                                                                                                                                              / _ ) ) / E T U T U U U E E           l l p i p g V J U R Q ~ )                                                                                                                                                                                                                                   ",
"                                                                                                                                                                                                                              ] _ _ Q E E E U U U U E E H           l n s a p p D J U R Q ~ Q                                                                                                                                                                                                                                   ",
"                                                                                                                                                                                                                              _ ) _ ) Q E T U U U U E E             n l p i i p D J L Q _ _ )                                                                                                                                                                                                                                   ",
"                                                                                                                                                                                                                            / _ ) / ) ) E U U U U E E I             l l p a u p D F L E { _ Q                                                                                                                                                                                                                                   ",
"                                                                                                                                                                                                                            E ) ) / E E I Y I U U E T               n l a p i p D J U E _ {                                                                                                                                                                                                                                     ",
"                                                                                                                                                                                                                            / ) / E T E R I U U U E U               c j s p i j D J I E _ _                                                                                                                                                                                                                                     ",
"                                                                                                                                                                                                                            _ ) E E E R I U I I T R                 n j a i y l D K R Q _ ^                                                                                                                                                                                                                                     ",
"                                                                                                                                                                                                                          / ) E E T E I I U I I I I                 v j i t q l D I R _ _ Q                                                                                                                                                                                                                                     ",
"                                                                                                                                                                                                                          / T T E T R I L I I P Y I                 z s q 0 0 h D I R Q { Q                                                                                                                                                                                                                                     ",
"                                                                                                                                                                                                                          E T P H U U K I K P J P                   l p 0 0 q z D I R ) ' E                                                                                                                                                                                                                                     ",
"                                                                                                                                                                                                                          T Y U G G I I K I K J F                   l a q 0 t z D K R ) ~ E                                                                                                                                                                                                                                     ",
"                                                                                                                                                                                                                        P I Y U H T K K I J J J                     l i q q t z V I E ) ~                                                                                                                                                                                                                                       ",
"                                                                                                                                                                                                                        U U P F I T K I K J J F                     j i 0 0 t x D I E _ ~                                                                                                                                                                                                                                       ",
"                                                                                                                                                                                                                        T T U P L K L J J D J                       i 0 7 7 t N D I R E R                                                                                                                                                                                                                                       ",
"                                                                                                                                                                                                                        U P J P K F J J F J D                       u 9 7 0 t z V F P G F                                                                                                                                                                                                                                       ",
"                                                                                                                                                                                                                      P U I J J F F J J D F D                       8 8 7 0 i z D B B F F                                                                                                                                                                                                                                       ",
"                                                                                                                                                                                                                      I P P J J F D F J J D                         9 8 7 7 i z B B D J P                                                                                                                                                                                                                                       ",
"                                                                                                                                                                                                                      I K K L J J V V J D V                         0 8 9 7 y z B F J P                                                                                                                                                                                                                                         ",
"                                                                                                                                                                                                                      I K J L J D J J D D                           e 8 7 7 t z D F F J                                                                                                                                                                                                                                         ",
"                                                                                                                                                                                                                    Z J Z J J D x J J V V                           9 6 6 7 y l B x B B                                                                                                                                                                                                                                         ",
"                                                                                                                                                                                                                    P J Z J J D x J D V                             3 2 2 2 y h l z x B                                                                                                                                                                                                                                         ",
"                                                                                                                                                                                                                    P Z N B B B V V J J                             5 1 : , q g x B B N                                                                                                                                                                                                                                         ",
"                                                                                                                                                                                                                  F Z B k g h x x x x V                             8 5 2 5 r g x B B N                                                                                                                                                                                                                                         ",
"                                                                                                                                                                                                                  C C n h r z x h h x                               8 5 2 5 r g k x B                                                                                                                                                                                                                                           ",
"                                                                                                                                                                                                                  N N n f f f f g k k                               6 5 2 5 q g k N B                                                                                                                                                                                                                                           ",
"                                                                                                                                                                                                                  v j f r f f y f h                                 8 2 , 7 r g k k k                                                                                                                                                                                                                                           ",
"                                                                                                                                                                                                                j j s e y f y f f f                                 8 2 , 5 q r p i j                                                                                                                                                                                                                                           ",
"                                                                                                                                                                                                                d d i f f y f f f                                   6 1 , 5 q y r i g                                                                                                                                                                                                                                           ",
"                                                                                                                                                                                                                s g g k g f y f i                                   1 < : 5 9 q q p p                                                                                                                                                                                                                                           ",
"                                                                                                                                                                                                                2 8 9 r r y y i u                                   - - - 2 7 9 t u                                                                                                                                                                                                                                             ",
"                                                                                                                                                                                                                @ + & 2 9 7 q r                                     & & & : 5 7 9 8                                                                                                                                                                                                                                             ",
"                                                                                                                                                                                                                  + + = : 5 6 7                                       + @ & * - ; ;                                                                                                                                                                                                                                             ",
"                                                                                                                                                                                                                        O & ;                                                                                                                                                                                                                                                                                                   ",
"                                                                                                                                                                                                                                                                                                                                                                                                                                                                                                                                ",
"                                                                                                                                                                                                                                                                                                                                                                                                                                                                                                                                ",
"                                                                                                                                                                                                                                                                                                                                                                                                                                                                                                                                ",
"                                                                                                                                                                                                                                                                                                                                                                                                                                                                                                                                "
};
