/* XPM */
static char *out[] = {
/* columns rows colors chars-per-pixel */
"256 256 154 2 ",
"   c None",
".  c #130D0B",
"X  c #1B130D",
"o  c #161211",
"O  c #1C1512",
"+  c #1E1812",
"@  c #22170F",
"#  c #201711",
"$  c #241A15",
"%  c #2A1E16",
"&  c #261E19",
"*  c #2A1E18",
"=  c #2D2119",
"-  c #302116",
";  c #34251C",
":  c #38271D",
">  c #37281E",
",  c #3B2A1E",
"<  c #362A24",
"1  c #3C2C22",
"2  c #3F3026",
"3  c #3E3028",
"4  c #412E1F",
"5  c #402E22",
"6  c #443225",
"7  c #4A3626",
"8  c #4D3827",
"9  c #453429",
"0  c #49372A",
"q  c #4D392C",
"w  c #533D2D",
"e  c #403330",
"r  c #4D3C31",
"t  c #523E31",
"y  c #503D38",
"u  c #57402E",
"i  c #59412F",
"p  c #564133",
"a  c #5B4433",
"s  c #5F4837",
"d  c #56433A",
"f  c #5B4638",
"g  c #5E493B",
"h  c #614733",
"j  c #624936",
"k  c #694D37",
"l  c #634C3B",
"z  c #694E3B",
"x  c #67503E",
"c  c #6C523D",
"v  c #71553E",
"b  c #5C4B42",
"n  c #644E41",
"m  c #665143",
"M  c #6C5442",
"N  c #675548",
"B  c #6C5649",
"V  c #6F5A4B",
"C  c #715641",
"Z  c #755A44",
"A  c #7A5D46",
"S  c #745C4B",
"D  c #7A5E4A",
"F  c #7E6047",
"G  c #7D624C",
"H  c #776053",
"J  c #7C6453",
"K  c #7D6857",
"L  c #7E6759",
"P  c #82644C",
"I  c #86684E",
"U  c #89694F",
"Y  c #826751",
"T  c #866A53",
"R  c #8A6D55",
"E  c #856B5A",
"W  c #8A6F59",
"Q  c #8E7057",
"!  c #8E715A",
"~  c #917256",
"^  c #93755C",
"/  c #96785F",
"(  c #99795E",
")  c #8A7262",
"_  c #937660",
"`  c #967961",
"'  c #9B7C63",
"]  c #947B6B",
"[  c #9B7E69",
"{  c #A07F63",
"}  c #9E8066",
"|  c #9E816A",
" . c #968072",
".. c #9F8572",
"X. c #A28266",
"o. c #A4856A",
"O. c #A8876B",
"+. c #A7886D",
"@. c #AA8A6E",
"#. c #A28672",
"$. c #A68971",
"%. c #AD8D72",
"&. c #A58D7B",
"*. c #AA8E79",
"=. c #B08F72",
"-. c #AF9076",
";. c #A6917F",
":. c #AE917A",
">. c #B29275",
",. c #B4957A",
"<. c #B8977A",
"1. c #B6987E",
"2. c #BA9A7D",
"3. c #C19E7E",
"4. c #A48C80",
"5. c #AE9380",
"6. c #B39781",
"7. c #B69A82",
"8. c #BC9D82",
"9. c #B79D88",
"0. c #B89E89",
"q. c #BEA185",
"w. c #BDA289",
"e. c #B8A090",
"r. c #C09F81",
"t. c #C3A385",
"y. c #C4A68A",
"u. c #C6A88B",
"i. c #CAAB8D",
"p. c #C5AB92",
"a. c #CCAE91",
"s. c #C0AE98",
"d. c #CEB193",
"f. c #CDB39D",
"g. c #D2B495",
"h. c #D5B897",
"j. c #D3B699",
"k. c #D5B99B",
"l. c #D9BD9D",
"z. c #CEB7A0",
"x. c #D2BCA3",
"c. c #D9BEA3",
"v. c #DBC09F",
"b. c #D5C4A6",
"n. c #DCC3A2",
"m. c #DCC6AA",
"M. c #DFC9AB",
"N. c #DDCCB4",
"B. c #DECFBA",
"V. c #E0C8A6",
"C. c #E3CCAB",
"Z. c #E5D3B5",
"A. c #E4D4BA",
"S. c #E8D6BB",
/* pixels */
"                                                                                                                                                                                                                                                                                                                                                                                                                                                                                                                                ",
"                                                                                                                                                                                                                                                                                                                                                                                                                                                                                                                                ",
"                                                                                                                                                                                                                                                                                                                                                                                                                                                                                                                                ",
"                                                                                                                                                                                                                                                                                                                                                                                                                                                                                                                                ",
"                                                                                                                                                                                                                                                                                                                                                                                                                                                                                                                                ",
"                                                                                                                                                                                                                                                                                                                                                                                                                                                                                                                                ",
"                                                                                                                                                                                                                                                                                                                                                                                                                                                                                                                                ",
"                                                                                                                                                                                                                                                                                                                                                                                                                                                                                                                                ",
"                                                                                                                                                                                                                                                                                                                                                                                                                                                                                                                                ",
"                                                                                                                                                                                                                                                                                                                                                                                                                                                                                                                                ",
"                                                                                                                                                                                                                                                                                                                                                                                                                                                                                                                                ",
"                                                                                                                                                                                                                                                                                                                                                                                                                                                                                                                                ",
"                                                                                                                                                                                                                                                                                                                                                                                                                                                                                                                                ",
"                                                                                                                                                                                                                                                                                                                                                                                                                                                                                                                                ",
"                                                                                                                                                                                                                                                                                                                                                                                                                                                                                                                                ",
"                                                                                                                                                                                                                                                                                                                                                                                                                                                                                                                                ",
"                                                                                                                                                                                                                                                                                                                                                                                                                                                                                                                                ",
"                                                                                                                                                                                                                                                                                                                                                                                                                                                                                                                                ",
"                                                                                                                                                                                                                                                                                                                                                                                                                                                                                                                                ",
"                                                                                                                                                                                                                                                                                                                                                                                                                                                                                                                                ",
"                                                                                                                                                                                                                                                                                                                                                                                                                                                                                                                                ",
"                                                                                                                                                                                                                                                                                                                                                                                                                                                                                                                                ",
"                                                                                                                                                                                                                                                                                                                                                                                                                                                                                                                                ",
"                                                                                                                                                                                                                                                                                                                                                                                                                                                                                                                                ",
"                                                                                                                                                                                                                                                                                                                                                                                                                                                                                                                                ",
"                                                                                                                                                                                                                                                                                                                                                                                                                                                                                                                                ",
"                                                                                                                                                                                                                                                                                                                                                                                                                                                                                                                                ",
"                                                                                                                                                                                                                                                                                                                                                                                                                                                                                                                                ",
"                                                                                                                                                                                                                                                                                                                                                                                                                                                                                                                                ",
"                                                                                                                                                                                                                                                                                                                                                                                                                                                                                                                                ",
"                                                                                                                                                                                                                  A.A.A.B.B.                                                                                                                                                                                                                                                                                                    ",
"                                                                                                                                                                                                                  M.C.N.Z.Z.Z.S.S.S.S.Z.B.M.                                                                                                                                                                                                                                                                                    ",
"                                                                                                                                                                                                                h.v.v.v.v.v.v.b.V.V.V.V.C.Z.Z.C.Z.Z.Z.C.C.C.V.                                                                                                                                                                                                                                                                  ",
"                                                                                                                                                                                                                h.v.v.v.v.v.v.v.v.v.v.v.n.v.v.v.v.V.b.v.C.C.V.v.m.n.x.j.f.f.a.                                                                                                                                                                                                                                                  ",
"                                                                                                                                                                                                                b.b.v.v.v.v.h.b.v.v.v.d.v.v.v.v.v.v.v.v.v.v.h.h.g.g.a.a.a.p.a.j.                                                                                                                                                                                                                                                ",
"                                                                                                                                                                                                                h.v.v.v.h.v.b.h.v.v.v.v.v.v.i.v.v.v.v.v.v.v.v.h.g.i.u.y.r.r.r.r.                                                                                                                                                                                                                                                ",
"                                                                                                                                                                                                                h.b.v.d.h.h.h.h.i.i.v.v.v.v.i.v.v.v.i.v.h.h.h.h.g.i.i.i.i.i.u.r.                                                                                                                                                                                                                                                ",
"                                                                                                                                                                                                                b.d.v.i.d.d.i.i.3.v.i.3.i.v.i.v.i.v.v.i.h.h.h.i.i.i.d.d.d.d.a.i.                                                                                                                                                                                                                                                ",
"                                                                                                                                                                                                                h.v.i.i.i.i.u.u.3.v.i.i.i.i.i.v.i.v.i.v.h.h.i.h.a.d.d.d.a.a.a.i.                                                                                                                                                                                                                                                ",
"                                                                                                                                                                                                                s.d.d.u.u.u.u.u.i.3.i.i.i.i.u.i.i.3.v.3.i.h.h.i.d.a.i.i.i.i.i.r.                                                                                                                                                                                                                                                ",
"                                                                                                                                                                                                              b.h.u.i.u.t.t.u.u.3.i.3.v.3.v.3.w.u.i.t.i.i.i.i.i.i.u.r.u.u.u.i.r.                                                                                                                                                                                                                                                ",
"                                                                                                                                                                                                              w.d.u.u.t.2.q.t.t.i.q.3.3.3.w.3.v.u.i.i.t.i.i.t.i.r.u.u.t.u.u.y.9.                                                                                                                                                                                                                                                ",
"                                                                                                                                                                                                              b.i.i.u.t.q.q.3.t.3.w.i.v.3.3.3.i.u.t.t.t.i.t.i.t.u.t.y.u.u.i.i.r.                                                                                                                                                                                                                                                ",
"                                                                                                                                                                                                              w.u.u.u.q.3.q.3.t.3.3.3.w.w.v.3.w.i.t.i.i.i.i.i.i.i.i.i.i.i.i.p.                                                                                                                                                                                                                                                  ",
"                                                                                                                                                                                                              a.u.3.3.q.3.1.1.3.w.3.3.3.3.v.3.3.3.i.u.i.u.i.3.v.a.i.i.i.i.i.i.                                                                                                                                                                                                                                                  ",
"                                                                                                                                                                                                              w.3.2.1.2.2.3.3.3.1.3.3.3.3.w.w.3.u.u.3.i.3.u.3.i.i.a.i.r.u.i.u.                                                                                                                                                                                                                                                  ",
"                                                                                                                                                                                                              q.<.<.<.>.,.1.1.>.1.1.2.2.3.w.3.3.u.3.3.u.i.u.u.u.i.i.i.i.t.u.u.                                                                                                                                                                                                                                                  ",
"                                                                                                                                                                                                              1.=.>.>.=.@.=.>.>.-.>.2.2.2.3.3.3.t.3.i.i.3.u.3.u.t.i.i.r.u.u.u.                                                                                                                                                                                                                                                  ",
"                                                                                                                                                                                                            ;.@.@.%.=.=.O.@.@.=.=.=.>.>.2.2.<.2.3.3.3.3.u.3.u.u.t.i.i.i.t.i.3.                                                                                                                                                                                                                                                  ",
"                                                                                                                                                                                                            ;.%.@.@.@.@.@.@.@.=.=.=.=.-.>.>.<.2.2.<.3.3.3.u.3.u.t.r.t.i.i.i.t.                                                                                                                                                                                                                                                  ",
"                                                                                                                                                                                                            *.@.O.O.O.O.O.@.@.=.=.>.} @.@.@.>.>.<.<.3.3.3.u.3.3.3.t.i.i.u.t.t.                                                                                                                                                                                                                                                  ",
"                                                                                                                                                                                                            $.@.O.O.@.X.O.@.=.=.=.=.>.@.O.O.O.>.>.<.2.2.3.3.3.3.r.r.3.t.t.y.                                                                                                                                                                                                                                                    ",
"                                                                                                                                                                                                            o.} X.O.X.X.X.@.=.=.>.@.@.@.O.O.@.@.=.>.<.<.<.3.3.2.3.3.t.t.t.r.                                                                                                                                                                                                                                                    ",
"                                                                                                                                                                                                            } } X.X.O.X.X.O.O.@.@.O.@.@.@.=.@.@.=.=.>.>.>.2.3.3.2.3.2.3.3.3.                                                                                                                                                                                                                                                    ",
"                                                                                                                                                                                                            ..( X.X.X.X.X.X.O.@.O.O.@.@.@.=.@.@.@.=.=.>.>.<.3.>.<.<.<.2.2.3.                                                                                                                                                                                                                                                    ",
"                                                                                                                                                                                                            o.} } ~ ~ } } X.X.@.@.O.O.@.@.@.O.@.=.=.=.=.>.>.>.>.<.,.<.2.2.2.                                                                                                                                                                                                                                                    ",
"                                                                                                                                                                                                          ) R ~ U U ~ X.X.X.X.O.O.O.O.O.O.X.O.@.@.=.=.=.=.=.=.=.>.<.3.2.2.,.                                                                                                                                                                                                                                                    ",
"                                                                                                                                                                                                          ) T U U U U U U X.X.O.O.O.O.O.O.X.O.O.@.=.=.=.=.=.=.=.=.=.<.2.2.=.                                                                                                                                                                                                                                                    ",
"                                                                                                                                                                                                          ] ~ U U U I U I U ~ X.X.X.X.X.X.O.@.O.O.=.=.=.<.=.=.=.=.=.<.<.<.%.                                                                                                                                                                                                                                                    ",
"                                                                                                                                                                                                          E P R U U I F I I U X.} X.X.X.X.X.O.O.O.@.=.=.=.=.=.=.@.=.=.=.>.                                                                                                                                                                                                                                                      ",
"                                                                                                                                                                                                          V Z G G I U U U U U ~ ( X.} X.X.X.X.O.@.@.@.=.=.=.@.@.@.@.@.O.@.                                                                                                                                                                                                                                                      ",
"                                                                                                                                                                                                          p q a s s c F v I U ~ ( } X.X.X.O.X.O.@.@.@.=.=.@.o.o.O.O.@.O.@.                                                                                                                                                                                                                                                      ",
"                                                                                                                                                                                                                        u i k k c Z I ~ ( X.X.X.O.@.@.=.>.@.X.X.O.X.X.X.o.                                                                                                                                                                                                                                                      ",
"                                                                                                                                                                                                                                = = - , 6 8 h v v I ~ ( o.X.' ' O.X.{ X.[                                                                                                                                                                                                                                                       ",
"                                                                                                                                                                                                                                & O X X O # # $ $ ;     x M M Z D Y W ! Q                                                                                                                                                                                                                                                       ",
"                                                                                                                                                                                                                                < * # # # # # O O $                                                                                                                                                                                                                                                                             ",
"                                                                                                                                                                                                                                e < > > < - - * % 9                                                                                                                                                                                                                                                                             ",
"                                                                                                                                                                                                                                y 9 0 q q q q 6 0 V                                                                                                                                                                                                                                                                             ",
"                                                                                                                                                                                                                                b t s l l l l l l )                                                                                                                                                                                                                                                                             ",
"                                                                                                                                                                                                                                  l C S C C S C J |                                                                                                                                                                                                                                                                             ",
"                                                                                                                                                                                                                                  Z Y T G P Y T W o.                                                                                                                                                                                                                                                                            ",
"                                                                                                                                                                                                                                  D R W T T W ! _ *.                                                                                                                                                                                                                                                                            ",
"                                                                                                                                                                                                                                  T ~ Q R R R ^ [ >.                                                                                                                                                                                                                                                                            ",
"                                                                                                                                                                                                                                  E ` ! ^ W R ^ o.,.                                                                                                                                                                                                                                                                            ",
"                                                                                                                                                                                                                                  G ` W _ _ _ ! [ ,.                                                                                                                                                                                                                                                                            ",
"                                                                                                                                                                                                                                  c R ^ ' [ ' ' ^ $.                                                                                                                                                                                                                                                                            ",
"                                                                                                                                                                                                              e.                4.] #.$.*.*.>.>.%.:.6.                                                                                                                                                                                                                                                                          ",
"                                                                                                                                                                                                            6.7.0.8.8.8.r.r.r.r.8.w.t.t.u.u.i.i.u.i.u.i.u.u.y.y.t.8.8.7.7.5.                                                                                                                                                                                                                                                    ",
"                                                                                                                                                                                                            { { O.o.$.@.=.>.<.<.2.2.3.2.3.3.3.r.t.r.3.r.r.r.t.t.0.7.7.2.7.,.                                                                                                                                                                                                                                                    ",
"                                                                                                                                                                                                            o.o.{ o.@.@.@.=.r.p.y.8.r.3.3.<.3.3.t.3.2.r.8.t.8.r.8.1.1.1.7.7.                                                                                                                                                                                                                                                    ",
"                                                                                                                                                                                                            #.+.o.O.%.=.>.<.f.c.x.k.d.u.q.2.2.2.2.2.2.1.3.3.w.w.8.<.7.<.7.<.                                                                                                                                                                                                                                                    ",
"                                                                                                                                                                                                            $.%.@.@.=.=.<.r.k.c.b.m.m.b.b.d.i.q.2.2.1.2.1.3.1.3.8.8.7.<.<.,.                                                                                                                                                                                                                                                    ",
"                                                                                                                                                                                                            %.>.<.=.=.=.<.a.d.d.j.j.k.v.v.v.v.i.3.3.1.1.3.1.3.3.r.8.7.8.7.7.                                                                                                                                                                                                                                                    ",
"                                                                                                                                                                                                            %.>.=.<.=.=.8.d.a.g.a.p.p.a.a.a.s.3.1.1.3.w.3.w.w.w.8.8.8.<.7.,.                                                                                                                                                                                                                                                    ",
"                                                                                                                                                                                                            $.=.@.=.=.=.i.h.j.g.g.g.p.i.i.a.w.1.,.>.1.3.3.3.3.1.8.8.8.>.>.:.                                                                                                                                                                                                                                                    ",
"                                                                                                                                                                                                            o.+.o.O.O.<.j.l.l.j.g.a.a.a.i.w.2.>.-.-.-.-.1.3.3.3.8.8.8.7.=.*.                                                                                                                                                                                                                                                    ",
"                                                                                                                                                                                                            o.+.o.{ O.y.g.g.j.g.g.g.g.a.v.2.1.>.>.>.-.-.%.1.2.3.r.8.7.7.6.*.                                                                                                                                                                                                                                                    ",
"                                                                                                                                                                                                            %.@.{ { =.g.j.g.a.a.a.a.p.a.w.3.,.>.>.>.%.+.%.1.2.3.r.8.8.r.8.:.                                                                                                                                                                                                                                                    ",
"                                                                                                                                                                                                            o.O.( ( t.g.g.j.g.d.a.a.i.i.r.7.=.>.-.=.@.@.>.2.2.2.8.8.r.r.8.,.                                                                                                                                                                                                                                                    ",
"                                                                                                                                                                                                            ' { ( $.g.g.g.j.k.h.g.g.g.a.0.<.<.=.=.=.@.=.>.1.1.1.8.8.8.r.r.7.                                                                                                                                                                                                                                                    ",
"                                                                                                                                                                                                            [ { ' t.j.j.g.g.h.g.g.g.g.u.8.2.<.=.@.=.=.>.1.<.<.<.7.<.1.2.8.0.                                                                                                                                                                                                                                                    ",
"                                                                                                                                                                                                            / / o.u.d.g.d.a.i.a.a.a.i.r.2.8.1.=.=.>.@.>.<.<.<.<.8.2.8.2.8.0.                                                                                                                                                                                                                                                    ",
"                                                                                                                                                                                                            / ^ 7.i.i.i.i.i.i.i.i.i.y.2.2.1.<.=.>.=.-.>.>.>.>.>.2.3.1.2.8.7.                                                                                                                                                                                                                                                    ",
"                                                                                                                                                                                                            ^ +.g.l.g.a.i.i.i.i.i.u.3.2.2.<.<.>.>.=.>.>.>.>.>.>.<.8.2.2.8.,.                                                                                                                                                                                                                                                    ",
"                                                                                                                                                                                                            _ 8.l.l.g.g.a.u.t.t.t.3.<.2.<.<.>.<.>.>.,.>.>.>.>.-.>.<.2.<.7.,.                                                                                                                                                                                                                                                    ",
"                                                                                                                                                                                                            +.i.a.g.a.a.a.i.u.y.t.1.<.<.<.<.>.>.%.,.<.<.>.>.>.-.>.>.,.<.,.7.                                                                                                                                                                                                                                                    ",
"                                                                                                                                                                                                            8.d.u.a.i.i.i.i.u.y.3.2.2.<.<.>.>.@.=.>.2.>.>.>.,.>.=.>.<.,.<.6.                                                                                                                                                                                                                                                    ",
"                                                                                                                                                                                                            i.d.d.d.g.d.i.u.y.t.2.2.2.<.<.>.>.@.=.>.>.<.>.1.>.,.,.,.,.<.,.,.                                                                                                                                                                                                                                                    ",
"                                                                                                                                                                                                          p.d.a.a.a.d.g.g.i.t.<.2.>.<.<.>.>.@.@.>.2.>.2.>.>.1.>.>.,.<.<.1.7.                                                                                                                                                                                                                                                    ",
"                                                                                                                                                                                                          d.d.i.i.i.q.i.i.u.<.,.2.>.>.>.>.>.=.=.>.>.<.>.1.2.>.2.<.,.,.,.<.,.                                                                                                                                                                                                                                                    ",
"                                                                                                                                                                                                        u.d.a.a.i.i.i.t.<.,.>.,.<.<.<.<.>.=.@.-.>.>.>.>.>.>.>.>.,.,.,.,.,.>.                                                                                                                                                                                                                                                    ",
"                                                                                                                                                                                                        f.d.d.i.a.d.d.i.y.<.<.>.>.<.<.>.=.=.=.@.>.>.>.>.>.>.>.=.=.=.,.>.>.,.                                                                                                                                                                                                                                                    ",
"                                                                                                                                                                                                      p.d.d.i.a.a.a.i.i.d.t.>.>.<.<.>.>.=.=.=.=.>.>.>.>.>.>.=.=.=.=.>.,.>.,.                                                                                                                                                                                                                                                    ",
"                                                                                                                                                                                                      d.d.d.d.d.a.i.i.t.y.<.>.=.>.>.>.=.@.@.=.>.>.>.>.>.>.>.>.=.%.=.=.>.,.,.                                                                                                                                                                                                                                                    ",
"                                                                                                                                                                                                    q.d.d.d.d.a.a.a.a.i.3.<.<.=.=.=.>.=.@.@.-.-.>.>.>.>.>.>.>.>.=.%.>.*.>.:.                                                                                                                                                                                                                                                    ",
"                                                                                                                                                                                                    d.a.a.d.a.i.i.i.i.a.i.<.=.=.=.>.=.@.+.=.-.@.>.>.>.>.>.,.>.@.%.=.=.=.>.,.                                                                                                                                                                                                                                                    ",
"                                                                                                                                                                                                    a.a.a.a.a.a.i.i.3.t.<.=.=.=.=.=.=.O.+.@.-.=.>.>.,.,.>.,.,.@.%.=.=.=.>.:.                                                                                                                                                                                                                                                    ",
"                                                                                                                                                                                                  a.a.a.d.a.a.u.u.3.3.2.=.@.=.O.O.@.@.@.@.@.=.-.%.>.>.>.>.=.>.=.%.%.%.>.=.,.                                                                                                                                                                                                                                                    ",
"                                                                                                                                                                                                  a.i.i.a.i.i.u.3.3.<.@.X.X.X.X.X.X.O.@.+.@.@.-.>.@.>.>.>.>.=.@.$.%.%.@.%.*.                                                                                                                                                                                                                                                    ",
"                                                                                                                                                                                                u.i.i.w.q.u.i.u.3.3.=.O.X.X.X.X.X.X.X.O.@.@.@.-.-.-.>.>.>.>.@.-.%.%.%.=.%.=.                                                                                                                                                                                                                                                    ",
"                                                                                                                                                                                                u.t.t.q.q.q.3.2.3.,.X.X.X.( X.X.} } | @.@.$.@.%.-.-.@.>.%.%.-.@.+.@.%.>.=.*.                                                                                                                                                                                                                                                    ",
"                                                                                                                                                                                              7.q.2.q.q.q.2.1.%.,.-.X.X.X.X.X.X./ o.o.o.+.@.-.%.@.@.@.%.-.@.%.-.%.+.@.=.>.,.                                                                                                                                                                                                                                                    ",
"                                                                                                                                                                                              7.1.2.q.w.2.,.@.} { { { { { { ( ^ ' { o.o.o.+.+.$.O.O.O.+.@.%.%.-.>.%.@.%.>.>.                                                                                                                                                                                                                                                    ",
"                                                                                                                                                                                            :.>.@.-.1.2.1.%.} } ` ( { { ' ` ~ ~ { O.o.o.+.+.+.o.o.o.o.O.+.%.@.%.>.=.%.%.%.>.                                                                                                                                                                                                                                                    ",
"                                                                                                                                                                                            *.$.o.} ! / } } / / ' ` ( ' ( ^ ~ ( o.+.o.o.o.o.+.o.X.o.o.o.O.+.+.@.%.=.=.%.$.=.                                                                                                                                                                                                                                                    ",
"                                                                                                                                                                                            o.X.} ^ ^ ! Q Q Q } { ( ^ ~ ~ ~ ( ' { [ o.o.o.o.o.X.o.X.o.o.o.O.@.@.$.%.%.%.$.=.                                                                                                                                                                                                                                                    ",
"                                                                                                                                                                                          | [ ^ R T Q ` ~ / } [ ' ` ^ ~ R R R / ' ' } } } } o.} X.X.X.X.{ o.o.o.X.o.O.@.@.%.                                                                                                                                                                                                                                                    ",
"                                                                                                                                                                                          ! ` ! J D G T Q ! ' ^ ` ' ( ~ U R ^ ^ ^ / [ } | } } } ' ' ' ( [ o.X.{ { ' X.o.o.+.                                                                                                                                                                                                                                                    ",
"                                                                                                                                                                                        5.9.w.y.9.9.9.7.6.:.;.` W R ~ ~ R R ^ ^ ^ ^ / ' } } [ [ ' ' ( / ( { X.o.' ' ' { o.+.$.                                                                                                                                                                                                                                                  ",
"                                                                                                                                                                                          7.8.2.,.$.+.$.o.o.>.7.$.W P P U R ! ^ ^ / ^ / ( ( X.' ' ' / / ' ' ' ' { X.' [ o.$.$.                                                                                                                                                                                                                                                  ",
"                                                                                                                                                                                          | [ [ X.' ~ / %.,.-.$.%.$.[ ! R W ! ! ^ / / / / ` / / } / / / / ' ' ' ' [ [ } X.o.+.                                                                                                                                                                                                                                                  ",
"                                                                                                                                                                                          ! / ^ / o.' ( @.<.1.$.+.$.$.+._ W ! R ! / / } } / } ^ / / / ^ / ' ' ' ' ( ' ' X.o.$.                                                                                                                                                                                                                                                  ",
"                                                                                                                                                                                            ^ _ / ( X.X.o.@.<.2.%.%.$.@.' R R R R R ! ^ / } / } ' / / / / ( ' [ ' ' ' ' [ o.o.                                                                                                                                                                                                                                                  ",
"                                                                                                                                                                                            W ~ Q ~ [ o.' / o.q.1.=.%.%.{ R U T T R Q ! ^ / / ` } } ' / / ( ` ' ( ` ( / ' o.$.                                                                                                                                                                                                                                                  ",
"                                                                                                                                                                                            J Y Y R Q ~ Q ^ ( <.1.=.%.%.$.R T T T R Q Q ! ! ^ / ^ ` ` ' / ^ / ^ ^ / ' _ ' [ X.                                                                                                                                                                                                                                                  ",
"                                                                                                                                                                                              Z Z G I T T R ^ @.7.>.=.%.@.! T Y R G G R Q Q ! ! ^ ` ' ` / / ^ ! ~ ^ ^ _ ( ' }                                                                                                                                                                                                                                                   ",
"                                                                                                                                                                                              x l s c A P P P ( <.>.>.-.=.^ Y T T G G P I Q ! Q ^ ^ / ^ / ^ ^ ^ ^ ^ Q ^ ` ' [                                                                                                                                                                                                                                                   ",
"                                                                                                                                                                                              s a p a M F G P U >.>.>.=.=.` Y T R T R G G P T R Q Q ^ ^ ^ Q Q Q W ^ ^ Q ~ / '                                                                                                                                                                                                                                                   ",
"                                                                                                                                                                                                a f f x v F F I @.,.,.>.>.} G G Y Y T R T U P P U E ~ ^ ! ! ! Q T R Q R Q ^ _                                                                                                                                                                                                                                                   ",
"                                                                                                                                                                                                x Z c x v v v F } 1.1.1.2.| F F P P P P E R W T T R R ~ ^ ~ ~ R W R R R R ! ~                                                                                                                                                                                                                                                   ",
"                                                                                                                                                                                                N G G G F A Z F } >.2.q.<.%.G F D D P S P U T R R R R W W W R ! R W ! R R R W                                                                                                                                                                                                                                                   ",
"                                                                                                                                                                                                  f l C G F A F R <.q.3.2.>.K F D Z S Z P P P U T T R R ~ ^ W R R R R R R T W W                                                                                                                                                                                                                                                 ",
"                                                                                                                                                                                                  p 9 p x G G G P =.t.3.q.2.W v C Z C Z C P P P U Y T T T W ~ R T T R T T T R W                                                                                                                                                                                                                                                 ",
"                                                                                                                                                                                                  p 9 p g F F G F } q.q.q.u.} x C C C C k M M C P P Y T T T E R T T T T T T R )                                                                                                                                                                                                                                                 ",
"                                                                                                                                                                                                    u 9 f C F F F ~ 2.3.w.q.| c C k C C C k k C C P P P P Y T E R T T Y T T T W                                                                                                                                                                                                                                                 ",
"                                                                                                                                                                                                    3 u p x G F F T >.3.q.w.$.Z C M M M C C M M C Z Z S D P P P T T Y Y P D P Y                                                                                                                                                                                                                                                 ",
"                                                                                                                                                                                                      q p f F G P I O.q.q.q.,.G M k z M k C C z M C C C Z P P P Y Y P P D S A D                                                                                                                                                                                                                                                 ",
"                                                                                                                                                                                                      r q u a Z Q U } 2.q.q.2.G C M z z z M M C C C C M z z C Z M M n h g a p f                                                                                                                                                                                                                                                 ",
"                                                                                                                                                                                                      q 0 6 q x ! Q / 2.t.w.q.G j n j i j C z Y [ [ ` P n C Z C p                                                                                                                                                                                                                                                               ",
"                                                                                                                                                                                                        2 9 q a G Q ! ,.3.q.q.V % ; : : h z j R [ *.[ [ { [ [ [ E                                                                                                                                                                                                                                                               ",
"                                                                                                                                                                                                        2 7 q p C R P +.8.r.r.Y . % : : w i h T $.$.$.%.$.@.$.$.)                                                                                                                                                                                                                                                               ",
"                                                                                                                                                                                                        2 7 9 u x G F / 8.8.y.] X - 4 8 w i w P $.$.*.[ $.@.%.-.]                                                                                                                                                                                                                                                               ",
"                                                                                                                                                                                                          9 9 q c G Z R 7.r.r.&.@ @ : 8 i i j Y $.-.%.$.*.=.>.:.#.]                                                                                                                                                                                                                                                             ",
"                                                                                                                                                                                                          9 9 q z F v R ,.8.r.,.5 X - 5 h k M P *.*.=.*.-.,.,.1.&.&.                                                                                                                                                                                                                                                            ",
"                                                                                                                                                                                                            6 9 l A v F +.3.w.w.d . @ , u j c P *.,.-.,.1.,.1.8.5.:.                                                                                                                                                                                                                                                            ",
"                                                                                                                                                                                                            2 9 s G v F } 2.w.u.N + + , 8 u k G %.:.,.1.8.7.7.2.6.6.7.                                                                                                                                                                                                                                                          ",
"                                                                                                                                                                                                            0 q p G F Z ^ 2.q.u.K = # > 8 w j F $.:.:.2.8.8.8.8.,.7.0.                                                                                                                                                                                                                                                          ",
"                                                                                                                                                                                                              9 q Z G F Q 1.q.w.` < = ; u u j Z $.,.,.q.r.8.2.7.,.7.t.                                                                                                                                                                                                                                                          ",
"                                                                                                                                                                                                              9 2 s G F P @.2.q.| 0 < < w a x A o.-.>.8.w.q.2.,.7.7.t.0.                                                                                                                                                                                                                                                        ",
"                                                                                                                                                                                                                1 9 c F F } 1.,...d 3 9 w a j v o.,.%.,.q.q.7.,.,.8.t.y.                                                                                                                                                                                                                                                        ",
"                                                                                                                                                                                                                1 1 u z l T -.-.*.n 9 q 8 w i v | ,.,.,.8.7.1.2.1.7.w.p.                                                                                                                                                                                                                                                        ",
"                                                                                                                                                                                                                1 > 2 6 6 c +.-.:.S d d 8 w a Z } ,.<.,.8.1.1.1.1.9.t.y.                                                                                                                                                                                                                                                        ",
"                                                                                                                                                                                                                  > , 7 8 j } :.,.L n y q w a C ' =.=.,.1.7.,.7.,.r.y.p.e.                                                                                                                                                                                                                                                      ",
"                                                                                                                                                                                                                  = > w i k ! -.6.) n r q 7 w k ^ >.=.>.>.7.,.>.7.8.y.p.p.                                                                                                                                                                                                                                                      ",
"                                                                                                                                                                                                                    ; 2 u k R $.6.] n 9 5 7 w j ~ =.,.>.<.1.,.,.,.0.t.y.p.                                                                                                                                                                                                                                                      ",
"                                                                                                                                                                                                                    = ; 7 a G $.*.#.b 5 0 w w j R =.>.>.,.<.,.,.,.6.w.y.p.y.                                                                                                                                                                                                                                                    ",
"                                                                                                                                                                                                                    = % > 8 j } -.#.n 0 w w w k R =.=.=.>.,.1.,.,.7.w.u.u.e.                                                                                                                                                                                                                                                    ",
"                                                                                                                                                                                                                      * % : 8 Y #.[ n y t w w h I @.=.=.>.,.<.,.1.1.1.q.y.p.                                                                                                                                                                                                                                                    ",
"                                                                                                                                                                                                                      % $ & = 9 V B l t t t w j I @.=.>.>.<.1.7.,.7.7.q.u.y.w.                                                                                                                                                                                                                                                  ",
"                                                                                                                                                                                                                        O + $ & < f l p t w w h P $.%.>.,.1.8.,.,.1.8.w.w.u.w.                                                                                                                                                                                                                                                  ",
"                                                                                                                                                                                                                                  m g d p p u j P { =.=.>.r.8.7.6.7.q.8.w.i.w.                                                                                                                                                                                                                                                  ",
"                                                                                                                                                                                                                                  n g a p p u h P O.=.=.,.1.r.7.,.7.7.q.w.w.u.                                                                                                                                                                                                                                                  ",
"                                                                                                                                                                                                                                  m n d t a w j A { @.=.=.1.7.8.7.1.<.7.q.u.w.w.                                                                                                                                                                                                                                                ",
"                                                                                                                                                                                                                                  M l f p a t j Z { =.=.=.7.8.8.w.,.>.1.w.w.u.w.                                                                                                                                                                                                                                                ",
"                                                                                                                                                                                                                                  m n g t w a a v { =.=.>.,.1.8.7.1.-.<.w.w.u.q.                                                                                                                                                                                                                                                ",
"                                                                                                                                                                                                                                  N n g t a a h v { =.=.,.,.,.2.7.,.,.,.7.w.w.q.6.                                                                                                                                                                                                                                              ",
"                                                                                                                                                                                                                                  N m l a a w h c ( %.%.>.,.1.7.8.1.>.-.1.w.w.1.,.                                                                                                                                                                                                                                              ",
"                                                                                                                                                                                                                                  M m l p a t j c / %.$.%.,.,.8.8.7.,.-.<.w.q.1.1.                                                                                                                                                                                                                                              ",
"                                                                                                                                                                                                                                    M f t j t h k ^ @.=.=.,.7.7.8.7.>.>.,.q.y.9.,.6.                                                                                                                                                                                                                                            ",
"                                                                                                                                                                                                                                    m g t t a h z ^ @.@.%.6.7.1.1.1.,.-.-.7.w.q.1.6.                                                                                                                                                                                                                                            ",
"                                                                                                                                                                                                                                    B n a a t h k ~ @.@.%.,.1.7.8.7.-.>.-.1.w.w.8.8.                                                                                                                                                                                                                                            ",
"                                                                                                                                                                                                                                    D M a a h i h ~ @.@.=.,.<.<.8.1.%.-.-.,.8.y.8.9.                                                                                                                                                                                                                                            ",
"                                                                                                                                                                                                                                    H M f a a h k T O.%.-.>.<.7.8.,.o.%.-.:.,.2.8.7.7.                                                                                                                                                                                                                                          ",
"                                                                                                                                                                                                                                    V n f a a a j P O.%.%.:.>.7.8.<.| o.%.%.-.;.7.8.8.                                                                                                                                                                                                                                          ",
"                                                                                                                                                                                                                                    N n f s s a h P O.@.%.%.,.8.q.,.| ^ X.o.*.>.,.8.9.                                                                                                                                                                                                                                          ",
"                                                                                                                                                                                                                                    B n g l s a h P O.@.%.%.:.7.8.,.| ! } | %.-.,.9.8.7.                                                                                                                                                                                                                                        ",
"                                                                                                                                                                                                                                    N n f l j s j G +.@.-.-.-.,.8.,.[ Q [ | o.%.;.1.q.1.                                                                                                                                                                                                                                        ",
"                                                                                                                                                                                                                                    N g f x c k k F @.-.@.-.-.,.1.<.' Y / o.| +.-.,.w.w.                                                                                                                                                                                                                                        ",
"                                                                                                                                                                                                                                    N l g g x j s Z o.-.-.-.,.-.1.2.| G ^ | | $.-.:.w.w.9.                                                                                                                                                                                                                                      ",
"                                                                                                                                                                                                                                    m g g g s j k Z o.@.-.-.-.-.,.1.o.A ! | | $.-.-.:.w.w.                                                                                                                                                                                                                                      ",
"                                                                                                                                                                                                                                    b g f p f x x Z X.-.>.-.-.>.,.2.o.M J ` | | -.:.,.1.w.                                                                                                                                                                                                                                      ",
"                                                                                                                                                                                                                                    g g d p a g x Z } -.-.>.-.>.>.,.+.l G Q [ o.:.:.,.6.w.                                                                                                                                                                                                                                      ",
"                                                                                                                                                                                                                                    g g f a d a s M ' -.-.-.@.-.>.,.o.l Z E [ | -.-.,.6.7.w.                                                                                                                                                                                                                                    ",
"                                                                                                                                                                                                                                    g f a p p a u j _ -.-.-.-.-.-.>.+.l z Y ` | *.:.:.,.,.6.                                                                                                                                                                                                                                    ",
"                                                                                                                                                                                                                                      g f a a p u a ! @.*.%.-.-.-.>.+.l a Z ^ [ $.-.,.1.7.6.6.                                                                                                                                                                                                                                  ",
"                                                                                                                                                                                                                                      g d d p p a a T *.%.-.@.-.%.>.$.c w z E ' [ $.:.,.,.6.6.                                                                                                                                                                                                                                  ",
"                                                                                                                                                                                                                                      f p q q p p a T $.+.%.-.-.=.>.@.c i j Y _ | +.:.,.6.6.6.                                                                                                                                                                                                                                  ",
"                                                                                                                                                                                                                                      r 9 9 q q a j G o.+.+.$.-.=.>.$.l q j D ! o.$.:.:.,.,.6.5.                                                                                                                                                                                                                                ",
"                                                                                                                                                                                                                                      3 < 3 0 r t a D o.o.$.$.=.%.>.%.l , w c W | *.-.,.:.,.,.5.                                                                                                                                                                                                                                ",
"                                                                                                                                                                                                                                      r p r 9 9 w w C [ o.o.+.%.%.%.$.l : 6 w G } +.*.>.,.:.,.5.                                                                                                                                                                                                                                ",
"                                                                                                                                                                                                                                      f d r q 9 7 q j _ o.o.O.$.$.@.@.n - 1 6 c ! X.o.$.;.-.*.*.                                                                                                                                                                                                                                ",
"                                                                                                                                                                                                                                      f t r p q q q s W ' ' o.+.@.%.%.z % : 4 i J ^ ^ / } X.o.+.|                                                                                                                                                                                                                               ",
"                                                                                                                                                                                                                                      d t r r 5 0 0 t R ` ( ' { [ =.{ n * - : 0 Z T R R ^ ] { [ |                                                                                                                                                                                                                               ",
"                                                                                                                                                                                                                                      d t 0 6 < 5 0 w P ~ ' ` ` { =.{ C ; - - 4 C P ^ / / { [ { [                                                                                                                                                                                                                               ",
"                                                                                                                                                                                                                                      r 0 9 3 3 1 5 w P R ! ^ ` { { { B : : : 4 j P / { ` { ` { [                                                                                                                                                                                                                               ",
"                                                                                                                                                                                                                                      r r r r r 5 1 w A P T U ! _ { ' B : : , 4 a Z U ~ ^ ^ ` ` [                                                                                                                                                                                                                               ",
"                                                                                                                                                                                                                                      l n m n s w t n P Y T T T ! / { Z 6 6 6 8 h Z I R ` ` ' [ `                                                                                                                                                                                                                               ",
"                                                                                                                                                                                                                                      N H S M M S P Y ' ` _ _ ' ! ^ / D 7 6 7 8 n P ~ ~ { { ' { `                                                                                                                                                                                                                               ",
"                                                                                                                                                                                                                                      H H S S D D Y ] { { #.{ o.{ ` / P w 8 w i n P ^ ^ { [ [ { '                                                                                                                                                                                                                               ",
"                                                                                                                                                                                                                                      L S C D Y P Y ` [ [ { [ [ [ [ { Y i w w i v P ^ ^ { { { { '                                                                                                                                                                                                                               ",
"                                                                                                                                                                                                                                      J S M S P G K W } } ! | ..$.$.$.C t h w h v P U ~ ( { { ` )                                                                                                                                                                                                                               ",
"                                                                                                                                                                                                                                    J J D S G Y G K ! ! ! } } | [ $.` t y w w h v P U ~ ` ' ` {                                                                                                                                                                                                                                 ",
"                                                                                                                                                                                                                                    K K H G J Y T R } ! ! } ! | [ [ Y h w w w i v P U ~ ( { ( `                                                                                                                                                                                                                                 ",
"                                                                                                                                                                                                                                    ! T D J D P K } ^ ^ ^ } } } [ { M y w w w h v P U ~ ( ~ ^ '                                                                                                                                                                                                                                 ",
"                                                                                                                                                                                                                                    ! E K G G T ^ } ^ }  .} } } { W a t w w w h Z P U ~ ^ ^ / '                                                                                                                                                                                                                                 ",
"                                                                                                                                                                                                                                  W W E T G F G ^ } } } } } } } [ S t t w h h h v P U ~ ( / / ^                                                                                                                                                                                                                                 ",
"                                                                                                                                                                                                                                  W ! E K G F G ! } ^ } } !  .} ] M f f a h h j v I ~ ~ ~ ( / !                                                                                                                                                                                                                                 ",
"                                                                                                                                                                                                                                  ! W R T U K K }  .^ ! ! } ^ } ) l h a p a h k P U ~ ~ ^ ( ' ^                                                                                                                                                                                                                                 ",
"                                                                                                                                                                                                                                  ! W T T T Y Q ^ ^ ! ^ ^ ^ ^ }   g p p w w i k F T ~ ~ ( { { ^                                                                                                                                                                                                                                 ",
"                                                                                                                                                                                                                                E W T T T Y Y ! ! Q Q ! ! ! ^ }   l p w q 8 u x F R ~ ~ ( ( /                                                                                                                                                                                                                                   ",
"                                                                                                                                                                                                                                E W T T T Y T ^ ! ! ! Q ! ! ^     c l p a a h c P R ~ ~ ^ } /                                                                                                                                                                                                                                   ",
"                                                                                                                                                                                                                                W W W W R W ^ ! Q Q Q ~ Q ! !     l l f s h h v P U ~ ~ ( o.[                                                                                                                                                                                                                                   ",
"                                                                                                                                                                                                                                ! ! W W T W ~ ! Q ~ ~ ^ ^ ^ !     l s a p a a c I U ~ ^ ^ ` `                                                                                                                                                                                                                                   ",
"                                                                                                                                                                                                                                ^ W Q W W ^ ! Q Q ! ! Q ^ /       f f l l p i c P U Q ~ ~ Q ^                                                                                                                                                                                                                                   ",
"                                                                                                                                                                                                                              ! ) ~ _ W Q ^ Q Q Q Q ! ! ^ W       f l l l s a c P U Q ~ ^ / `                                                                                                                                                                                                                                   ",
"                                                                                                                                                                                                                              ) _ _ ! ! ^ ) Q Q Q ! ! ! /         l l f s l a v P ~ ~ ^ / ' _                                                                                                                                                                                                                                   ",
"                                                                                                                                                                                                                              _ _ _ ^ ! } ! R ! R Q ! ! ^         g l g s l x c P ~ ~ ( / / !                                                                                                                                                                                                                                   ",
"                                                                                                                                                                                                                              ` _ ) _ ! ! ! W R Q Q Q ^ W         l l f p s s v P U Q ( ' /                                                                                                                                                                                                                                     ",
"                                                                                                                                                                                                                            ) ) ! ^ ! ) ! ! R Q W W ^ ^           x x f p s s Z I ~ ~ ( ` `                                                                                                                                                                                                                                     ",
"                                                                                                                                                                                                                            ` _ _ ) ! Q Q R Q R W ! ^ !           g l f p s s Z P R ~ ^ ` '                                                                                                                                                                                                                                     ",
"                                                                                                                                                                                                                            ` ` _ ! ! ! ! W Q Q R ! ^             x x a p a a Z P Q ! _ ` ^                                                                                                                                                                                                                                     ",
"                                                                                                                                                                                                                            _ ^ ) _ ) ! W R R W Q ^ ^             x x a p a a F P Q ! } } `                                                                                                                                                                                                                                     ",
"                                                                                                                                                                                                                            _ ) ^ ! ! W R R W R ! ! W             x x p a p i A P U Q ' } `                                                                                                                                                                                                                                     ",
"                                                                                                                                                                                                                          ! ) ! ! W W W R R R R ! Q               m x d a i i A P R ! } } _                                                                                                                                                                                                                                     ",
"                                                                                                                                                                                                                          W _ ! W E W Q R R T R ^ Q               m l a a a a A I U ! } ^ _                                                                                                                                                                                                                                     ",
"                                                                                                                                                                                                                          ^ ) ! W W R R T R R R Q                 l l d a p a A I ! ^ } `                                                                                                                                                                                                                                       ",
"                                                                                                                                                                                                                          _ ! E E W R T R R R R W                 z l d p q a A G ! ^ } }                                                                                                                                                                                                                                       ",
"                                                                                                                                                                                                                        W W Y R K R T R R T R T T                   l r q 7 p A I ! ^ ` /                                                                                                                                                                                                                                       ",
"                                                                                                                                                                                                                        T E K J K R T U T T I Y                     f q 8 8 s F R Q ^ } `                                                                                                                                                                                                                                       ",
"                                                                                                                                                                                                                        E T T Y G U U T T T I P                     f q q 8 s Z P ! _ ` ^                                                                                                                                                                                                                                       ",
"                                                                                                                                                                                                                        T Y T Y R R T T T I T Y                     f u 8 q j F I Q ` ` _                                                                                                                                                                                                                                       ",
"                                                                                                                                                                                                                      T T T G G W R U T I P P                       a u q q j Z P ! ` ' )                                                                                                                                                                                                                                       ",
"                                                                                                                                                                                                                      Y T T P G G K I P P I F                       p 9 7 9 k Z I Q ! !                                                                                                                                                                                                                                         ",
"                                                                                                                                                                                                                      T Y G G P G I P P P P                         q 6 8 8 j C G P P J                                                                                                                                                                                                                                         ",
"                                                                                                                                                                                                                      T Y G G P G P I I I F                         6 2 9 q k A G F G Y                                                                                                                                                                                                                                         ",
"                                                                                                                                                                                                                      Y P G G P P F P P F G                         9 7 7 9 l c A F P T                                                                                                                                                                                                                                         ",
"                                                                                                                                                                                                                    P Y P P P P P F P P G                           0 9 9 7 x v F G T T                                                                                                                                                                                                                                         ",
"                                                                                                                                                                                                                    G Y F P U P P P P P F                           0 6 6 7 j C G G G F                                                                                                                                                                                                                                         ",
"                                                                                                                                                                                                                    G G A P P F A F P F                             9 6 4 7 h c A C F F                                                                                                                                                                                                                                         ",
"                                                                                                                                                                                                                    G A Z P P v F F F F                             1 1 , 6 s k c v Z Z                                                                                                                                                                                                                                         ",
"                                                                                                                                                                                                                  D G Z M v Z v P P P A                             1 > ; 4 h z Z Z D                                                                                                                                                                                                                                           ",
"                                                                                                                                                                                                                  G Z M l a v v v v A                               5 1 : 6 a z C Z A                                                                                                                                                                                                                                           ",
"                                                                                                                                                                                                                  S M c h i v v j k C                               5 5 : 6 a j c Z Z                                                                                                                                                                                                                                           ",
"                                                                                                                                                                                                                  M z z i h h h k v                                 5 1 , 7 t j v Z Z                                                                                                                                                                                                                                           ",
"                                                                                                                                                                                                                  n k t i k h i h z                                 5 < , 8 w k z z c                                                                                                                                                                                                                                           ",
"                                                                                                                                                                                                                g j t q i h h h h h                                 5 1 : 6 w h j j l                                                                                                                                                                                                                                           ",
"                                                                                                                                                                                                                f f h h h h h h j                                   5 < ; 5 w a a s l                                                                                                                                                                                                                                           ",
"                                                                                                                                                                                                                f a t k h h i h a                                   1 ; ; 5 q w w j s                                                                                                                                                                                                                                           ",
"                                                                                                                                                                                                                5 9 9 w a t i j                                     = & * 1 6 w u a                                                                                                                                                                                                                                             ",
"                                                                                                                                                                                                                O O $ 5 8 8 w t                                     $ O # > 1 7 q 9                                                                                                                                                                                                                                             ",
"                                                                                                                                                                                                                  o o & : 5 7 7                                     o O O $ * & = =                                                                                                                                                                                                                                             ",
"                                                                                                                                                                                                                        X $ -                                                                                                                                                                                                                                                                                                   ",
"                                                                                                                                                                                                                                                                                                                                                                                                                                                                                                                                ",
"                                                                                                                                                                                                                                                                                                                                                                                                                                                                                                                                ",
"                                                                                                                                                                                                                                                                                                                                                                                                                                                                                                                                ",
"                                                                                                                                                                                                                                                                                                                                                                                                                                                                                                                                "
};
