/* XPM */
static char *out[] = {
/* columns rows colors chars-per-pixel */
"256 256 148 2 ",
"   c None",
".  c #120C07",
"X  c #160E09",
"o  c #1B130E",
"O  c #141210",
"+  c #1D1511",
"@  c #1F1818",
"#  c #21160F",
"$  c #201612",
"%  c #241A14",
"&  c #291D15",
"*  c #271E18",
"=  c #291E19",
"-  c #2E2119",
";  c #34251C",
":  c #38271B",
">  c #36291F",
",  c #3B2A1E",
"<  c #372921",
"1  c #3C2C22",
"2  c #372C29",
"3  c #3F3027",
"4  c #412E22",
"5  c #443225",
"6  c #493526",
"7  c #45342A",
"8  c #493629",
"9  c #4D392C",
"0  c #533D2D",
"q  c #4E3C31",
"w  c #533E31",
"e  c #593F30",
"r  c #57402F",
"t  c #59412F",
"y  c #4E4238",
"u  c #564132",
"i  c #5B4433",
"p  c #5E4837",
"a  c #574438",
"s  c #5A4639",
"d  c #5E493B",
"f  c #614733",
"g  c #634936",
"h  c #694E37",
"j  c #604738",
"k  c #644C3B",
"l  c #694E3A",
"z  c #67503E",
"x  c #6C523D",
"c  c #71553E",
"v  c #5F4D40",
"b  c #5D5044",
"n  c #654F40",
"m  c #665143",
"M  c #6D5442",
"N  c #6C5649",
"B  c #6E594A",
"V  c #715642",
"C  c #755A44",
"Z  c #7A5D46",
"A  c #735B49",
"S  c #7A5F49",
"D  c #755F51",
"F  c #7E6047",
"G  c #7D614B",
"H  c #7C6352",
"J  c #806147",
"K  c #82654D",
"L  c #87684E",
"P  c #88694F",
"I  c #826650",
"U  c #866953",
"Y  c #8A6D55",
"T  c #856C5B",
"R  c #8A6F59",
"E  c #8E7057",
"W  c #8D715A",
"Q  c #917156",
"!  c #93755C",
"~  c #96785F",
"^  c #99795E",
"/  c #8C7361",
"(  c #8E766B",
")  c #8D7A6C",
"_  c #927661",
"`  c #957962",
"'  c #9B7C63",
"]  c #947C6B",
"[  c #9B7F69",
"{  c #A07F63",
"}  c #9E8066",
"|  c #9D816A",
" . c #968072",
".. c #9D8374",
"X. c #A28266",
"o. c #A4856A",
"O. c #A8876A",
"+. c #A6886E",
"@. c #AA8A6D",
"#. c #A38772",
"$. c #A68972",
"%. c #AD8D72",
"&. c #A68C7A",
"*. c #B08F72",
"=. c #AF9075",
"-. c #AE917A",
";. c #B29275",
":. c #B4957A",
">. c #B89779",
",. c #B6987E",
"<. c #BA9A7D",
"1. c #C19E7E",
"2. c #AD9581",
"3. c #B39780",
"4. c #B59982",
"5. c #BB9D82",
"6. c #B99F8A",
"7. c #BEA185",
"8. c #B7A089",
"9. c #BDA28A",
"0. c #C09F81",
"q. c #C3A385",
"w. c #C9A787",
"e. c #C4A68A",
"r. c #C6A88B",
"t. c #CAAB8C",
"y. c #C6AB92",
"u. c #CCAE91",
"i. c #CEB193",
"p. c #CDB49B",
"a. c #D1B495",
"s. c #D4B897",
"d. c #D3B699",
"f. c #D6BA9A",
"g. c #D9BE9D",
"h. c #CCB5A1",
"j. c #D4BBA0",
"k. c #D9BEA1",
"l. c #DBC09F",
"z. c #DCC3A3",
"x. c #DFC7A8",
"c. c #DBC8AB",
"v. c #DBCCB4",
"b. c #DECFBA",
"n. c #E0C8A7",
"m. c #E2CCAB",
"M. c #E4D3B5",
"N. c #E5D5BB",
/* pixels */
"                                                                                                                                                                                                                                                                                                                                                                                                                                                                                                                                ",
"                                                                                                                                                                                                                                                                                                                                                                                                                                                                                                                                ",
"                                                                                                                                                                                                                                                                                                                                                                                                                                                                                                                                ",
"                                                                                                                                                                                                                                                                                                                                                                                                                                                                                                                                ",
"                                                                                                                                                                                                                                                                                                                                                                                                                                                                                                                                ",
"                                                                                                                                                                                                                                                                                                                                                                                                                                                                                                                                ",
"                                                                                                                                                                                                                                                                                                                                                                                                                                                                                                                                ",
"                                                                                                                                                                                                                                                                                                                                                                                                                                                                                                                                ",
"                                                                                                                                                                                                                                                                                                                                                                                                                                                                                                                                ",
"                                                                                                                                                                                                                                                                                                                                                                                                                                                                                                                                ",
"                                                                                                                                                                                                                                                                                                                                                                                                                                                                                                                                ",
"                                                                                                                                                                                                                                                                                                                                                                                                                                                                                                                                ",
"                                                                                                                                                                                                                                                                                                                                                                                                                                                                                                                                ",
"                                                                                                                                                                                                                                                                                                                                                                                                                                                                                                                                ",
"                                                                                                                                                                                                                                                                                                                                                                                                                                                                                                                                ",
"                                                                                                                                                                                                                                                                                                                                                                                                                                                                                                                                ",
"                                                                                                                                                                                                                                                                                                                                                                                                                                                                                                                                ",
"                                                                                                                                                                                                                                                                                                                                                                                                                                                                                                                                ",
"                                                                                                                                                                                                                                                                                                                                                                                                                                                                                                                                ",
"                                                                                                                                                                                                                                                                                                                                                                                                                                                                                                                                ",
"                                                                                                                                                                                                                                                                                                                                                                                                                                                                                                                                ",
"                                                                                                                                                                                                                                                                                                                                                                                                                                                                                                                                ",
"                                                                                                                                                                                                                                                                                                                                                                                                                                                                                                                                ",
"                                                                                                                                                                                                                                                                                                                                                                                                                                                                                                                                ",
"                                                                                                                                                                                                                                                                                                                                                                                                                                                                                                                                ",
"                                                                                                                                                                                                                                                                                                                                                                                                                                                                                                                                ",
"                                                                                                                                                                                                                                                                                                                                                                                                                                                                                                                                ",
"                                                                                                                                                                                                                                                                                                                                                                                                                                                                                                                                ",
"                                                                                                                                                                                                                                                                                                                                                                                                                                                                                                                                ",
"                                                                                                                                                                                                                                                                                                                                                                                                                                                                                                                                ",
"                                                                                                                                                                                                                                                                                                                                                                                                                                                                                                                                ",
"                                                                                                                                                                                                                  N.N.N.N.N.b.b.b.                                                                                                                                                                                                                                                                                              ",
"                                                                                                                                                                                                                s.n.n.n.m.m.M.M.M.M.M.v.M.M.M.M.M.M.v.c.c.n.                                                                                                                                                                                                                                                                    ",
"                                                                                                                                                                                                                p.l.l.l.l.l.l.l.l.l.l.l.n.n.n.l.c.m.m.n.m.M.M.l.x.z.k.j.j.h.d.h.                                                                                                                                                                                                                                                ",
"                                                                                                                                                                                                                p.l.l.l.l.l.l.l.l.l.l.l.l.l.l.l.l.l.l.l.l.l.s.s.a.i.y.t.y.0.t.u.                                                                                                                                                                                                                                                ",
"                                                                                                                                                                                                                s.l.l.s.l.l.l.s.l.l.l.l.l.l.t.l.l.l.l.l.l.l.l.l.d.u.t.e.e.0.0.0.                                                                                                                                                                                                                                                ",
"                                                                                                                                                                                                                h.l.s.l.s.s.s.s.l.i.l.l.l.l.l.l.l.l.t.l.l.s.l.s.i.u.t.t.t.a.u.0.                                                                                                                                                                                                                                                ",
"                                                                                                                                                                                                                s.s.s.s.s.s.s.s.t.l.t.t.t.l.t.l.t.l.l.i.s.s.s.t.u.u.i.a.t.a.i.u.                                                                                                                                                                                                                                                ",
"                                                                                                                                                                                                                s.s.p.y.i.t.t.t.t.1.t.t.l.1.t.l.t.l.t.l.s.s.s.t.u.u.a.a.i.i.t.w.                                                                                                                                                                                                                                                ",
"                                                                                                                                                                                                                p.s.s.y.t.t.t.r.t.l.1.t.t.t.t.t.t.t.l.1.t.s.i.i.u.u.w.t.w.t.t.w.                                                                                                                                                                                                                                                ",
"                                                                                                                                                                                                                s.y.y.r.r.r.q.r.t.1.l.1.t.1.1.l.r.t.t.t.t.i.t.t.r.t.e.w.e.t.r.e.                                                                                                                                                                                                                                                ",
"                                                                                                                                                                                                                i.t.r.r.q.7.q.q.9.t.1.1.9.l.9.1.r.r.w.w.r.w.t.q.q.q.e.w.e.r.t.7.                                                                                                                                                                                                                                                ",
"                                                                                                                                                                                                                i.r.q.q.<.<.1.q.1.t.9.1.1.l.t.t.w.q.w.w.t.w.w.w.r.w.r.w.r.t.t.e.                                                                                                                                                                                                                                                ",
"                                                                                                                                                                                                              y.r.r.r.1.7.7.q.q.1.1.1.l.1.1.t.1.r.w.w.t.t.t.t.i.t.r.r.t.t.t.y.e.                                                                                                                                                                                                                                                ",
"                                                                                                                                                                                                              9.r.q.q.q.1.<.<.1.r.8.1.r.1.r.1.t.w.w.q.r.w.t.t.t.i.t.w.w.t.t.t.9.                                                                                                                                                                                                                                                ",
"                                                                                                                                                                                                              9.q.7.7.7.1.<.,.1.<.1.1.1.1.r.1.r.w.q.w.q.r.q.w.w.u.u.u.w.w.t.t.                                                                                                                                                                                                                                                  ",
"                                                                                                                                                                                                              9.7.<.<.,.,.1.1.,.<.<.<.<.1.1.1.r.q.w.q.w.w.r.r.r.t.t.t.w.e.w.t.                                                                                                                                                                                                                                                  ",
"                                                                                                                                                                                                              8.<.<.;.=.=.,.,.:.;.:.,.<.,.<.1.1.1.q.w.q.w.q.r.r.r.w.r.r.e.t.r.                                                                                                                                                                                                                                                  ",
"                                                                                                                                                                                                              -.*.*.;.*.@.*.*.*.*.*.;.;.>.>.>.1.1.1.1.1.r.q.q.r.w.w.w.r.t.t.r.                                                                                                                                                                                                                                                  ",
"                                                                                                                                                                                                              &.@.@.@.*.@.O.O.*.*.*.;.;.;.>.>.>.>.1.1.1.q.q.q.q.q.q.w.r.r.w.t.                                                                                                                                                                                                                                                  ",
"                                                                                                                                                                                                              &.o.@.@.@.O.O.*.@.*.*.@.@.*.*.;.>.>.<.<.<.1.r.1.1.q.q.q.r.e.e.e.                                                                                                                                                                                                                                                  ",
"                                                                                                                                                                                                              =.@.O.O.o.O.O.@.*.*.*.;.O.@.@.O.*.;.>.<.<.1.q.1.1.0.0.0.q.w.w.q.                                                                                                                                                                                                                                                  ",
"                                                                                                                                                                                                              +.O.O.O.X.X.O.*.*.;.%.%.*.@.O.O.@.=.;.>.>.>.>.1.1.<.q.1.q.q.q.<.                                                                                                                                                                                                                                                  ",
"                                                                                                                                                                                                              } X.X.O.X.X.X.O.O.%.;.@.@.@.@.@.@.@.%.;.;.>.>.1.1.<.1.<.1.5.1.5.                                                                                                                                                                                                                                                  ",
"                                                                                                                                                                                                              } X.X.X.X.X.X.O.O.@.O.O.@.@.%.@.%.%.@.;.;.;.;.1.1.>.>.>.>.1.<.<.                                                                                                                                                                                                                                                  ",
"                                                                                                                                                                                                              } Q } } X.X.} } O.@.o.@.@.@.@.@.@.@.%.;.;.;.;.*.;.>.>.<.>.<.<.,.                                                                                                                                                                                                                                                  ",
"                                                                                                                                                                                                            ) ' Q } Q X.X.X.X.X.@.@.O.O.O.O.O.@.*.@.*.*.;.;.*.*.*.>.>.<.1.<.:.                                                                                                                                                                                                                                                  ",
"                                                                                                                                                                                                            T W Q P P Q Q X.X.O.@.@.@.O.O.O.X.O.O.@.*.*.*.;.;.*.*.*.;.<.<.>.-.                                                                                                                                                                                                                                                  ",
"                                                                                                                                                                                                            H U P P J P P Q Q X.O.X.O.X.O.O.X.O.O.O.*.*.*.>.;.*.*.*.*.>.>.>.                                                                                                                                                                                                                                                    ",
"                                                                                                                                                                                                            / E P P P P P J P Q ^ X.X.X.X.X.O.O.O.O.@.*.*.*.;.;.*.*.*.*.;.;.                                                                                                                                                                                                                                                    ",
"                                                                                                                                                                                                            H K Y P P P P P P Q ^ X.X.X.X.X.X.X.O.O.*.*.*.*.*.*.O.*.@.@.@.*.                                                                                                                                                                                                                                                    ",
"                                                                                                                                                                                                            B Z F K G P P P P P Q ^ X.X.X.X.O.O.O.*.*.O.*.*.@.O.O.O.O.O.@.O.                                                                                                                                                                                                                                                    ",
"                                                                                                                                                                                                            y r t p g z c C J J K Q ^ X.X.X.O.O.O.O.O.*.*.*.%.o.X.O.X.X.X.o.                                                                                                                                                                                                                                                    ",
"                                                                                                                                                                                                                              0 r r r i h h Z J P Q Q ^ { O.O.' X.X.O.X.X.o.                                                                                                                                                                                                                                                    ",
"                                                                                                                                                                                                                                  $ + + + $ & = ; > 1 j m V C V A S G I U T                                                                                                                                                                                                                                                     ",
"                                                                                                                                                                                                                                  - $ + + + $ $ o o +                                                                                                                                                                                                                                                                           ",
"                                                                                                                                                                                                                                  2 < ; = ; ; ; - - 2                                                                                                                                                                                                                                                                           ",
"                                                                                                                                                                                                                                  7 3 8 9 9 9 8 8 0 N                                                                                                                                                                                                                                                                           ",
"                                                                                                                                                                                                                                  y 9 i g k k k p z /                                                                                                                                                                                                                                                                           ",
"                                                                                                                                                                                                                                  b p V C C C C M G |                                                                                                                                                                                                                                                                           ",
"                                                                                                                                                                                                                                    V I U G H I I W &.                                                                                                                                                                                                                                                                          ",
"                                                                                                                                                                                                                                    G R R Y T R ! ` -.                                                                                                                                                                                                                                                                          ",
"                                                                                                                                                                                                                                    U W ! R W ` ' o.,.                                                                                                                                                                                                                                                                          ",
"                                                                                                                                                                                                                                    W ` ! W R Q ' #.3.                                                                                                                                                                                                                                                                          ",
"                                                                                                                                                                                                                                    W ` ! ` _ Q ~ $.5.                                                                                                                                                                                                                                                                          ",
"                                                                                                                                                                                                                                    S ~ ! ' ' ` ~ X.,.                                                                                                                                                                                                                                                                          ",
"                                                                                                                                                                                                                                    C ! ` | X.o.[ ^ $.                                                                                                                                                                                                                                                                          ",
"                                                                                                                                                                                                              9.9.y.9.y.0.0.e.6.6.6.3.3.3.6.5.5.,.,.4.5.6.3.2.-.                                                                                                                                                                                                                                                                ",
"                                                                                                                                                                                                              #.{ @.=.%.*.>.:.1.<.1.0.0.q.q.w.w.t.w.t.w.q.w.e.e.e.5.5.4.3.3.-.                                                                                                                                                                                                                                                  ",
"                                                                                                                                                                                                            ( O.O.o.+.+.O.%.>.0.5.<.<.1.<.1.1.1.q.1.1.5.5.q.5.q.0.4.5.4.3.,.3.                                                                                                                                                                                                                                                  ",
"                                                                                                                                                                                                            ] $.+.o.@.%.*.*.>.h.f.p.9.8.1.1.<.1.1.1.<.1.1.1.1.9.5.4.<.4.5.5.:.                                                                                                                                                                                                                                                  ",
"                                                                                                                                                                                                            ] %.%.+.%.*.*.>.0.k.z.z.c.l.l.9.1.1.<.,.,.<.<.1.9.9.5.5.3.>.>.4.2.                                                                                                                                                                                                                                                  ",
"                                                                                                                                                                                                            ..:.*.*.*.*.>.0.i.a.d.z.z.z.l.l.i.9.9.1.<.,.<.<.<.<.5.5.5.>.3.3.                                                                                                                                                                                                                                                    ",
"                                                                                                                                                                                                            ] 3.>.1.;.;.:.e.i.i.p.y.y.y.p.l.l.l.1.<.<.<.1.<.1.8.0.0.0.4.5.5.                                                                                                                                                                                                                                                    ",
"                                                                                                                                                                                                            [ ;.*.*.*.*.>.s.d.a.a.i.p.t.1.l.9.1.,.:.,.1.<.<.r.1.0.5.4.4.>.3.                                                                                                                                                                                                                                                    ",
"                                                                                                                                                                                                            ] %.@.@.*.*.w.g.k.k.d.d.i.i.l.9.9.<.-.=.=.,.1.1.<.1.5.5.0.>.;.;.                                                                                                                                                                                                                                                    ",
"                                                                                                                                                                                                            [ $.@.*.O.>.d.f.g.f.d.a.d.i.l.<.<.=.=.=.=.@.=.1.1.1.0.0.4.4.:.%.                                                                                                                                                                                                                                                    ",
"                                                                                                                                                                                                            [ *.O.{ O.u.f.d.a.a.a.i.a.p.l.9.<.;.=.=.=.%.%.,.<.<.5.4.4.0.3.;.                                                                                                                                                                                                                                                    ",
"                                                                                                                                                                                                            [ =.+.{ ,.a.s.g.s.a.p.t.u.u.y.0.:.*.;.;.@.@.@.<.<.1.0.5.5.5.5.4.                                                                                                                                                                                                                                                    ",
"                                                                                                                                                                                                            ' o.{ X.u.s.d.s.s.f.s.a.a.u.e.<.;.*.;.;.@.@.=.1.,.<.5.5.0.5.q.5.                                                                                                                                                                                                                                                    ",
"                                                                                                                                                                                                            [ +.o.<.f.f.s.s.f.f.f.s.a.u.5.,.:.*.@.@.@.@.;.>.<.>.5.<.5.5.5.5.                                                                                                                                                                                                                                                    ",
"                                                                                                                                                                                                            ` { o.r.a.s.d.d.i.a.a.a.a.t.5.<.>.*.@.@.@.;.;.<.>.>.>.>.<.<.5.5.                                                                                                                                                                                                                                                    ",
"                                                                                                                                                                                                            ( { <.i.i.i.u.i.i.u.u.u.r.1.<.>.:.;.@.;.@.;.;.,.;.>.4.5.<.<.5.5.                                                                                                                                                                                                                                                    ",
"                                                                                                                                                                                                            _ @.d.g.s.i.u.u.i.u.u.u.q.<.>.>.;.;.;.@.@.;.;.=.;.;.>.0.<.<.4.4.                                                                                                                                                                                                                                                    ",
"                                                                                                                                                                                                            ` 0.g.l.f.f.s.t.r.w.w.e.<.>.>.>.;.;.;.=.;.;.;.;.=.=.;.4.5.>.<.,.                                                                                                                                                                                                                                                    ",
"                                                                                                                                                                                                            #.u.s.s.d.i.i.u.t.r.w.<.>.>.>.;.;.;.=.;.,.;.;.:.=.=.*.:.>.>.<.<.                                                                                                                                                                                                                                                    ",
"                                                                                                                                                                                                            9.a.i.a.a.t.u.u.u.t.1.<.,.>.;.;.;.@.@.;.>.>.;.;.:.=.*.*.:.:.3.3.                                                                                                                                                                                                                                                    ",
"                                                                                                                                                                                                            a.a.a.a.s.a.u.t.t.e.1.>.,.>.;.;.;.@.;.;.>.;.;.;.=.:.*.*.:.>.>.:.                                                                                                                                                                                                                                                    ",
"                                                                                                                                                                                                          p.d.a.a.a.a.s.a.t.e.<.>.>.>.;.;.;.@.@.;.;.;.>.;.>.;.;.>.:.:.>.>.,.                                                                                                                                                                                                                                                    ",
"                                                                                                                                                                                                          a.d.i.a.t.w.i.a.t.5.>.>.;.;.;.;.*.@.@.;.;.;.>.>.;.,.>.:.>.:.;.:.<.                                                                                                                                                                                                                                                    ",
"                                                                                                                                                                                                        i.p.a.i.a.t.t.w.1.<.:.:.>.>.;.;.;.%.@.*.;.;.;.;.>.>.>.>.:.:.:.,.:.,.                                                                                                                                                                                                                                                    ",
"                                                                                                                                                                                                        s.a.a.u.a.a.a.t.e.<.:.;.;.>.>.;.%.@.@.%.;.;.;.*.;.;.;.;.;.;.:.;.:.:.                                                                                                                                                                                                                                                    ",
"                                                                                                                                                                                                      p.a.a.a.a.a.a.t.a.i.q.;.*.;.;.*.*.*.@.%.%.;.>.;.;.;.*.;.;.*.;.:.;.;.:.                                                                                                                                                                                                                                                    ",
"                                                                                                                                                                                                      d.a.a.a.a.a.t.t.t.w.>.@.*.;.*.*.*.*.O.*.*.;.;.;.*.;.;.*.@.*.*.;.;.;.:.                                                                                                                                                                                                                                                    ",
"                                                                                                                                                                                                    i.a.s.a.a.a.a.a.i.t.1.:.*.*.%.%.*.*.O.@.*.=.;.;.;.*.%.;.*.%.*.*.*.*.*.,.                                                                                                                                                                                                                                                    ",
"                                                                                                                                                                                                  y.i.i.i.a.a.i.t.t.i.u.1.:.*.@.%.%.%.@.@.@.%.*.;.;.;.;.*.:.;.%.%.%.*.-.-.-.                                                                                                                                                                                                                                                    ",
"                                                                                                                                                                                                  p.a.a.a.a.i.i.t.t.w.q.;.*.*.@.;.*.@.o.O.%.%.%.;.;.:.;.;.:.;.%.%.%.*.%.;.:.                                                                                                                                                                                                                                                    ",
"                                                                                                                                                                                                r.a.i.a.a.i.i.t.t.w.<.;.@.@.@.O.@.@.O.+.@.@.%.=.%.;.;.:.;.;.;.%.%.%.*.%.*.-.                                                                                                                                                                                                                                                    ",
"                                                                                                                                                                                                y.i.u.u.i.u.t.t.1.1.*.X.X.X.X.X.X.O.O.O.@.@.=.=.%.%.;.;.;.@.*.%.%.$.*.$.*.;.                                                                                                                                                                                                                                                    ",
"                                                                                                                                                                                              e.u.u.r.e.t.t.t.e.1.>.O.X.} X.} } } X.O.O.+.+.@.=.;.%.%.;.;.*.*.%.@.%.*.$.%.*.                                                                                                                                                                                                                                                    ",
"                                                                                                                                                                                              e.r.q.q.e.e.7.1.1.1.*.X.^ X.^ ^ } } X.+.+.@.+.+.=.%.;.;.;.;.;.;.%.@.$.*.*.%.%.                                                                                                                                                                                                                                                    ",
"                                                                                                                                                                                            3.q.7.7.e.e.7.,.=.;.;.O.X.X.^ X.^ ^ ^ o.O.+.+.@.%.%.%.%.@.%.%.%.@.@.+.@.*.*.=.-.                                                                                                                                                                                                                                                    ",
"                                                                                                                                                                                            4.<.<.q.e.7.,.=.X.X.X.} ' { ^ ^ Q ^ } O.o.o.o.@.%.%.%.+.+.%.%.@.%.;.*.+.+.;.;.:.                                                                                                                                                                                                                                                    ",
"                                                                                                                                                                                            :.%.@.%.=.,.=.O.} ' ! ^ ^ ^ ^ Q E ^ } o.o.+.o.O.+.+.+.o.+.O.+.%.%.;.;.%.%.%.;.;.                                                                                                                                                                                                                                                    ",
"                                                                                                                                                                                          -.%.+.} ! ! ^ } ~ ' ' ^ ~ ^ ^ Q Q Q } o.O.o.+.o.+.+.} o.X.X.O.+.@.%.@.*.*.%.+.%.=.                                                                                                                                                                                                                                                    ",
"                                                                                                                                                                                          #.X.[ ~ } } ! E W ~ ' ^ ! Q Q Q Q ^ } o.| | o.o.+.+.} X.X.o.o.O.O.+.+.%.;.*.%.+.%.                                                                                                                                                                                                                                                    ",
"                                                                                                                                                                                        [ [ ! U K U ! ! ' } ' ' ^ ! E P Y E ! ` } } } } } } o.} X.o.X.o.X.o.+.+.+.@.%.+.@.*.                                                                                                                                                                                                                                                    ",
"                                                                                                                                                                                        [ #.$._ / W ` ] ] | W ! ~ ~ E P P W ! ! W } } } } } o.} } } X.} X.o.o.o.{ X.+.+.+.+.                                                                                                                                                                                                                                                    ",
"                                                                                                                                                                                        y.u.u.y.e.6.e.4.-.-.o.W U Y Y Y Y ! ! ~ W ~ } } } } } } ' ^ ^ ` ' } X.X.' ^ { X.o.+.                                                                                                                                                                                                                                                    ",
"                                                                                                                                                                                        %.%.%.%.{ [ [ +.$.=.,.-._ G F K Y E W ! ! ! ! ~ } } } } ' ' ^ ~ ^ } } } { ' [ { o.+.#.                                                                                                                                                                                                                                                  ",
"                                                                                                                                                                                        ' } ' [ o.' ' *.5.:.o.$.$.{ _ T R Y Q ! ! W ! ! } ! } } } } E ! ~ ' ' ' ' [ [ ' o.+.$.                                                                                                                                                                                                                                                  ",
"                                                                                                                                                                                        T ` ' ' o.X.{ +.:.5.-.+.@.@.#._ R W Q W ! } ! } ! } ! } W ! } ! ~ ` ' ' ^ ' ' ' X.O.$.                                                                                                                                                                                                                                                  ",
"                                                                                                                                                                                          _ ~ ~ ` o.+.+.o.;.0.-.%.*.@.` Y Q Y Y E W } ! } W } ! } ! W ! ~ ~ ' ' ' ' ^ ' } X.o.                                                                                                                                                                                                                                                  ",
"                                                                                                                                                                                          Y W W ! ' { ' ^ { 5.<.%.$.*.{ Y Y Y U Y U W W ! } ! } } ~ } ! ~ ~ ' } ' ^ ' ' } o.+.                                                                                                                                                                                                                                                  ",
"                                                                                                                                                                                          G I I Y E E E ! ^ ;.<.-.*.%.O.U U L U U Y Y E ! } } ! ! } } ! ! } ' ~ ! ' ! ' ' X.#.                                                                                                                                                                                                                                                  ",
"                                                                                                                                                                                            A V C K U L Y E o.>.*.*.*.@.Q U U U H U U E U E ! ! ! ! ~ ~ ~ W ! W ! ! ^ ! ` ' X.                                                                                                                                                                                                                                                  ",
"                                                                                                                                                                                            k k i k C K L J ! :.-.*.*.*.` U U U P H G P U E Q ! ! ~ ~ } ! ! ! ! Q ! ! ` ` ' }                                                                                                                                                                                                                                                   ",
"                                                                                                                                                                                            d p i i V S J L Y *.*.;.*.-.` K K U U L L G H Y E E W ! ! ! ! ! ! W W ! Q Q ! ' [                                                                                                                                                                                                                                                   ",
"                                                                                                                                                                                              k k k z C c F F X.:.:.:.;.} G G H U Y I I J I I I T Q W ! ! R R Y R Q Q R ! _ `                                                                                                                                                                                                                                                   ",
"                                                                                                                                                                                              B G G C Z c Z F } ,.,.<.,.} G G G I I U I R P I I I Y Q ! ! ! R Y U T Y Y Q Q !                                                                                                                                                                                                                                                   ",
"                                                                                                                                                                                              M B S F G F F F } ,.<.1.,.=.H F G J J K K U Y R U P Y Y R Q R R Q E R E Y R Y W                                                                                                                                                                                                                                                   ",
"                                                                                                                                                                                                y i z F L F F P ,.1.1.1.;.E A G J A A J I I U U U Y Y Y Q W Y Y Y Y R Y Y Y R                                                                                                                                                                                                                                                   ",
"                                                                                                                                                                                                y r y g G G G P +.1.1.9.<.! c F A C C C J J K I U P Y U R Q R Y U Y Y Y U Y Y R                                                                                                                                                                                                                                                 ",
"                                                                                                                                                                                                r 5 r p C F G G } <.1.7.9.} x x C C V V M V C J I I U U U Y R Y U U U U U U U R                                                                                                                                                                                                                                                 ",
"                                                                                                                                                                                                  r y r C G F F Y :.9.1.7.| V c M V V V M l M C J K I I U P T T U U U U U U R R                                                                                                                                                                                                                                                 ",
"                                                                                                                                                                                                  6 y r c G G F L =.1.9.7.&.G c x n M V V M l M V A J J J I I I Y U U I U I L T                                                                                                                                                                                                                                                 ",
"                                                                                                                                                                                                    y r i z G Y K X.1.1.7.,.G c M c M l V V M M V V V J C J K K U I I I S S S I                                                                                                                                                                                                                                                 ",
"                                                                                                                                                                                                    7 r r r B E Y } <.7.7.,.H c M l l l l n V l n M V V C C J J J I J C C V C A                                                                                                                                                                                                                                                 ",
"                                                                                                                                                                                                    9 8 5 5 g Y W ~ ,.7.7.7.R z V V l l l l M V I I K V j n n l j j w q 9 8 9                                                                                                                                                                                                                                                   ",
"                                                                                                                                                                                                      3 8 r u G E E =.7.7.7.R r e e 0 6 j V M U [ [ [ _ I I Y U N                                                                                                                                                                                                                                                               ",
"                                                                                                                                                                                                      3 r 5 r x P G } 1.7.9.W - # & : : e f f U [ $.%.[ $.$.+.#.T                                                                                                                                                                                                                                                               ",
"                                                                                                                                                                                                        3 r y z G F ^ >.7.7.| > X # : , 9 e e K $.$.$.$.$.%.%.+.(                                                                                                                                                                                                                                                               ",
"                                                                                                                                                                                                        5 5 r k G F Y :.1.7.%.1 X # , 6 e e e S #.&.%.$.$.%.%.-...(                                                                                                                                                                                                                                                             ",
"                                                                                                                                                                                                        7 3 r g F c K @.7.e.:.e X # : 4 e f j S $.-.%.%.%.=.:.:.&...                                                                                                                                                                                                                                                            ",
"                                                                                                                                                                                                          7 7 h F c F X.1.7.9.z o o % , t h x F +.-.=.=.;.,.,.5.-.&.                                                                                                                                                                                                                                                            ",
"                                                                                                                                                                                                          7 7 i G F Z ~ <.7.9.B $ o # : 0 t h F #.:.:.,.<.<.,.4.3.-.6.                                                                                                                                                                                                                                                          ",
"                                                                                                                                                                                                            7 r G G F W ,.7.9.T & * % ; 9 0 f Z o.-.-.4.5.5.5.4.3.3.5.                                                                                                                                                                                                                                                          ",
"                                                                                                                                                                                                            7 7 M H F E ;.<.8.} > - % - 8 0 f x } :.;.5.0.5.5.4.4.4.9.                                                                                                                                                                                                                                                          ",
"                                                                                                                                                                                                            7 3 u F F F +.,.,.| 3 < - - 8 0 g x ' :.:.5.9.7.<.<.<.4.0.9.                                                                                                                                                                                                                                                        ",
"                                                                                                                                                                                                              3 3 z G Z } =.:.#.q 3 2 > 8 i l c _ -.;.;.5.e.5.<.<.5.5.y.                                                                                                                                                                                                                                                        ",
"                                                                                                                                                                                                              3 > r f t G %.=.&.d 7 3 7 9 t i h ! :.:.-.4.5.5.4.,.<.e.e.                                                                                                                                                                                                                                                        ",
"                                                                                                                                                                                                                > > 5 3 g } -.-.B 9 7 9 9 9 0 g W ;.,.,.5.5.4.<.,.4.9.e.y.                                                                                                                                                                                                                                                      ",
"                                                                                                                                                                                                                - , 6 r i } *.-.H w w w 9 w t x R *.:.<.<.4.<.4.,.4.e.e.y.                                                                                                                                                                                                                                                      ",
"                                                                                                                                                                                                                > > r i h Y =.:.( s v a 8 9 0 g L @.*.;.:.<.,.:.:.4.e.y.y.                                                                                                                                                                                                                                                      ",
"                                                                                                                                                                                                                  ; 1 r h G +.,.[ s v a 8 8 8 i Z @.:.;.:.>.,.:.,.4.5.r.y.y.                                                                                                                                                                                                                                                    ",
"                                                                                                                                                                                                                  - - 3 i V ..-...v d q 3 7 9 i Z O.;.;.:.<.,.:.,.,.5.r.e.y.                                                                                                                                                                                                                                                    ",
"                                                                                                                                                                                                                    & ; 6 i ~ =.#.N v 9 7 0 0 t c o.*.*.:.:.<.:.,.,.7.e.y.y.                                                                                                                                                                                                                                                    ",
"                                                                                                                                                                                                                    & & - 1 V ' _ B d q 9 0 0 t c { *.:.*.:.,.:.,.3.5.7.9.y.9.                                                                                                                                                                                                                                                  ",
"                                                                                                                                                                                                                    & % % - > y s n s u 0 w 0 e c ' *.*.*.:.,.<.3.,.,.5.9.e.e.                                                                                                                                                                                                                                                  ",
"                                                                                                                                                                                                                      o + + @     v d u q 0 0 e l ` *.*.:.:.<.4.,.,.5.7.9.y.r.                                                                                                                                                                                                                                                  ",
"                                                                                                                                                                                                                                    d a q w 0 e l ! *.*.*.<.5.5.-.3.5.8.7.9.r.9.                                                                                                                                                                                                                                                ",
"                                                                                                                                                                                                                                    n u w u 0 u h Y *.*.*.<.0.6.3.5.5.<.7.e.r.9.                                                                                                                                                                                                                                                ",
"                                                                                                                                                                                                                                    v s w w e t h Y %.*.-.>.4.5.5.,.,.5.7.9.r.r.                                                                                                                                                                                                                                                ",
"                                                                                                                                                                                                                                    n d u u 0 t g P @.*.*.:.<.5.8.5.:.:.7.9.9.9.7.                                                                                                                                                                                                                                              ",
"                                                                                                                                                                                                                                    m d a u u t f J @.*.*.;.<.4.5.5.:.-.4.7.r.e.7.                                                                                                                                                                                                                                              ",
"                                                                                                                                                                                                                                    m d a 9 0 u f J @.*.-.;.,.<.5.5.:.:.,.7.9.e.5.                                                                                                                                                                                                                                              ",
"                                                                                                                                                                                                                                    m k i 0 e u j Z O.%.*.;.3.4.4.5.2.;.:.8.q.7.4.,.                                                                                                                                                                                                                                            ",
"                                                                                                                                                                                                                                    n n d u u 0 j C { %.%.;.;.<.5.5.5.=.-.,.7.9.,.,.                                                                                                                                                                                                                                            ",
"                                                                                                                                                                                                                                    m n a w u t i c { @.%.*.:.5.4.5.5.;.=.,.9.r.5.4.                                                                                                                                                                                                                                            ",
"                                                                                                                                                                                                                                    m n u w u t i c { @.%.*.3.4.5.5.5.;.;.-.5.9.5.<.3.                                                                                                                                                                                                                                          ",
"                                                                                                                                                                                                                                    m m s e u t f l ^ @.%.-.,.<.3.5.,.=.;.-.,.9.9.5.5.                                                                                                                                                                                                                                          ",
"                                                                                                                                                                                                                                      m k u u e i h ! *.%.%.:.,.5.5.5.%.=.:.,.7.e.9.5.                                                                                                                                                                                                                                          ",
"                                                                                                                                                                                                                                      D m u i i t g E %.%.*.:.,.5.<.,.+.%.=.:.,.5.5.4.4.                                                                                                                                                                                                                                        ",
"                                                                                                                                                                                                                                      G m u i u f g P @.%.*.-.:.,.8.,.} +.=.=.=.:.4.5.6.                                                                                                                                                                                                                                        ",
"                                                                                                                                                                                                                                      N p u i u i g L @.$.$.*.<.5.5.,.} ' +.o.=.-.,.5.5.                                                                                                                                                                                                                                        ",
"                                                                                                                                                                                                                                      m v i s p t f J +.*.@.*.:.5.7.,.} W [ o.%.-.:.5.5.6.                                                                                                                                                                                                                                      ",
"                                                                                                                                                                                                                                      m d d p p f g F +.%.%.=.:.,.5.>.| Y } o.o.=.-.5.7.5.                                                                                                                                                                                                                                      ",
"                                                                                                                                                                                                                                      m d i p j j g S +.=.=.%.-.-.4.>.| U ` o.| #.=.-.7.9.                                                                                                                                                                                                                                      ",
"                                                                                                                                                                                                                                      m d a k z h j C o.=.=.=.=.-.,.8.X.G W o.| $.=.-.5.e.8.                                                                                                                                                                                                                                    ",
"                                                                                                                                                                                                                                      m d d a p j f c X.%.*.=.=.:.:.<.+.A W | | $.-.-.,.8.9.                                                                                                                                                                                                                                    ",
"                                                                                                                                                                                                                                      v s d a a g h c [ =.=.=.:.:.:.<.$.M H ` } | &.:.-.4.9.                                                                                                                                                                                                                                    ",
"                                                                                                                                                                                                                                      v a u u u k z c ' =.=.-.;.;.:.,.%.x S W } | -.:.:.,.7.8.                                                                                                                                                                                                                                  ",
"                                                                                                                                                                                                                                        d u u u i k x ~ =.-.=.=.=.:.:.=.x z U ] | %.-.-.,.4.8.                                                                                                                                                                                                                                  ",
"                                                                                                                                                                                                                                        a u u u u i j W =.=.=.=.=.=.;.=.M j G ` } &.-.:.:.,.8.2.                                                                                                                                                                                                                                ",
"                                                                                                                                                                                                                                        a u u u u 0 0 K %.=.=.=.=.=.;.%.V t V W [ o.-.-.,.,.3.4.                                                                                                                                                                                                                                ",
"                                                                                                                                                                                                                                        p a a w w t u S $.%.=.%.=.=.;.;.A 9 i U ` ' $.-.-.,.4.4.                                                                                                                                                                                                                                ",
"                                                                                                                                                                                                                                        s u q q u u u C #.%.%.=.%.;.;.;.G 0 i C W | } =.,.,.3.4.2.                                                                                                                                                                                                                              ",
"                                                                                                                                                                                                                                        a u 7 7 9 0 i V | %.$.=.=.%.*.;.F 6 t c U | +.&.-.,.,.3.3.                                                                                                                                                                                                                              ",
"                                                                                                                                                                                                                                        7 3 3 7 8 w i M ' +.+.$.%.=.;.;.G 1 6 t H ` $.=.-.:.:.-.4.                                                                                                                                                                                                                              ",
"                                                                                                                                                                                                                                        3 2 3 7 8 0 e j ` o.+.+.%.%.%.;.I > 4 6 k W o.%.-.-.,.-.4.-.                                                                                                                                                                                                                            ",
"                                                                                                                                                                                                                                        q q q 7 4 8 9 0 U o.o.#.$.%.%.%.Y > > 4 9 K ' o.$.=.=.-.-.-.                                                                                                                                                                                                                            ",
"                                                                                                                                                                                                                                          u q q 9 7 9 0 S [ { o.+.@.@.%.R > = , 5 z Y ~ ` [ o.o.$.$.                                                                                                                                                                                                                            ",
"                                                                                                                                                                                                                                          u q q q 8 9 9 C ` ' ' o.+.$.*.! ; & - : j K R Y Y ` ' o.|                                                                                                                                                                                                                             ",
"                                                                                                                                                                                                                                          u q 7 3 1 6 9 V W ^ ` ' { O.+.! < - - ; 0 C P Q ^ ` { ' ' [                                                                                                                                                                                                                           ",
"                                                                                                                                                                                                                                          q 7 7 1 < 4 6 l Y ! ^ ` ' { o.! 4 ; : ; 6 V U ' { ' ` ' ' [                                                                                                                                                                                                                           ",
"                                                                                                                                                                                                                                          q 7 7 8 4 1 4 j K L R ! ' ' { ! 7 ; < , 5 n J Q ! Q ^ ` [ '                                                                                                                                                                                                                           ",
"                                                                                                                                                                                                                                          a s s d w 7 8 n K K L K E ^ ' ! w 4 4 6 0 l J P Y ! ^ ' ` !                                                                                                                                                                                                                           ",
"                                                                                                                                                                                                                                          N B B M M V M S W R R Y Y Q ^ ! e 6 6 6 e V L E ! ^ ' ` ' !                                                                                                                                                                                                                           ",
"                                                                                                                                                                                                                                          H H B C S I U ' [ [ ] { ` Q ! ! j 9 0 e f V P ! ^ { o.o.}                                                                                                                                                                                                                             ",
"                                                                                                                                                                                                                                        D H A V I I D ! { #.o.{ [ { ' ` ^ n 0 e e f C Y ! ^ { { [ }                                                                                                                                                                                                                             ",
"                                                                                                                                                                                                                                        H H V A H U H E } } } } { #.+.+.' k i e e h Z L E ! ^ ' ! '                                                                                                                                                                                                                             ",
"                                                                                                                                                                                                                                        H H B A P P H H H W W } { #.$.$.T i e e t l Z L Y Q ^ ' ' !                                                                                                                                                                                                                             ",
"                                                                                                                                                                                                                                        H H H H U Y Y } } W H } [ o.o.| B u e 0 e l J P P ^ ^ ^ ! _                                                                                                                                                                                                                             ",
"                                                                                                                                                                                                                                      H T H G H H H H W } W } W [ { [ R p w r w e l Z J P Q ^ Q ! !                                                                                                                                                                                                                             ",
"                                                                                                                                                                                                                                      T W H H G P Y } W W } } } } | | A u u t u t l J K P Q ! ! ^ _                                                                                                                                                                                                                             ",
"                                                                                                                                                                                                                                      W Y Y P H G } } } } W  .} | | ! z u u j g f c Z P Q Q ^ ! !                                                                                                                                                                                                                               ",
"                                                                                                                                                                                                                                      W Y H H G G H } } } } W } ' | U k p j j h f c J P Q Q ! ! Q                                                                                                                                                                                                                               ",
"                                                                                                                                                                                                                                    W W W R Y H H } | H W } W } } ` A k p i i f f Z P P Q Q ^ ! !                                                                                                                                                                                                                               ",
"                                                                                                                                                                                                                                    W W T Y U Y Y ! ! W W ! } W ` _ z d i u u t f Z L P Q Q ^ ^ !                                                                                                                                                                                                                               ",
"                                                                                                                                                                                                                                    W R Y Y T I R ! R W W ! W W _   z d u 9 0 t f F L Q Q Q ^ ^ !                                                                                                                                                                                                                               ",
"                                                                                                                                                                                                                                    W Y Y Y L I E W Y Y Y Y W ! W   m z p p p f z F E Q Q Q ^ ^ Y                                                                                                                                                                                                                               ",
"                                                                                                                                                                                                                                  T W T T Y Y T W R E E E E Y W     z k p p g h h F L E Q ! X.'                                                                                                                                                                                                                                 ",
"                                                                                                                                                                                                                                  T W T E T Q ! E E E E E E W W     k k p d t p x J P Q Q ! ' `                                                                                                                                                                                                                                 ",
"                                                                                                                                                                                                                                  _ W W Q W W W Y E E R E W W E     d k z k p t h J P P Q E Y !                                                                                                                                                                                                                                 ",
"                                                                                                                                                                                                                                W _ W ! W W ! W Y E E E E E W       k k k k j p x K Y E Q W ! !                                                                                                                                                                                                                                 ",
"                                                                                                                                                                                                                                W _ _ ` W ! W E R E Y R E ! W       k k k d z j c J P Q ! ! ` W                                                                                                                                                                                                                                 ",
"                                                                                                                                                                                                                                _ ` _ / ! } T Y E E Y Y E W         d z k d z h c K Q Q ! ! ~ W                                                                                                                                                                                                                                 ",
"                                                                                                                                                                                                                                [ ` ` _ _ _ W R Y R Y E ! W         k z d p p g V G P E ^ ~ ~                                                                                                                                                                                                                                   ",
"                                                                                                                                                                                                                              / _ ` _ W _ ! Y Y Y Y Y W !           z z d i z p C K E Q ! ` `                                                                                                                                                                                                                                   ",
"                                                                                                                                                                                                                              ` ` ` _ / W E Y Y Y Y E W W           z z p a p g Z K E E ! ! `                                                                                                                                                                                                                                   ",
"                                                                                                                                                                                                                              ] ] ` _ W W R Y Y Y R W W H           z z d a i p Z K Y W ! ~ /                                                                                                                                                                                                                                   ",
"                                                                                                                                                                                                                              _ _ ` _ / W R U Y Y Y W R             x M p i i i Z K Y Q ' ` ~                                                                                                                                                                                                                                   ",
"                                                                                                                                                                                                                            / _ / _ _ ! W Y U Y Y Y W R             M z p a i p Z K Y W ' ` W                                                                                                                                                                                                                                   ",
"                                                                                                                                                                                                                            W _ ` W W W R U Y Y U W W               z z a p t p Z P Y W ' '                                                                                                                                                                                                                                     ",
"                                                                                                                                                                                                                            W _ ! R R E E Y E U T W U               m z i i u k F G Y ! ` `                                                                                                                                                                                                                                     ",
"                                                                                                                                                                                                                            _ ` W W R R U U U U Y Q                 m z i d t z F L R ! ` !                                                                                                                                                                                                                                     ",
"                                                                                                                                                                                                                          / ` W W W W R P U U U Y T                 m k a t r z F U E _ } _                                                                                                                                                                                                                                     ",
"                                                                                                                                                                                                                          / T Y T T E U U U U U U U                 k j r 9 8 h F U R ! ` W                                                                                                                                                                                                                                     ",
"                                                                                                                                                                                                                          T R U U T Y L P K U K K                   z p 9 8 9 x F K W ~ ` !                                                                                                                                                                                                                                     ",
"                                                                                                                                                                                                                          T Y T H L U U U U K K G                   z u 9 r r x F U E ` ` W                                                                                                                                                                                                                                     ",
"                                                                                                                                                                                                                        I U R U H Y L H U K K K                     z p 0 0 r x Z U W ~ `                                                                                                                                                                                                                                       ",
"                                                                                                                                                                                                                        U R U G Y E U P P K K G                     z t 9 9 t c F U W ` `                                                                                                                                                                                                                                       ",
"                                                                                                                                                                                                                        T Y U K U L L K G F K                       i 9 6 6 t x F U E W W                                                                                                                                                                                                                                       ",
"                                                                                                                                                                                                                        U U K U U G K L K F G                       u 9 5 9 t x G G K H G                                                                                                                                                                                                                                       ",
"                                                                                                                                                                                                                      I Y U F I G G L K F G F                       7 7 5 0 i x G F Z G G                                                                                                                                                                                                                                       ",
"                                                                                                                                                                                                                      I U U K K G F F G K F                         9 7 6 6 t c V V F K K                                                                                                                                                                                                                                       ",
"                                                                                                                                                                                                                      U U K K P K J F F F F                         9 7 8 6 t x A F K P                                                                                                                                                                                                                                         ",
"                                                                                                                                                                                                                      U K G Y K F G F F F                           w 8 6 6 t x F G G G                                                                                                                                                                                                                                         ",
"                                                                                                                                                                                                                    H I G K P F F F F F F                           8 5 5 6 t z V c V C                                                                                                                                                                                                                                         ",
"                                                                                                                                                                                                                    G G S K F C F F F F                             1 1 1 1 e g x x c A                                                                                                                                                                                                                                         ",
"                                                                                                                                                                                                                    I S V C C C J J J J                             4 < : , t g c V C C                                                                                                                                                                                                                                         ",
"                                                                                                                                                                                                                  G S V l j h c c c c Z                             7 4 , 4 u g c C C M                                                                                                                                                                                                                                         ",
"                                                                                                                                                                                                                  A C V h t h c g h c                               8 4 1 4 e i l V C                                                                                                                                                                                                                                           ",
"                                                                                                                                                                                                                  N V M g t f f h l h                               4 4 1 4 e f x V V                                                                                                                                                                                                                                           ",
"                                                                                                                                                                                                                  n k j e f f t f h                                 7 1 , 6 e g l h l                                                                                                                                                                                                                                           ",
"                                                                                                                                                                                                                d j p e t f t f t f                                 7 1 : 4 0 i i f k                                                                                                                                                                                                                                           ",
"                                                                                                                                                                                                                k d e j g t f f g                                   4 1 : 4 0 u e i j                                                                                                                                                                                                                                           ",
"                                                                                                                                                                                                                s j j h g f e f i                                   < < ; 4 9 0 0 p p                                                                                                                                                                                                                                           ",
"                                                                                                                                                                                                                1 7 8 u t e 0 t u                                   ; % & 1 6 9 r u                                                                                                                                                                                                                                             ",
"                                                                                                                                                                                                                + @ % 4 6 9 0 t                                     + @ $ > 1 6 9 7                                                                                                                                                                                                                                             ",
"                                                                                                                                                                                                                  O O % : , 6 6                                       + + % & * - -                                                                                                                                                                                                                                             ",
"                                                                                                                                                                                                                        o % ;                                                                                                                                                                                                                                                                                                   ",
"                                                                                                                                                                                                                                                                                                                                                                                                                                                                                                                                ",
"                                                                                                                                                                                                                                                                                                                                                                                                                                                                                                                                ",
"                                                                                                                                                                                                                                                                                                                                                                                                                                                                                                                                ",
"                                                                                                                                                                                                                                                                                                                                                                                                                                                                                                                                "
};
