/* XPM */
static char *out[] = {
/* columns rows colors chars-per-pixel */
"256 256 152 2 ",
"   c None",
".  c #140F0B",
"X  c #17100A",
"o  c #1C130E",
"O  c #161111",
"+  c #1C1412",
"@  c #1E1915",
"#  c #21160E",
"$  c #211712",
"%  c #251A14",
"&  c #2A1E17",
"*  c #271E18",
"=  c #291E19",
"-  c #2E2219",
";  c #34251B",
":  c #38271C",
">  c #37281E",
",  c #3B2A1E",
"<  c #352721",
"1  c #362921",
"2  c #3D2D23",
"3  c #3F3125",
"4  c #412E22",
"5  c #453225",
"6  c #4A3526",
"7  c #453429",
"8  c #4A362A",
"9  c #4C392C",
"0  c #533D2D",
"q  c #593F2F",
"w  c #4E3C31",
"e  c #523E31",
"r  c #56402E",
"t  c #59412F",
"y  c #554133",
"u  c #5C4433",
"i  c #5E4837",
"p  c #564338",
"a  c #5B4639",
"s  c #5D493A",
"d  c #614633",
"f  c #624936",
"g  c #694D37",
"h  c #634C3B",
"j  c #684E3A",
"k  c #66503F",
"l  c #6C523D",
"z  c #71543E",
"x  c #644E41",
"c  c #665142",
"v  c #6C5442",
"b  c #6F5846",
"n  c #6E564B",
"m  c #6D5849",
"M  c #715642",
"N  c #755A44",
"B  c #7A5D46",
"V  c #755C4A",
"C  c #7A5F49",
"Z  c #6F5C52",
"A  c #755F51",
"S  c #7E6047",
"D  c #7D614B",
"F  c #7D6352",
"G  c #806147",
"H  c #82654D",
"J  c #86684F",
"K  c #88694E",
"L  c #826651",
"P  c #866952",
"I  c #8A6D54",
"U  c #846C5A",
"Y  c #8A6E59",
"T  c #8E7056",
"R  c #8E715A",
"E  c #917156",
"W  c #93755C",
"Q  c #96785F",
"!  c #997A5E",
"~  c #8E7462",
"^  c #8C756A",
"/  c #927761",
"(  c #957962",
")  c #9B7C63",
"_  c #937A69",
"`  c #9A7E69",
"'  c #A07F65",
"]  c #9E8066",
"[  c #97806D",
"{  c #9E816A",
"}  c #9E8473",
"|  c #A28266",
" . c #A4856A",
".. c #A8876B",
"X. c #A7886D",
"o. c #AA8A6E",
"O. c #A38671",
"+. c #A68972",
"@. c #AD8D72",
"#. c #A48A7A",
"$. c #AB8E7A",
"%. c #B08F72",
"&. c #AF9075",
"*. c #AE917A",
"=. c #B29275",
"-. c #B4957A",
";. c #B8977A",
":. c #B6987E",
">. c #BA9A7D",
",. c #C09E7E",
"<. c #AF9681",
"1. c #B39681",
"2. c #B69A82",
"3. c #BB9D82",
"4. c #B49C8A",
"5. c #B99E8A",
"6. c #BEA185",
"7. c #B7A18F",
"8. c #BDA28A",
"9. c #BFA290",
"0. c #C09F81",
"q. c #C3A385",
"w. c #C4A68A",
"e. c #C8A789",
"r. c #C6A88B",
"t. c #CAAB8C",
"y. c #C1A690",
"u. c #C5AB91",
"i. c #CCAE91",
"p. c #CEB193",
"a. c #CDB39B",
"s. c #CFB89E",
"d. c #D2B495",
"f. c #D5B897",
"g. c #D3B699",
"h. c #D6BA9A",
"j. c #D9BD9D",
"k. c #D4BCA2",
"l. c #D9BEA1",
"z. c #DBC09F",
"x. c #DCC3A3",
"c. c #DFC7A9",
"v. c #DBCAAD",
"b. c #DDCDB4",
"n. c #DCCEB9",
"m. c #DBD1B9",
"M. c #E0C8A7",
"N. c #E3CDAC",
"B. c #E2CFB6",
"V. c #E6D2B4",
"C. c #E5D5B9",
"Z. c #E8D6B9",
/* pixels */
"                                                                                                                                                                                                                                                                                                                                                                                                                                                                                                                                ",
"                                                                                                                                                                                                                                                                                                                                                                                                                                                                                                                                ",
"                                                                                                                                                                                                                                                                                                                                                                                                                                                                                                                                ",
"                                                                                                                                                                                                                                                                                                                                                                                                                                                                                                                                ",
"                                                                                                                                                                                                                                                                                                                                                                                                                                                                                                                                ",
"                                                                                                                                                                                                                                                                                                                                                                                                                                                                                                                                ",
"                                                                                                                                                                                                                                                                                                                                                                                                                                                                                                                                ",
"                                                                                                                                                                                                                                                                                                                                                                                                                                                                                                                                ",
"                                                                                                                                                                                                                                                                                                                                                                                                                                                                                                                                ",
"                                                                                                                                                                                                                                                                                                                                                                                                                                                                                                                                ",
"                                                                                                                                                                                                                                                                                                                                                                                                                                                                                                                                ",
"                                                                                                                                                                                                                                                                                                                                                                                                                                                                                                                                ",
"                                                                                                                                                                                                                                                                                                                                                                                                                                                                                                                                ",
"                                                                                                                                                                                                                                                                                                                                                                                                                                                                                                                                ",
"                                                                                                                                                                                                                                                                                                                                                                                                                                                                                                                                ",
"                                                                                                                                                                                                                                                                                                                                                                                                                                                                                                                                ",
"                                                                                                                                                                                                                                                                                                                                                                                                                                                                                                                                ",
"                                                                                                                                                                                                                                                                                                                                                                                                                                                                                                                                ",
"                                                                                                                                                                                                                                                                                                                                                                                                                                                                                                                                ",
"                                                                                                                                                                                                                                                                                                                                                                                                                                                                                                                                ",
"                                                                                                                                                                                                                                                                                                                                                                                                                                                                                                                                ",
"                                                                                                                                                                                                                                                                                                                                                                                                                                                                                                                                ",
"                                                                                                                                                                                                                                                                                                                                                                                                                                                                                                                                ",
"                                                                                                                                                                                                                                                                                                                                                                                                                                                                                                                                ",
"                                                                                                                                                                                                                                                                                                                                                                                                                                                                                                                                ",
"                                                                                                                                                                                                                                                                                                                                                                                                                                                                                                                                ",
"                                                                                                                                                                                                                                                                                                                                                                                                                                                                                                                                ",
"                                                                                                                                                                                                                                                                                                                                                                                                                                                                                                                                ",
"                                                                                                                                                                                                                                                                                                                                                                                                                                                                                                                                ",
"                                                                                                                                                                                                                                                                                                                                                                                                                                                                                                                                ",
"                                                                                                                                                                                                                                                                                                                                                                                                                                                                                                                                ",
"                                                                                                                                                                                                                  m.m.m.n.                                                                                                                                                                                                                                                                                                      ",
"                                                                                                                                                                                                                v.N.N.v.C.C.C.C.C.C.C.V.C.C.m.N.m.m.v.v.N.                                                                                                                                                                                                                                                                      ",
"                                                                                                                                                                                                                s.z.z.z.z.z.M.z.x.M.M.z.M.M.N.z.N.N.N.N.V.V.V.z.M.x.k.j.k.g.g.a.                                                                                                                                                                                                                                                ",
"                                                                                                                                                                                                                u.z.z.z.z.z.z.z.z.z.z.z.z.z.z.z.z.z.z.z.z.z.f.f.g.p.t.t.u.0.e.t.                                                                                                                                                                                                                                                ",
"                                                                                                                                                                                                                s.z.z.z.z.z.z.f.z.z.z.z.z.z.z.z.z.z.z.z.z.z.f.f.d.i.r.e.u.0.0.0.                                                                                                                                                                                                                                                ",
"                                                                                                                                                                                                                s.z.f.f.z.z.f.f.z.z.z.p.z.z.t.z.z.z.p.z.f.f.f.f.d.t.t.t.i.i.t.e.                                                                                                                                                                                                                                                ",
"                                                                                                                                                                                                                s.f.f.f.f.f.p.f.p.p.z.p.z.z.z.t.p.z.z.t.f.f.f.f.t.i.d.d.p.d.d.t.                                                                                                                                                                                                                                                ",
"                                                                                                                                                                                                                s.f.s.p.p.p.p.t.t.z.,.t.z.,.t.z.t.z.t.z.f.f.f.t.p.p.p.d.i.p.t.e.                                                                                                                                                                                                                                                ",
"                                                                                                                                                                                                                p.f.p.t.t.t.t.t.,.,.t.t.t.t.t.,.z.t.z.,.f.f.t.f.p.i.t.t.e.t.t.e.                                                                                                                                                                                                                                                ",
"                                                                                                                                                                                                                p.p.p.r.r.r.r.q.t.t.t.z.,.,.t.t.t.t.t.t.t.t.t.t.t.r.e.e.e.t.r.8.                                                                                                                                                                                                                                                ",
"                                                                                                                                                                                                                u.p.r.r.q.6.q.q.t.,.t.,.,.z.z.8.t.q.q.t.t.t.q.t.q.q.w.e.e.r.t.w.                                                                                                                                                                                                                                                ",
"                                                                                                                                                                                                                u.r.q.r.6.>.q.q.,.,.8.t.t.,.,.,.q.t.q.e.t.t.t.e.e.e.r.r.r.t.t.w.                                                                                                                                                                                                                                                ",
"                                                                                                                                                                                                                u.r.r.q.6.,.6.6.,.t.t.,.,.t.,.t.t.q.t.t.t.t.t.t.t.e.e.t.t.t.t.w.                                                                                                                                                                                                                                                ",
"                                                                                                                                                                                                                r.r.r.q.>.,.,.,.,.,.,.8.8.t.t.,.t.q.e.e.t.t.t.p.i.t.t.t.t.t.t.w.                                                                                                                                                                                                                                                ",
"                                                                                                                                                                                                              u.8.8.,.,.,.>.>.>.8.8.,.,.t.,.,.t.q.t.q.e.t.,.t.t.t.i.t.t.e.t.t.8.                                                                                                                                                                                                                                                ",
"                                                                                                                                                                                                              7.,.>.>.,.>.>.>.>.,.>.,.>.,.,.,.8.q.q.q.q.,.t.r.,.e.t.t.t.e.q.r.r.                                                                                                                                                                                                                                                ",
"                                                                                                                                                                                                              :.>.>.-.=.-.>.>.;.:.:.:.:.,.,.,.,.q.q.q.t.,.t.r.r.e.t.e.t.e.t.u.                                                                                                                                                                                                                                                  ",
"                                                                                                                                                                                                              *.-.=.;.%.o.%.%.=.%.%.;.;.;.;.,.>.,.,.,.,.t.,.r.t.e.e.e.e.e.t.t.                                                                                                                                                                                                                                                  ",
"                                                                                                                                                                                                              +.X.X.@.%.o.o.o.%.%.%.%.=.=.;.;.;.;.>.,.,.,.r.r.,.q.q.q.r.e.e.t.                                                                                                                                                                                                                                                  ",
"                                                                                                                                                                                                              } o.o.o.o.o.o.o.o.%.%.%.o.%.&.%.;.-.>.,.>.,.t.,.,.q.,.q.r.r.r.r.                                                                                                                                                                                                                                                  ",
"                                                                                                                                                                                                              +.o. .........o.%.o.%.=...o.o.o.%.=.-.>.,.,.,.,.,.,.q.q.q.q.r.q.                                                                                                                                                                                                                                                  ",
"                                                                                                                                                                                                              +.........| ..o.%.=.o.%.=.X... .o.&.%.;.;.;.;.,.,.,.6.,.,.q.q.,.                                                                                                                                                                                                                                                  ",
"                                                                                                                                                                                                              { | | | | | | o.o.=.=.o.o.o.o.o.o.o.o.=.=.;.;.;.,.>.,.,.,.,.,.6.                                                                                                                                                                                                                                                  ",
"                                                                                                                                                                                                              { | | | | | | ....o.o...o.o.o.%.o.%.o.=.=.=.=.;.,.;.;.;.;.>.>.>.                                                                                                                                                                                                                                                  ",
"                                                                                                                                                                                                              { ] | | | | ] ] ..o.....o.o.o.o.o.o.o.=.=.=.=.=.;.;.;.>.>.>.,.>.                                                                                                                                                                                                                                                  ",
"                                                                                                                                                                                                              [ E E E | | | E | o.o.......o.....o.o.%.%.;.=.;.%.%.;.;.;.0.>.>.                                                                                                                                                                                                                                                  ",
"                                                                                                                                                                                                              Q E ] ] E E | | ..o.o.............o.o.%.%.%.%.=.%.o.%.=.;.>.>.-.                                                                                                                                                                                                                                                  ",
"                                                                                                                                                                                                              F G K K K E E ! | ............| ......%.%.%.%.=.=.%.o.%.=.;.;.-.                                                                                                                                                                                                                                                  ",
"                                                                                                                                                                                                              Y K K K G K K K K ! | | | | | ......o.o.%.%.=.=.=.%.%.%.=.=.@.@.                                                                                                                                                                                                                                                  ",
"                                                                                                                                                                                                              P K K K K K K K K ! ! | | | | | ......o.%.%.%.%.%.%.%.o.o.o.%.@.                                                                                                                                                                                                                                                  ",
"                                                                                                                                                                                                            A D J K K K K K K K E ! | | | | | | ....o.o.o.%.%.o.....o.o...o.X.                                                                                                                                                                                                                                                  ",
"                                                                                                                                                                                                              f g z z z S S G K E W ! | | | | ....o.o.o.%.%.=...| ....| | | |                                                                                                                                                                                                                                                   ",
"                                                                                                                                                                                                                      6 6 r t d g g g z z G K K E E ! | | ..+.| ] | | | | |                                                                                                                                                                                                                                                     ",
"                                                                                                                                                                                                                                    @ $ % & ; ; > 2 5 y v M V N N V D F L L                                                                                                                                                                                                                                                     ",
"                                                                                                                                                                                                                                    % + o o o + o + @                                                                                                                                                                                                                                                                           ",
"                                                                                                                                                                                                                                    < - - - ; - - = 1                                                                                                                                                                                                                                                                           ",
"                                                                                                                                                                                                                                    7 5 8 8 9 9 8 w x                                                                                                                                                                                                                                                                           ",
"                                                                                                                                                                                                                                    w y f h h h f f F                                                                                                                                                                                                                                                                           ",
"                                                                                                                                                                                                                                    a h N b N V N M ~                                                                                                                                                                                                                                                                           ",
"                                                                                                                                                                                                                                    v C P C D L L L {                                                                                                                                                                                                                                                                           ",
"                                                                                                                                                                                                                                    V Y Y Y I Y W ( +.                                                                                                                                                                                                                                                                          ",
"                                                                                                                                                                                                                                    F R W R R ( ) { &.                                                                                                                                                                                                                                                                          ",
"                                                                                                                                                                                                                                    P W W W R W )  .-.                                                                                                                                                                                                                                                                          ",
"                                                                                                                                                                                                                                    P { W ( ( E Q  .-.8.                                                                                                                                                                                                                                                                        ",
"                                                                                                                                                                                                                                    V ( W ) ) ! Q ] -.5.                                                                                                                                                                                                                                                                        ",
"                                                                                                                                                                                                                                    c Y W ) { ` ) Q  .<.                                                                                                                                                                                                                                                                        ",
"                                                                                                                                                                                                              7.y.y.y.y.0.5.9.4.4.1.O.+.@.$.1.-.*.+.+.*.                                                                                                                                                                                                                                                                        ",
"                                                                                                                                                                                                              +.....=.-.,.;.;.0.3.0.q.q.q.e.e.e.t.e.r.e.r.e.w.8.5.5.2.1.*.*.#.                                                                                                                                                                                                                                                  ",
"                                                                                                                                                                                                              X. . .....' @.=.3.>.>.>.>.,.,.,.,.q.q.q.0.q.3.q.q.0.0.3.2.2.2.1.                                                                                                                                                                                                                                                  ",
"                                                                                                                                                                                                              +... ...@.o.%.%.t.a.a.8.,.,.,.>.>.,.,.,.,.8.,.8.,.5.>.2.>.2.>.1.                                                                                                                                                                                                                                                  ",
"                                                                                                                                                                                                              $.@...o.%.%.;.0.g.h.x.x.s.8.8.,.,.>.>.:.>.>.,.,.8.0.>.-.>.2.3.1.                                                                                                                                                                                                                                                  ",
"                                                                                                                                                                                                              @.=.%.%.%.;.;.i.d.s.x.x.v.M.z.p.8.,.>.:.:.:.>.,.>.3.2.2.2.-.-.-.                                                                                                                                                                                                                                                  ",
"                                                                                                                                                                                                              =.;.;.;.=.-.0.i.p.a.p.u.p.z.z.z.z.u.,.>.>.>.>.>.>.0.0.3.>.2.-.1.                                                                                                                                                                                                                                                  ",
"                                                                                                                                                                                                              -.%.-.;.%.;.t.g.d.g.p.p.p.z.t.i.8.:.&.>.,.,.>.,.8.0.3.0.1.;.3.1.                                                                                                                                                                                                                                                  ",
"                                                                                                                                                                                                              %.o.o.%.%.0.j.l.j.g.g.a.p.8.z.t.>.&.&.&.>.,.,.8.,.3.3.3.3.-.=.-.                                                                                                                                                                                                                                                  ",
"                                                                                                                                                                                                              +.o.o.o.;.d.j.j.j.h.g.d.d.t.8.,.=.@.&.&.&.-.,.,.,.0.3.3.1.*.$.@.                                                                                                                                                                                                                                                  ",
"                                                                                                                                                                                                            [ @.o.o...0.f.f.g.d.d.g.p.d.z.u.>.&.&.&.&.X.@.:.>.,.3.3.;.3.1.%.+.                                                                                                                                                                                                                                                  ",
"                                                                                                                                                                                                            ` $.@.| &.d.g.j.f.f.p.p.i.i.i.w.-.=.&.%.%.o.o.>.>.>.3.0.3.3.2.-.$.                                                                                                                                                                                                                                                  ",
"                                                                                                                                                                                                            _ X. .| r.g.f.h.j.f.g.g.d.p.r.>.=.@.%.=.o.o.&.>.;.,.>.3.3.3.w.3.                                                                                                                                                                                                                                                    ",
"                                                                                                                                                                                                            _ ....;.h.j.h.g.f.f.h.g.d.d.q.-.=.%.o.o.o.o.=.;.;.;.>.3.0.0.5.3.                                                                                                                                                                                                                                                    ",
"                                                                                                                                                                                                            _ |  .w.f.h.g.f.d.d.g.d.d.i.3.>.-.=.%.o.o.o.;.;.;.;.;.;.>.>.3.>.                                                                                                                                                                                                                                                    ",
"                                                                                                                                                                                                            ( ' ;.d.p.p.d.p.p.d.p.p.t.,.>.>.;.o.o.%.o.&.=.>.-.>.;.3.;.3.>.3.                                                                                                                                                                                                                                                    ",
"                                                                                                                                                                                                            / +.p.x.h.d.i.p.d.i.p.p.r.;.;.;.=.%.&.o.o.=.&.=.=.=.;.0.;.3.3.2.                                                                                                                                                                                                                                                    ",
"                                                                                                                                                                                                            _ 0.j.x.j.h.d.p.t.e.e.r.>.;.;.;.=.=.=.&.&.=.=.=.=.&.=.;.3.-.>.-.                                                                                                                                                                                                                                                    ",
"                                                                                                                                                                                                            +.i.d.h.d.d.d.p.p.e.r.>.;.;.;.=.=.=.&.o.:.-.=.=.=.=.%.;.3.;.>.>.                                                                                                                                                                                                                                                    ",
"                                                                                                                                                                                                            w.g.d.d.d.d.t.d.i.t.,.>.:.;.:.&.=.%.o.=.;.;.=.=.=.=.%.=.-.-.;.3.                                                                                                                                                                                                                                                    ",
"                                                                                                                                                                                                            p.g.g.d.h.d.d.t.t.e.,.,.;.=.=.&.%.o.o.=.;.=.=.=.=.=.%.%.=.-.;.1.                                                                                                                                                                                                                                                    ",
"                                                                                                                                                                                                          g.g.d.d.d.g.d.d.t.e.3.;.=.;.=.=.=.o.o.%.=.=.;.=.=.=.=.-.=.=.;.;.-.                                                                                                                                                                                                                                                    ",
"                                                                                                                                                                                                          d.d.d.d.t.t.d.d.t.q.-.;.=.=.=.=.o.o.o.%.=.;.=.;.=.;.;.-.-.-.;.-.>.                                                                                                                                                                                                                                                    ",
"                                                                                                                                                                                                        p.g.g.d.i.d.t.t.q.>.-.-.;.=.=.=.%.o.o.&.=.=.=.;.;.;.;.=.-.;.;.-.-.-.                                                                                                                                                                                                                                                    ",
"                                                                                                                                                                                                        h.g.d.d.d.d.d.i.q.>.;.=.=.;.=.=.%.o.o.%.=.=.=.=.=.=.;.=.=.=.-.=.=.>.                                                                                                                                                                                                                                                    ",
"                                                                                                                                                                                                      d.g.d.d.d.d.d.t.d.t.q.=.%.;.=.=.o.o.o.o.&.=.;.%.=.=.%.=.%.%.=.=.*.-.-.                                                                                                                                                                                                                                                    ",
"                                                                                                                                                                                                    a.g.g.d.d.d.i.d.t.t.t.-.o.%.=.%.%.%.o.o.o.%.=.=.=.%.=.=.%.%.%.%.-.%.-.-.                                                                                                                                                                                                                                                    ",
"                                                                                                                                                                                                    p.f.f.f.d.d.d.d.d.t.,.=.%.%.%.%.&.%.....%.&.=.=.=.@.%.%.=.@.@.%.%.*.=.-.                                                                                                                                                                                                                                                    ",
"                                                                                                                                                                                                  p.s.p.d.d.d.d.p.i.d.p.>.%.%.o.o.%.o.o.o.o.&.&.&.=.=.=.%.=.=.@.%.@.%.%.=.&.                                                                                                                                                                                                                                                    ",
"                                                                                                                                                                                                  d.f.d.d.d.d.p.i.t.e.,.%.%.o.%.%.o.o. .o.o.&.o.&.=.=.=.=.;.=.o.@.%.@.%.=.*.                                                                                                                                                                                                                                                    ",
"                                                                                                                                                                                                p.p.p.d.f.p.p.t.e.,.,.%.o.o.o...o.o.....X.o.&.&.&.=.-.=.=.=.;.@.@.@.@.@.=.*.                                                                                                                                                                                                                                                    ",
"                                                                                                                                                                                                p.p.p.p.p.p.t.t.,.,.o.| | | | | | ....X.o.o.&.&.&.=.&.=.=.o.=.@.@.@.@.@.%.*.                                                                                                                                                                                                                                                    ",
"                                                                                                                                                                                              r.p.u.w.r.t.t.t.r.,.%...| ! | ] | ] | ....X.X.o.&.&.@.o.=.=.@.%.o.@.+.@.@.%.$.                                                                                                                                                                                                                                                    ",
"                                                                                                                                                                                              r.r.w.w.r.r.6.>.,.,...| ! ! ! ! ! ! { X...X.o.o.&.=.o.=.=.=.=.&.@.o.@.@.@.o.$.                                                                                                                                                                                                                                                    ",
"                                                                                                                                                                                            5.q.6.q.r.q.,.>.@.;.o.| | ! | | | E ] X. .X.X.@.o.o.&.=.o.&.@.@.@.@.....@.%.%.%.                                                                                                                                                                                                                                                    ",
"                                                                                                                                                                                            2.>.>.w.w.6.;.@.] | ) ' ! ! ! ! W W | .. .X.X.o.@.@.@.o...&.@.@.@.@.@...+.%.@.-.                                                                                                                                                                                                                                                    ",
"                                                                                                                                                                                          2.-.@.o.o.&.-.&.] ] Q ! ! ! ! W E T !  ... . . .X.X.X.X. .....X.@.o.=.%.@.o.@.*.-.                                                                                                                                                                                                                                                    ",
"                                                                                                                                                                                          @.@...] W Q ) ) Q ) ( ! W ! W E E E ]  . . . . .X.X.{  . .| X.X.@.o.&.%.%.@.@.%.=.                                                                                                                                                                                                                                                    ",
"                                                                                                                                                                                        +.X.` ) Q ] ] W W Q ) ! Q E E E E E Q | |  .{ X. . .X. .|  .| X.X.....X.@.=.%.o.+.%.                                                                                                                                                                                                                                                    ",
"                                                                                                                                                                                        ` ) Y L D P E W ) | ) ) W W I K I R W ) ] ] ] ]  .{  .] | |  .|  ...o.@.+.@.@.o...@.                                                                                                                                                                                                                                                    ",
"                                                                                                                                                                                      } $.-.*.{ ` ` } ` { _ Y W W W I K K R W W Q ] ] ] ] ] | ] | ' | | | |  .| |  .......+.                                                                                                                                                                                                                                                    ",
"                                                                                                                                                                                      8.u.u.u.r.8.8.5.-.*.-.{ I L I I J T Q W W R ] ] ] ] ] ] ] ) ) ) ) ` ' | ' ) ) | X.X.X.                                                                                                                                                                                                                                                    ",
"                                                                                                                                                                                        @.@.@...) ) | +.@.-.-.+.R D D J T R W W Q T E ] ] ] ] ] ) ! Q W ) ' | ' ' ! ) ` | ..+.                                                                                                                                                                                                                                                  ",
"                                                                                                                                                                                        ` ` ) |  .` | ;.2.=.X.+...` ~ I T I T W R W W Q ] Q ] ] ( ! Q ! Q ) ' ) ) ' ) ' | +.+.                                                                                                                                                                                                                                                  ",
"                                                                                                                                                                                        R ) ) '  .| | @.>.3.@.+.+...| Y T E R T Q Q Q Q ( Q Q Q ! Q W Q Q ( ) ) ! ` ) ` | ..+.                                                                                                                                                                                                                                                  ",
"                                                                                                                                                                                          ( ( ) ' o..... .>.3.=.+.o.X.R Y E Y Y T W ] Q ] Q ] R Q Q Q W W ) ) ) ! ! ) ) {  .X.                                                                                                                                                                                                                                                  ",
"                                                                                                                                                                                          R E R W ) ) ( ) ..3.-.@.@.@.( P I I I I P T W Q Q Q ] ( ( Q Q ( W ) ) ) ) ) ) ` | X.                                                                                                                                                                                                                                                  ",
"                                                                                                                                                                                          D L L E E Y E ! ' ;.-.%.@.@.` P P K P I P I T R ] ] Q ) ] ) W ! ( ) ) ! ) Q ) )  .X.                                                                                                                                                                                                                                                  ",
"                                                                                                                                                                                            M M N H P K I E @.;.%.%.%.| P P P P P P I T T T W Q ( ( ( ) Q W W W W W Q W ! ) |                                                                                                                                                                                                                                                   ",
"                                                                                                                                                                                            x f a c C J J H | ;.%.@.%...Y P P J P D P P I T T R W Q Q ( ( W W W E W W W ( ) {                                                                                                                                                                                                                                                   ",
"                                                                                                                                                                                            i i u f B C H H ! =.-.@.*.@.I H J P P D D J F T T T R W Q Q W W W E R W R W ) ) )                                                                                                                                                                                                                                                   ",
"                                                                                                                                                                                            f x k k z N B S T =.;.-.;.&.Y D J F P Y L H H H L Y I R R W E E R Y Y W E E E ( (                                                                                                                                                                                                                                                   ",
"                                                                                                                                                                                              C F S S S N S H o.:.:.;.;.W S D D L P P P Y H H H P I R W W R R I P Y T I R E W                                                                                                                                                                                                                                                   ",
"                                                                                                                                                                                              c b D S F S S S | >.,.>.;.] S V S G H H H P Y I P P I I E R R E Y Y I I I Y E W                                                                                                                                                                                                                                                   ",
"                                                                                                                                                                                              y r p z H H S S W ,.6.6.:.X.D N S C C C C H H P P I I I I R R I Y I Y Y I I I Y                                                                                                                                                                                                                                                   ",
"                                                                                                                                                                                                r r p c D S D I -.8.6.6.-.D S D V N B B G H H L P P P I E R Y P P I I Y I P Y Y                                                                                                                                                                                                                                                 ",
"                                                                                                                                                                                                7 r y k V S J J X.,.6.8.>.F k z M N M M M B C H H K P P P I E Y P P P P P P I Y                                                                                                                                                                                                                                                 ",
"                                                                                                                                                                                                  r y h D S S S ] >.,.6.6.Y z l v M M M j j M B G H L P P P Y Y P P K P P P Y Y                                                                                                                                                                                                                                                 ",
"                                                                                                                                                                                                  7 r i S D K S T >.,.6.6.] b l l l v M M v j M n C G G H H L P I P P L P P P U                                                                                                                                                                                                                                                 ",
"                                                                                                                                                                                                  r r y s b J T K &.,.,.6.{ z l v z v l M M l l M M M G B G H L P L L L C C L L                                                                                                                                                                                                                                                 ",
"                                                                                                                                                                                                    9 r r y D R T X.6.6.8.@.S b v l j j j v M l v M M M N B G G H H L G C C B C                                                                                                                                                                                                                                                 ",
"                                                                                                                                                                                                    8 5 6 9 b R R  .6.6.6.-.N k M v g h g j l M M N N v h j M v l v h u y e e p                                                                                                                                                                                                                                                 ",
"                                                                                                                                                                                                      5 r r h P I W >.6.6.:.D u d h d q f v v P ` ` ` H v n N V a                                                                                                                                                                                                                                                               ",
"                                                                                                                                                                                                      7 6 r y S J F %.,.6.>.k ; - : : : d g d P O.O.O.+.O.O.o.' U                                                                                                                                                                                                                                                               ",
"                                                                                                                                                                                                      9 5 9 y V D S  .>.6.8.V - X # : : 9 q q L O.O.@.O.o.@.+.+.~                                                                                                                                                                                                                                                               ",
"                                                                                                                                                                                                        6 9 r N S B ! >.6.6.U ; X # , 6 0 q q C O.$.@.O.+.@.%.$.} ^                                                                                                                                                                                                                                                             ",
"                                                                                                                                                                                                        7 3 r b S S E ;.6.w.{ : X # : 4 q q d C O.%.$.@.$.%.=.-.O.}                                                                                                                                                                                                                                                             ",
"                                                                                                                                                                                                          2 9 N S z J =.6.q.+.1 X o & 4 q f l S X.*.&.&.*.*.>.2.-.#.                                                                                                                                                                                                                                                            ",
"                                                                                                                                                                                                          7 9 v D S G X.6.w.-.9 o o # : 0 u l S { -.-.-.>.>.;.2.1.*.1.                                                                                                                                                                                                                                                          ",
"                                                                                                                                                                                                          w 9 h J D D | >.6.8.p % % @ - 0 6 f z { -.-.2.,.3.3.>.2.1.5.                                                                                                                                                                                                                                                          ",
"                                                                                                                                                                                                            7 w D D D ! >.2.8.c * - * - 9 9 d z ` *.-.:.5.3.3.3.2.:.5.                                                                                                                                                                                                                                                          ",
"                                                                                                                                                                                                            3 3 k D S T &.:.:.Z - < - - 6 9 i l ( -.-.2.q.5.2.>.2.>.5.w.                                                                                                                                                                                                                                                        ",
"                                                                                                                                                                                                              1 9 b N S X.-.&.U < 3 < < 6 r g l W %.-.-.0.e.>.3.>.2.5.w.                                                                                                                                                                                                                                                        ",
"                                                                                                                                                                                                              2 , r r t T &.-._ 2 7 3 3 9 r u g Y -.$.=.2.q.2.>.-.>.q.w.8.                                                                                                                                                                                                                                                      ",
"                                                                                                                                                                                                              1 : 2 5 5 D &.*.{ 7 w 3 8 9 9 0 i I -.-.-.>.3.2.2.2.>.5.w.y.                                                                                                                                                                                                                                                      ",
"                                                                                                                                                                                                                ; 6 r t z  .*.+.p w w p w w q g P @.>.>.>.3.>.2.>.2.8.r.u.                                                                                                                                                                                                                                                      ",
"                                                                                                                                                                                                                - , r f z ] *.*.n e p p 7 w 0 g H ..%.=.-.>.2.>.-.2.w.y.u.9.                                                                                                                                                                                                                                                    ",
"                                                                                                                                                                                                                - - 5 u l Q *.-.F w s a w 9 8 y N  .=.-.-.-.>.-.-.2.q.w.u.y.                                                                                                                                                                                                                                                    ",
"                                                                                                                                                                                                                  - ; 6 u F $.*.F w x p 2 7 6 t z | =.=.-.>.2.-.-.2.3.w.r.u.                                                                                                                                                                                                                                                    ",
"                                                                                                                                                                                                                  = * : 6 l { &.~ a x w 5 9 9 r z ' =.=.-.-.>.-.-.:.6.8.r.u.8.                                                                                                                                                                                                                                                  ",
"                                                                                                                                                                                                                    % * ; 5 D ( F x s w 7 0 0 q g ! %.=.=.-.-.-.:.:.3.8.r.u.y.                                                                                                                                                                                                                                                  ",
"                                                                                                                                                                                                                    & % @ - 2 w p a s y w 0 0 q j E %.=.=.=.-.>.1.:.>.3.8.y.y.                                                                                                                                                                                                                                                  ",
"                                                                                                                                                                                                                      + + @       a s y w 0 0 q g E %.%.-.-.>.>.:.1.2.6.6.r.r.8.                                                                                                                                                                                                                                                ",
"                                                                                                                                                                                                                                  p s p e 9 0 q f I %.%.=.;.3.3.:.:.2.6.6.w.r.8.                                                                                                                                                                                                                                                ",
"                                                                                                                                                                                                                                    h p e y 0 q f K o.%.%.>.3.q.:.2.2.3.6.8.8.r.                                                                                                                                                                                                                                                ",
"                                                                                                                                                                                                                                    x p e e y r f G o.%.%.-.2.5.6.:.2.>.6.8.r.8.6.                                                                                                                                                                                                                                              ",
"                                                                                                                                                                                                                                    x a y e r 0 d B ..%.@.-.2.3.6.3.:.-.2.8.r.r.8.                                                                                                                                                                                                                                              ",
"                                                                                                                                                                                                                                    c s y y q 0 d N | %.@.=.-.3.6.4.:.&.:.6.8.r.q.                                                                                                                                                                                                                                              ",
"                                                                                                                                                                                                                                    c s a w 0 e d z | %.@.-.:.:.3.2.:.-.-.3.w.w.8.1.                                                                                                                                                                                                                                            ",
"                                                                                                                                                                                                                                    c x a 9 0 q d z ) %.%.-.:.2.3.3.:.=.*.2.6.8.3.:.                                                                                                                                                                                                                                            ",
"                                                                                                                                                                                                                                    c x i y e 0 d g Q @.@.&.-.-.2.6.2.-.-.:.8.8.3.-.                                                                                                                                                                                                                                            ",
"                                                                                                                                                                                                                                      c s y y q y g W o.@.=.-.>.3.3.3.-.&.:.8.r.6.:.-.                                                                                                                                                                                                                                          ",
"                                                                                                                                                                                                                                      k a 9 y r t g E %.@.&.-.2.2.2.3.-.&.=.1.8.8.2.4.                                                                                                                                                                                                                                          ",
"                                                                                                                                                                                                                                      c a e y t t f I o.@.@.-.>.2.6.2.-.&.=.:.6.w.3.3.                                                                                                                                                                                                                                          ",
"                                                                                                                                                                                                                                      c s y q t t f K o.@.@.-.:.>.3.3.&.&.-.-.3.w.8.3.1.                                                                                                                                                                                                                                        ",
"                                                                                                                                                                                                                                      m v p t u y d S ..@.%.-.-.>.2.6.X...*.-.2.4.6.2.3.                                                                                                                                                                                                                                        ",
"                                                                                                                                                                                                                                      F v a y y t d N ..@.@.$.-.2.6.2.@. .&.&.&.=.:.3.3.                                                                                                                                                                                                                                        ",
"                                                                                                                                                                                                                                      m h y y u t d z | @.@.%.-.:.8.>.@.Q X. .@.&.-.3.6.4.                                                                                                                                                                                                                                      ",
"                                                                                                                                                                                                                                      c x p p u u d z ' @.@.@.-.:.6.:.@.R ) { +.*.-.>.6.5.                                                                                                                                                                                                                                      ",
"                                                                                                                                                                                                                                      c h a a f u u z ) @.@.&.=.-.6.2.&.T (  . .@.*.-.6.8.                                                                                                                                                                                                                                      ",
"                                                                                                                                                                                                                                      c s p i i d d z ) &.@.&.&.*.:.>.@.F R X. . .@.*.2.8.4.                                                                                                                                                                                                                                    ",
"                                                                                                                                                                                                                                        c p a k j f k Q @.=.&.=.*.-.6.&.D P ] { } &.*.1.8.8.                                                                                                                                                                                                                                    ",
"                                                                                                                                                                                                                                        k p p a f d g R @.@.&.*.-.-.:.-.L H _ { X.&.*.-.3.w.                                                                                                                                                                                                                                    ",
"                                                                                                                                                                                                                                        s p a y i f j P @.&.&.&.-.=.:.:.L V R { ` ..-.*.:.3.8.                                                                                                                                                                                                                                  ",
"                                                                                                                                                                                                                                        p y y y i j j P &.&.*.&.=.-.:.:.P l P ( [ +.-.-.:.2.8.                                                                                                                                                                                                                                  ",
"                                                                                                                                                                                                                                        s p e e y h l H @.&.*.&.&.=.-.:.P u D ( { X.*.-.:.1.8.4.                                                                                                                                                                                                                                ",
"                                                                                                                                                                                                                                        s y e e q y f V O.-.&.&.&.&.=.-.R y N Y [ { &.*.:.1.2.2.                                                                                                                                                                                                                                ",
"                                                                                                                                                                                                                                        p y y y e q 0 k | *.&.&.&.&.=.=.( 0 g F ) | $.-.:.:.2.4.                                                                                                                                                                                                                                ",
"                                                                                                                                                                                                                                        a p y y e 0 0 f ) &.&.&.&.=.=.-.) 0 9 N R [ ] $.*.:.:.2.1.                                                                                                                                                                                                                              ",
"                                                                                                                                                                                                                                        p p w w 9 y q i ( +.&.+.&.=.=.=.] 0 r g L ) ] X.*.:.1.2.2.                                                                                                                                                                                                                              ",
"                                                                                                                                                                                                                                        y y w 7 9 0 e f R @.@.@.&.&.&.=. .9 0 d F ~  .+.*.-.:.<.1.<.                                                                                                                                                                                                                            ",
"                                                                                                                                                                                                                                          7 3 7 8 9 y f P  .X.+.@.@.&.=. .9 , 0 l Y { $.&.-.-.-.-.1.                                                                                                                                                                                                                            ",
"                                                                                                                                                                                                                                          2 1 7 7 9 e u F  . .o.@.&.@.&.X.9 ; 5 0 D ) +.$.*.-.:.:.1.                                                                                                                                                                                                                            ",
"                                                                                                                                                                                                                                          w w 7 7 5 0 9 v `  .+.X.@.+.&.X.y ; , 5 f R  . .@.&.*.*.*.                                                                                                                                                                                                                            ",
"                                                                                                                                                                                                                                          p w w 8 5 5 8 f W | '  .@.@.X...i = ; , 9 D W Q ) {  .X.+.O.                                                                                                                                                                                                                          ",
"                                                                                                                                                                                                                                          p w w w 9 8 8 i Y ) ' | +...@.o.a & & : 4 M P E E E ) | |  .                                                                                                                                                                                                                          ",
"                                                                                                                                                                                                                                          y w w 7 3 7 8 q L ( ( ) ' X.o...h & - ; < j C I W W ) ` ` `                                                                                                                                                                                                                           ",
"                                                                                                                                                                                                                                          w w 7 4 1 2 5 0 G E ( W ) ' |  .c ; < ; : q C W ) ! ) ) ) )                                                                                                                                                                                                                           ",
"                                                                                                                                                                                                                                            7 7 8 5 , 2 9 N K Y E ) ) ` ' M : < , , q N P E Q W W ( `                                                                                                                                                                                                                           ",
"                                                                                                                                                                                                                                            p p s y 5 4 e N G L P Y E ! ) C 5 5 5 6 q z H K E W ( ) (                                                                                                                                                                                                                           ",
"                                                                                                                                                                                                                                          x c m n v v c v L Y P P P E Q ) C 7 4 6 0 f B Y E Q ( Q ) (                                                                                                                                                                                                                           ",
"                                                                                                                                                                                                                                          n Z D N V C L P ) ` ` ) ) E E Q H 9 0 q q g G E E ! | `  .Q                                                                                                                                                                                                                           ",
"                                                                                                                                                                                                                                          F F b V P C P ( O. .' { ` ) ( ( P y e q u j G E ! ! | ' | )                                                                                                                                                                                                                           ",
"                                                                                                                                                                                                                                          F m b D F I I F ] ] ] ` | |  . .P a y t d z S I E W ) ) Q W                                                                                                                                                                                                                           ",
"                                                                                                                                                                                                                                        F F D b D I F F R ] R R { | +.+.O.V t y t t z H K E ! ! ) Q W                                                                                                                                                                                                                           ",
"                                                                                                                                                                                                                                        F F F D F R I I ] I I ] ) { |  ./ g y t q d z H J K ! ! W W                                                                                                                                                                                                                             ",
"                                                                                                                                                                                                                                        U F F F F I F T I ] ] F ( { { ] C y y r q d N B H T Q W E W                                                                                                                                                                                                                             ",
"                                                                                                                                                                                                                                        R R F F D I ] [ ] R ] ] { { { R h y y y t d N H G T W E W /                                                                                                                                                                                                                             ",
"                                                                                                                                                                                                                                      U F F T J D R ] ] R ] ] ] ) ] { L a y u f f g N G K E Q E W W                                                                                                                                                                                                                             ",
"                                                                                                                                                                                                                                      R [ D J F D D I ] [ T I [ ) ` ` V a f h f d g z K E E W Q W I                                                                                                                                                                                                                             ",
"                                                                                                                                                                                                                                      R R I F I F J R [ ] T [ ] ( _ R x f i i f g z G K E E E W W I                                                                                                                                                                                                                             ",
"                                                                                                                                                                                                                                      R R Y I I I W [ W R R ] R ( ) F i a y y r u z H K E E E ) (                                                                                                                                                                                                                               ",
"                                                                                                                                                                                                                                    U R U I P P D ] I I R R R R Q (   k y e q q u M H K E E ! ! W                                                                                                                                                                                                                               ",
"                                                                                                                                                                                                                                    R U P I P P U R I I I I I R W     v f a i f g N H E T E ! ! Y                                                                                                                                                                                                                               ",
"                                                                                                                                                                                                                                    R R R Y Y I R T I I T I I R R     k h f f h f B H K K E ! ' /                                                                                                                                                                                                                               ",
"                                                                                                                                                                                                                                  U ~ R Y R Y E W U T T T T Y T       h h a i u f B H E E E W ) R                                                                                                                                                                                                                               ",
"                                                                                                                                                                                                                                  R R Y R R R R T I T T T T T R       h j c f i d B K K E E I T R                                                                                                                                                                                                                               ",
"                                                                                                                                                                                                                                  / R W / R / W I T T I U T R T       h h h h f f S K K T T T W                                                                                                                                                                                                                                 ",
"                                                                                                                                                                                                                                  / / / R W W Y T I Y T T T W         h x h h j g S J T E R Q (                                                                                                                                                                                                                                 ",
"                                                                                                                                                                                                                                R ( ( / W / Q Y I I Y I T R Y         k k s h k k S K T E Q Q Q                                                                                                                                                                                                                                 ",
"                                                                                                                                                                                                                                / ` / / R [ R Y I T T I T R           k k i f g l S K I E ! Q R                                                                                                                                                                                                                                 ",
"                                                                                                                                                                                                                                ( ( / / W / Y I U I I T W I           l k a i k k H I T W ( Q R                                                                                                                                                                                                                                 ",
"                                                                                                                                                                                                                                _ ( / ~ Q R I I I I I T W             k s a i i z H K T T R Q                                                                                                                                                                                                                                   ",
"                                                                                                                                                                                                                              _ ` _ / R R R I I I I Y R F             v k a u u M H K I W Q W                                                                                                                                                                                                                                   ",
"                                                                                                                                                                                                                              ~ ( ( ( / W Y I I I I R R Y             v s a i t N H K I Q ( Q                                                                                                                                                                                                                                   ",
"                                                                                                                                                                                                                              ( ( ~ ( / R I P P I I T T               v s i u u N S I I ) ( (                                                                                                                                                                                                                                   ",
"                                                                                                                                                                                                                            R ~ ( / R R Y U I I P I T F               v i i u u N D P I ( ) W                                                                                                                                                                                                                                   ",
"                                                                                                                                                                                                                            R / / ~ Y R P I P I I R Y                 c i a i u N D K T Q Q (                                                                                                                                                                                                                                   ",
"                                                                                                                                                                                                                            ~ ( / W Y Y I J I I P R P                 c i i u f S H T R ( Q                                                                                                                                                                                                                                     ",
"                                                                                                                                                                                                                            / ~ R R R T P P I L P P                 v k i t r i V D T R ] W                                                                                                                                                                                                                                     ",
"                                                                                                                                                                                                                          R R U U Y Y P P I L J P P                 l h y 0 9 u S H T R Q W                                                                                                                                                                                                                                     ",
"                                                                                                                                                                                                                          Y Y P U I T F L J J J L                   c h r 9 9 g N J T Q ( Q                                                                                                                                                                                                                                     ",
"                                                                                                                                                                                                                          Y Y Y P F P I J J L D D                   v i 9 0 0 k S J Y R Q R                                                                                                                                                                                                                                     ",
"                                                                                                                                                                                                                          P Y I I T P J J J H H F                   k f 0 0 0 l S F Y W Q R                                                                                                                                                                                                                                     ",
"                                                                                                                                                                                                                        P Y P H I E F J J H D H                     k u 0 9 0 l N J Y ( (                                                                                                                                                                                                                                       ",
"                                                                                                                                                                                                                        I R I P F F K J S S D S                     i e 6 6 0 l N J I R R                                                                                                                                                                                                                                       ",
"                                                                                                                                                                                                                        I P L P I D D J D S S                       y 9 5 0 q l N H J F D                                                                                                                                                                                                                                       ",
"                                                                                                                                                                                                                      F P P H J J S D D D S D                       8 7 5 9 t l V S N S D                                                                                                                                                                                                                                       ",
"                                                                                                                                                                                                                      L P P H L S S S J H S                         9 8 8 6 r l N N N D J                                                                                                                                                                                                                                       ",
"                                                                                                                                                                                                                      P I J P J S S S S S D                         e 8 8 6 0 k z S D J F                                                                                                                                                                                                                                       ",
"                                                                                                                                                                                                                      P L D I J S S S S S                           e 8 5 6 0 l N D D D                                                                                                                                                                                                                                         ",
"                                                                                                                                                                                                                    D L D H J S S S S S S                           8 7 5 5 t j N z z B                                                                                                                                                                                                                                         ",
"                                                                                                                                                                                                                    L D D H H N N S S S S                           4 2 2 4 q f l j z B                                                                                                                                                                                                                                         ",
"                                                                                                                                                                                                                    L D N N N z B G B G                             5 1 , , 0 f z z N N                                                                                                                                                                                                                                         ",
"                                                                                                                                                                                                                    D N v f g z z z z S                             7 5 , , q f l M N M                                                                                                                                                                                                                                         ",
"                                                                                                                                                                                                                  V N N g t l z f g z                               8 4 2 2 q u j z N z                                                                                                                                                                                                                                         ",
"                                                                                                                                                                                                                  V v v f d d d g g g                               7 4 , 5 q u l M M                                                                                                                                                                                                                                           ",
"                                                                                                                                                                                                                  c j f t d d t d g                                 5 2 2 6 t f j j j                                                                                                                                                                                                                                           ",
"                                                                                                                                                                                                                  h f 0 t d t d t d                                 7 2 : 4 0 y u u h                                                                                                                                                                                                                                           ",
"                                                                                                                                                                                                                h h i i d d d d d                                   7 1 : 4 0 t q u f                                                                                                                                                                                                                                           ",
"                                                                                                                                                                                                                a a f j f t q d d                                   2 : ; 4 8 0 0 u u                                                                                                                                                                                                                                           ",
"                                                                                                                                                                                                                2 7 8 e q t q u y                                   - * * 1 8 8 9 u r                                                                                                                                                                                                                                           ",
"                                                                                                                                                                                                                + @ % 2 8 6 0 q                                     @ % $ : 4 5 9 7                                                                                                                                                                                                                                             ",
"                                                                                                                                                                                                                  . O * ; 4 4 6                                       O + % = & - -                                                                                                                                                                                                                                             ",
"                                                                                                                                                                                                                        o % ;                                                                                                                                                                                                                                                                                                   ",
"                                                                                                                                                                                                                                                                                                                                                                                                                                                                                                                                ",
"                                                                                                                                                                                                                                                                                                                                                                                                                                                                                                                                ",
"                                                                                                                                                                                                                                                                                                                                                                                                                                                                                                                                ",
"                                                                                                                                                                                                                                                                                                                                                                                                                                                                                                                                "
};
