/* XPM */
static char *out[] = {
/* columns rows colors chars-per-pixel */
"256 256 145 2 ",
"   c None",
".  c #110B06",
"X  c #11100C",
"o  c #1B120E",
"O  c #151310",
"+  c #1D1512",
"@  c #20160F",
"#  c #201712",
"$  c #251A14",
"%  c #291D16",
"&  c #261D19",
"*  c #291E19",
"=  c #2E211A",
"-  c #33251B",
";  c #37281F",
":  c #3B2A1E",
">  c #352721",
",  c #352921",
"<  c #3C2C22",
"1  c #3F3124",
"2  c #412E22",
"3  c #443225",
"4  c #4A3526",
"5  c #45342A",
"6  c #49362A",
"7  c #47382D",
"8  c #4D392C",
"9  c #533D2D",
"0  c #4E3C30",
"q  c #533E31",
"w  c #56402E",
"e  c #59412F",
"r  c #564133",
"t  c #5B4433",
"y  c #5F4837",
"u  c #564439",
"i  c #5B4638",
"p  c #5D493B",
"a  c #604633",
"s  c #634A36",
"d  c #6B4E37",
"f  c #644C3B",
"g  c #694E3A",
"h  c #67503E",
"j  c #6C523E",
"k  c #72553E",
"l  c #654E41",
"z  c #665143",
"x  c #6D5441",
"c  c #6D5847",
"v  c #6C5649",
"b  c #6E594A",
"n  c #715641",
"m  c #755A44",
"M  c #7A5D45",
"N  c #755D4B",
"B  c #7A5E49",
"V  c #7E6047",
"C  c #7D614B",
"Z  c #776051",
"A  c #7C6352",
"S  c #7B645B",
"D  c #82654D",
"F  c #86684E",
"G  c #88694F",
"H  c #826651",
"J  c #866953",
"K  c #8B6D55",
"L  c #846C5A",
"P  c #8A6F59",
"I  c #8E7057",
"U  c #8E725A",
"Y  c #917156",
"T  c #93755C",
"R  c #96785F",
"E  c #99795E",
"W  c #8D7460",
"Q  c #8F786D",
"!  c #927761",
"~  c #967962",
"^  c #9B7C63",
"/  c #947B6A",
"(  c #9A7E68",
")  c #A07F63",
"_  c #9E8066",
"`  c #9D816A",
"'  c #9C8372",
"]  c #A28266",
"[  c #A4856A",
"{  c #A8876B",
"}  c #A6886D",
"|  c #AA8A6E",
" . c #A38772",
".. c #A68972",
"X. c #AD8D72",
"o. c #A48B7A",
"O. c #AA8E79",
"+. c #B08F72",
"@. c #AF9075",
"#. c #AE9179",
"$. c #B29275",
"%. c #B4957A",
"&. c #B8977A",
"*. c #B6987E",
"=. c #BA9A7D",
"-. c #C09D7D",
";. c #AD9181",
":. c #B29781",
">. c #B69A82",
",. c #BB9D82",
"<. c #BA9F89",
"1. c #BEA185",
"2. c #BEA289",
"3. c #C09F81",
"4. c #C3A385",
"5. c #C8A787",
"6. c #C4A68A",
"7. c #C8A788",
"8. c #C6A88B",
"9. c #CAAB8C",
"0. c #C0A790",
"q. c #C5AB93",
"w. c #CCAE91",
"e. c #CEB193",
"r. c #CEB49A",
"t. c #D1B495",
"y. c #D5B897",
"u. c #D3B799",
"i. c #D6BA9A",
"p. c #D9BE9D",
"a. c #D6BDA2",
"s. c #DABFA1",
"d. c #DBC09F",
"f. c #DDC3A3",
"g. c #DAC5AB",
"h. c #DCCAAE",
"j. c #DBCBB3",
"k. c #DED0BB",
"l. c #E0C7A6",
"z. c #E0C8A7",
"x. c #E2CCAB",
"c. c #E0CEB3",
"v. c #E5D3B5",
"b. c #E5D5BA",
"n. c #E8D8BD",
/* pixels */
"                                                                                                                                                                                                                                                                                                                                                                                                                                                                                                                                ",
"                                                                                                                                                                                                                                                                                                                                                                                                                                                                                                                                ",
"                                                                                                                                                                                                                                                                                                                                                                                                                                                                                                                                ",
"                                                                                                                                                                                                                                                                                                                                                                                                                                                                                                                                ",
"                                                                                                                                                                                                                                                                                                                                                                                                                                                                                                                                ",
"                                                                                                                                                                                                                                                                                                                                                                                                                                                                                                                                ",
"                                                                                                                                                                                                                                                                                                                                                                                                                                                                                                                                ",
"                                                                                                                                                                                                                                                                                                                                                                                                                                                                                                                                ",
"                                                                                                                                                                                                                                                                                                                                                                                                                                                                                                                                ",
"                                                                                                                                                                                                                                                                                                                                                                                                                                                                                                                                ",
"                                                                                                                                                                                                                                                                                                                                                                                                                                                                                                                                ",
"                                                                                                                                                                                                                                                                                                                                                                                                                                                                                                                                ",
"                                                                                                                                                                                                                                                                                                                                                                                                                                                                                                                                ",
"                                                                                                                                                                                                                                                                                                                                                                                                                                                                                                                                ",
"                                                                                                                                                                                                                                                                                                                                                                                                                                                                                                                                ",
"                                                                                                                                                                                                                                                                                                                                                                                                                                                                                                                                ",
"                                                                                                                                                                                                                                                                                                                                                                                                                                                                                                                                ",
"                                                                                                                                                                                                                                                                                                                                                                                                                                                                                                                                ",
"                                                                                                                                                                                                                                                                                                                                                                                                                                                                                                                                ",
"                                                                                                                                                                                                                                                                                                                                                                                                                                                                                                                                ",
"                                                                                                                                                                                                                                                                                                                                                                                                                                                                                                                                ",
"                                                                                                                                                                                                                                                                                                                                                                                                                                                                                                                                ",
"                                                                                                                                                                                                                                                                                                                                                                                                                                                                                                                                ",
"                                                                                                                                                                                                                                                                                                                                                                                                                                                                                                                                ",
"                                                                                                                                                                                                                                                                                                                                                                                                                                                                                                                                ",
"                                                                                                                                                                                                                                                                                                                                                                                                                                                                                                                                ",
"                                                                                                                                                                                                                                                                                                                                                                                                                                                                                                                                ",
"                                                                                                                                                                                                                                                                                                                                                                                                                                                                                                                                ",
"                                                                                                                                                                                                                                                                                                                                                                                                                                                                                                                                ",
"                                                                                                                                                                                                                                                                                                                                                                                                                                                                                                                                ",
"                                                                                                                                                                                                                                                                                                                                                                                                                                                                                                                                ",
"                                                                                                                                                                                                                  j.n.n.n.n.b.b.k.j.k.j.                                                                                                                                                                                                                                                                                        ",
"                                                                                                                                                                                                                  a.z.z.z.x.x.x.x.v.x.h.v.v.v.v.v.v.v.h.h.h.x.                                                                                                                                                                                                                                                                  ",
"                                                                                                                                                                                                                  d.y.d.d.d.d.d.f.d.d.d.f.f.d.d.z.z.z.z.x.x.x.d.f.f.f.s.a.u.u.r.                                                                                                                                                                                                                                                ",
"                                                                                                                                                                                                                  x.d.d.d.d.d.d.d.d.d.d.d.d.d.d.d.d.d.d.d.d.d.y.y.y.q.9.9.6.7.w.q.                                                                                                                                                                                                                                              ",
"                                                                                                                                                                                                                  h.d.y.d.y.d.y.d.d.d.d.d.d.d.d.d.d.d.d.d.d.d.y.y.t.9.7.9.3.3.3.<.                                                                                                                                                                                                                                              ",
"                                                                                                                                                                                                                  d.d.d.y.y.y.y.d.d.9.d.d.d.9.d.d.d.d.d.y.y.d.d.t.e.9.9.e.9.9.7.,.                                                                                                                                                                                                                                              ",
"                                                                                                                                                                                                                d.d.d.q.y.y.y.e.2.d.d.-.d.d.d.-.2.d.d.-.y.y.e.e.e.9.e.e.e.e.t.e.6.                                                                                                                                                                                                                                              ",
"                                                                                                                                                                                                                2.d.q.d.y.9.9.9.-.d.-.d.d.-.-.d.-.d.d.-.y.d.y.e.9.w.e.e.e.w.w.9.2.                                                                                                                                                                                                                                              ",
"                                                                                                                                                                                                                q.q.d.-.9.9.8.8.-.9.2.-.2.-.d.-.d.d.2.d.e.e.e.e.e.e.9.9.9.9.9.7.                                                                                                                                                                                                                                                ",
"                                                                                                                                                                                                                q.e.e.q.8.8.4.4.2.d.9.9.9.9.9.9.8.5.9.5.9.9.e.9.9.9.7.7.7.8.9.8.                                                                                                                                                                                                                                                ",
"                                                                                                                                                                                                                q.e.8.8.4.1.4.4.-.-.9.-.-.9.9.9.8.8.8.5.9.9.5.5.7.3.6.6.7.8.8.8.                                                                                                                                                                                                                                                ",
"                                                                                                                                                                                                                q.9.8.4.1.=.-.4.-.9.-.9.8.-.8.8.5.5.5.5.9.9.5.9.7.6.7.7.8.9.9.8.                                                                                                                                                                                                                                                ",
"                                                                                                                                                                                                                q.8.q.4.1.4.1.4.2.-.8.2.8.9.-.8.5.8.5.8.5.9.9.9.w.9.7.9.9.9.w.9.                                                                                                                                                                                                                                                ",
"                                                                                                                                                                                                                8.4.4.4.4.-.=.=.4.1.-.4.5.8.8.8.5.5.5.5.9.9.9.9.w.w.9.7.7.9.9.q.                                                                                                                                                                                                                                                ",
"                                                                                                                                                                                                                4.4.1.=.1.=.=.=.=.-.1.-.-.-.4.4.9.5.4.5.-.9.-.8.9.w.w.9.5.9.9.9.                                                                                                                                                                                                                                                ",
"                                                                                                                                                                                                                1.=.=.&.&.=.1.=.*.*.=.=.-.-.-.4.8.-.9.-.9.9.8.8.7.9.7.9.6.6.7.0.                                                                                                                                                                                                                                                ",
"                                                                                                                                                                                                                =.&.&.$.+.$.$.&.$.$.$.*.*.=.-.-.-.8.-.9.9.-.8.8.7.7.9.7.8.7.9.8.                                                                                                                                                                                                                                                ",
"                                                                                                                                                                                                                @.+.+.$.| | | +.+.+.$.$.&.=.&.-.-.-.-.-.w.-.8.9.7.7.7.7.9.9.9.4.                                                                                                                                                                                                                                                ",
"                                                                                                                                                                                                              o.} | | | +.| | +.+.+.+.$.$.$.&.&.&.-.=.-.-.9.8.-.3.4.4.7.7.7.8.2.                                                                                                                                                                                                                                                ",
"                                                                                                                                                                                                              o.| | | | | { | | | X.+.| X.| +.$.&.=.=.=.2.-.-.-.6.3.4.5.4.9.6.2.                                                                                                                                                                                                                                                ",
"                                                                                                                                                                                                              o.| { { { ] { | +.+.+.$.+.| | | | +.$.&.=.-.-.-.-.3.4.3.4.4.6.4.                                                                                                                                                                                                                                                  ",
"                                                                                                                                                                                                               .] { ] ] ] { | +.+.$.| +.| { { { | +.$.&.&.&.-.-.-.4.-.4.4.4.3.                                                                                                                                                                                                                                                  ",
"                                                                                                                                                                                                              ' ] ] ] ] ] ] { | +.+.| | | X.| | | +.+.$.&.&.&.-.=.=.=.-.-.4.,.                                                                                                                                                                                                                                                  ",
"                                                                                                                                                                                                              ` ] ] ] ] ] ] ] { | | { | | | X.| +.+.+.$.$.$.&.-.&.&.&.&.=.-.=.                                                                                                                                                                                                                                                  ",
"                                                                                                                                                                                                              } _ ] _ ] ] ] _ ] | } { | | | | | | | +.+.$.$.+.$.%.%.&.&.&.-.=.                                                                                                                                                                                                                                                  ",
"                                                                                                                                                                                                              ( Y Y ] Y ] ] ] ] | +.{ { { { { [ | | +.+.$.$.$.+.+.$.&.=.3.3.&.                                                                                                                                                                                                                                                  ",
"                                                                                                                                                                                                              J G Y G G Y Y ] ] | | { { { { { { | | | +.$.$.$.$.+.+.+.&.=.=.$.                                                                                                                                                                                                                                                  ",
"                                                                                                                                                                                                              L G G G G G G Y Y ] ] { ] { ] { { { { | +.+.$.$.+.+.+.+.&.&.&.%.                                                                                                                                                                                                                                                  ",
"                                                                                                                                                                                                              T G G G G G G G Y E E ] ] ] ] ] { { { +.+.+.+.$.+.+.| +.+.$.+.X.                                                                                                                                                                                                                                                  ",
"                                                                                                                                                                                                            S C G G G G G G G G Y E { ] ] ] ] { { | | +.+.+.+.+.| +.| | | | ..                                                                                                                                                                                                                                                  ",
"                                                                                                                                                                                                            v h m V V D G G Y G Y E ] ] ] ] ] ] { { | | +.+.+.{ ] { { { | | ]                                                                                                                                                                                                                                                   ",
"                                                                                                                                                                                                              7 8 w r t s j d V D G Y E ] E ] { { { | | +.+.$.{ ] | { ] ] {                                                                                                                                                                                                                                                     ",
"                                                                                                                                                                                                                                  8 4 4 e a d k V G Y E ~ ] { ^ E ] { ] ] ]                                                                                                                                                                                                                                                     ",
"                                                                                                                                                                                                                                    # o o + $ $ % - > q   z m x n N C H J P                                                                                                                                                                                                                                                     ",
"                                                                                                                                                                                                                                    & + + + @ # # o #                                                                                                                                                                                                                                                                           ",
"                                                                                                                                                                                                                                    , > - - - - = % ,                                                                                                                                                                                                                                                                           ",
"                                                                                                                                                                                                                                    3 6 8 8 9 8 6 7 f                                                                                                                                                                                                                                                                           ",
"                                                                                                                                                                                                                                    8 r s f f l s f S                                                                                                                                                                                                                                                                           ",
"                                                                                                                                                                                                                                    p x N m m N m m /                                                                                                                                                                                                                                                                           ",
"                                                                                                                                                                                                                                    b D H C C H H P [                                                                                                                                                                                                                                                                           ",
"                                                                                                                                                                                                                                    N P U K K P T ~ ..                                                                                                                                                                                                                                                                          ",
"                                                                                                                                                                                                                                    H U Y T P T ~ ) O.                                                                                                                                                                                                                                                                          ",
"                                                                                                                                                                                                                                    K ~ U T P U E [ %.                                                                                                                                                                                                                                                                          ",
"                                                                                                                                                                                                                                    A ^ T ~ ~ T T } ,.                                                                                                                                                                                                                                                                          ",
"                                                                                                                                                                                                                                    c T T ~ ^ ~ T ~ $.                                                                                                                                                                                                                                                                          ",
"                                                                                                                                                                                                                                    Z P ~ )  .[ ] ~ ] #.                                                                                                                                                                                                                                                                        ",
"                                                                                                                                                                                                              >.<.4.6.2.3.3.q.6.2.2.>.,.<.<.,.3.,.,.=.<.<.>.:.;.;.;.                                                                                                                                                                                                                                                            ",
"                                                                                                                                                                                                               .{ ] ..X.| $.&.&.=.=.=.3.3.4.4.5.7.7.7.5.6.6.6.6.4.<.,.>.>.:.#.                                                                                                                                                                                                                                                  ",
"                                                                                                                                                                                                              [ { { } | | | $.3.,.,.-.-.-.-.-.-.4.3.3.,.,.3.4.3.,.,.,.&.>.>.%.                                                                                                                                                                                                                                                  ",
"                                                                                                                                                                                                              ..| } | +.+.+.&.w.r.r.q.2.2.-.=.-.=.-.=.=.-.-.-.2.,.,.>.>.,.:.:.                                                                                                                                                                                                                                                  ",
"                                                                                                                                                                                                              O.X.| +.+.$.%.3.a.d.f.g.d.d.2.-.=.=.=.=.*.=.-.2.2.,.,.>.&.&.:.%.                                                                                                                                                                                                                                                  ",
"                                                                                                                                                                                                              %.&.%.+.+.%.3.w.e.r.d.d.d.d.d.d.2.9.=.=.*.*.=.=.=.,.,.,.*.*.%.:.                                                                                                                                                                                                                                                  ",
"                                                                                                                                                                                                              $.&.&.&.$.%.3.w.w.r.e.w.q.r.d.d.d.-.=.2.=.=.-.=.2.3.3.,.&.,.>.%.                                                                                                                                                                                                                                                  ",
"                                                                                                                                                                                                              #.+.+.+.+.&.e.t.t.r.t.e.w.9.d.2.1.*.$.*.-.-.-.-.-.3.,.,.*.%.%.%.                                                                                                                                                                                                                                                  ",
"                                                                                                                                                                                                            / X.| { +.+.3.p.s.s.t.r.e.e.2.d.2.=.#.@.@.%.=.-.2.-.,.,.,.,.#.$.:.                                                                                                                                                                                                                                                  ",
"                                                                                                                                                                                                            ( O.| { { +.e.y.p.i.u.r.r.y.9.2.-.$.@.@.@.} @.=.=.-.3.,.,.,.:.O.(                                                                                                                                                                                                                                                   ",
"                                                                                                                                                                                                            ( +.+.{ { 3.y.y.t.t.e.e.e.e.d.9.=.@.@.@.@.@.@.=.=.-.,.,.,.:.,.$.                                                                                                                                                                                                                                                    ",
"                                                                                                                                                                                                            ( X.{ ] | e.t.p.y.t.e.e.9.w.q.4.%.$.+.+.@.| $.&.*.=.,.3.3.,.,.,.                                                                                                                                                                                                                                                    ",
"                                                                                                                                                                                                            / { { ( 4.i.t.y.p.y.i.u.t.t.9.=.%.@.@.+.| } &.&.=.=.,.,.,.3.2.,.                                                                                                                                                                                                                                                    ",
"                                                                                                                                                                                                            / } ] $.u.i.i.y.y.y.u.u.y.t.4.&.%.$.+.| | X.$.&.&.%.=.=.,.=.,.,.                                                                                                                                                                                                                                                    ",
"                                                                                                                                                                                                            ~ ) { ,.e.y.u.e.e.t.t.t.e.q.4.=.&.$.+.| | +.&.&.&.&.&.&.>.&.,.,.                                                                                                                                                                                                                                                    ",
"                                                                                                                                                                                                            ~ ) $.9.e.w.w.w.e.e.e.w.w.1.&.&.&.$.| $.| +.$.%.$.%.,.=.,.=.,.,.                                                                                                                                                                                                                                                    ",
"                                                                                                                                                                                                            / [ 9.p.i.t.w.w.w.w.9.w.8.=.&.&.$.$.$.+.| &.$.$.$.$.%.,.=.=.&.,.                                                                                                                                                                                                                                                    ",
"                                                                                                                                                                                                            / %.y.f.p.y.t.w.8.8.8.5.=.&.&.&.&.$.$.+.$.%.$.$.$.@.%.&.=.&.&.,.                                                                                                                                                                                                                                                    ",
"                                                                                                                                                                                                            ( 6.t.y.t.e.e.e.e.9.8.-.&.&.&.&.$.$.$.X.%.%.$.$.$.@.+.%.&.*.&.,.                                                                                                                                                                                                                                                    ",
"                                                                                                                                                                                                            #.t.w.w.t.9.9.e.w.9.-.=.=.*.%.$.$.+.+.+.&.&.$.$.%.$.+.+.$.&.&.:.                                                                                                                                                                                                                                                    ",
"                                                                                                                                                                                                            q.y.t.y.u.y.t.9.9.7.-.=.=.=.%.$.+.| | $.&.&.$.$.$.$.$.+.%.%.%.&.                                                                                                                                                                                                                                                    ",
"                                                                                                                                                                                                            u.t.t.t.t.u.y.w.9.3.&.&.&.$.$.$.+.| | &.$.&.$.&.$.%.%.%.%.&.&.&.                                                                                                                                                                                                                                                    ",
"                                                                                                                                                                                                          e.t.e.e.e.4.9.w.w.4.&.&.&.$.$.$.$.| | $.$.$.&.*.$.*.$.%.%.%.%.*.=.                                                                                                                                                                                                                                                    ",
"                                                                                                                                                                                                          e.t.t.e.9.9.9.3.,.%.$.&.$.$.&.$.+.| X.$.$.$.$.&.&.$.&.%.$.%.%.%.*.                                                                                                                                                                                                                                                    ",
"                                                                                                                                                                                                        r.i.t.e.t.y.t.t.9.3.&.%.$.&.&.$.+.+.| X.$.$.$.+.$.$.$.$.$.$.%.%.$.*.                                                                                                                                                                                                                                                    ",
"                                                                                                                                                                                                      q.u.t.e.t.t.t.w.e.t.7.%.+.$.&.$.+.+.| X.X.$.$.$.$.$.+.$.+.+.$.$.$.$.%.                                                                                                                                                                                                                                                    ",
"                                                                                                                                                                                                      r.t.t.t.t.e.w.9.9.9.=.$.+.$.$.+.+.+.| X.$.$.$.+.+.$.$.@.@.+.+.$.$.%.%.                                                                                                                                                                                                                                                    ",
"                                                                                                                                                                                                    q.y.t.y.t.t.e.t.e.e.5.&.$.+.+.+.+.+.| | X.$.$.$.$.$.X.$.$.X.+.+.+.+.$.%.                                                                                                                                                                                                                                                    ",
"                                                                                                                                                                                                    e.e.e.t.t.e.e.9.e.e.5.&.+.| | +.+.| | | X.@.$.$.$.$.$.%.$.X.+.X.+.O.X.#.                                                                                                                                                                                                                                                    ",
"                                                                                                                                                                                                  e.t.t.t.t.e.e.e.7.7.4.&.+.+.+.+.+.+.{ } | X.X.+.$.%.$.$.%.$.| X.+.+.+.$.%.                                                                                                                                                                                                                                                    ",
"                                                                                                                                                                                                  e.e.e.t.e.e.w.9.5.4.&.+.{ +.{ | | | { | | X.@.$.$.$.$.$.$.$.$.+.O.+.X.+.#.                                                                                                                                                                                                                                                    ",
"                                                                                                                                                                                                8.e.w.w.e.w.w.9.5.-.&.+.] ] { ] ] ] ] | X.| X.@.X.X.$.$.$.| X.X.| | X.X.@.#.                                                                                                                                                                                                                                                    ",
"                                                                                                                                                                                                q.e.9.6.8.8.8.9.5.=.+.] ) E ] ] ] ] ] | } } | X.@.X.X.$.$.X.$.| | X.| X.| O.                                                                                                                                                                                                                                                    ",
"                                                                                                                                                                                              2.8.5.2.4.8.6.1.=.-.%.] ] ] E E ] ] _ [ [ } } X.X.X.$.$.+.$.$.X.X...| X.@.+.X.                                                                                                                                                                                                                                                    ",
"                                                                                                                                                                                              2.4.2.4.8.1.=.&.X.&.| ] E ] E ] E E ] [ } } X.X.| X.@.| X.@.| X.X.} | +.+.#.+.                                                                                                                                                                                                                                                    ",
"                                                                                                                                                                                            ;.,.&.1.8.4.,.&.} _ ) ) ) ^ ^ E E T E { [ [ [ | X.@.X...| X.X.| X.X.X.| | +.$.%.                                                                                                                                                                                                                                                    ",
"                                                                                                                                                                                            %.$.@...@.&.%.| [ _ E E ^ ^ E T Y Y _ { [ [ [ } } [ } [ { [ } X.X.@.$.X.X.X.X.$.                                                                                                                                                                                                                                                    ",
"                                                                                                                                                                                            X.X.[ ^ T E _ ^ ~ ~ E E E E E Y Y E ] [ [ [ [ } [ ] [ ] ] { } | | | +.@.X.| X.$.                                                                                                                                                                                                                                                    ",
"                                                                                                                                                                                          ..} ] ~ E _ ^ Y T ~ ~ ^ E Y Y Y Y T ) [ [ ` { [ [ [ [ ] ] ] { { { } | | $.$...} X.                                                                                                                                                                                                                                                    ",
"                                                                                                                                                                                          ] ^ P H H P ~ T ` ` ~ ~ E Y K K K Y ~ _ _ _ _ ] _ ] ` ] ] ] { ] { } | } | X.| | X.                                                                                                                                                                                                                                                    ",
"                                                                                                                                                                                        / ' X.' ! ! ! ( ( [ ~ T E E T K G K T T T R _ _ ` _ ] _ ) ] ] ( ] ] [ ] ^ ] { | } |                                                                                                                                                                                                                                                     ",
"                                                                                                                                                                                        0.w.w.q.0.6.6.<.:.#.#.^ J J K K J Y ~ T U T _ _ _ _ _ _ ^ ~ R E ^ _ ] ] ^ E ~ ] [ }                                                                                                                                                                                                                                                     ",
"                                                                                                                                                                                        O.#.@.$. .( ) ) } O.%.%. .J D F J K Y T R T T T _ _ _ _ ^ ~ E R R _ ] ] ) ^ ^ _ ] | o.                                                                                                                                                                                                                                                  ",
"                                                                                                                                                                                          ` _ _ [ ) ^ [ ,.=.X.[ ..[ ( P K P P Y T T T R _ T _ _ _ _ T T E ~ _ ^ ( ) ) ( { }  .                                                                                                                                                                                                                                                  ",
"                                                                                                                                                                                          T ^ ~ ) } ) [ X.=.,.O...} } ( U Y U K T R T _ T _ T T T T T T E ~ ~ ^ ~ ^ ^ ] ] { }                                                                                                                                                                                                                                                   ",
"                                                                                                                                                                                          U ~ ~ ~ ] } | { | ,.=.#.| ..[ P P K K K U R _ _ T _ T R T R T E R ^ ~ ^ E ~ ^ _ ] [                                                                                                                                                                                                                                                   ",
"                                                                                                                                                                                            T T T ~ ) ) E ^ +.,.$.X.| | T K K K K J K U U _ T _ _ _ T _ E E ~ _ ^ E ^ ~ _ [  .                                                                                                                                                                                                                                                  ",
"                                                                                                                                                                                            A J K U Y Y T ~ [ =.%.+.X.X.! J H J J K K U U T _ T R _ R ~ R R R ~ E ~ E ~ ~ ] }                                                                                                                                                                                                                                                   ",
"                                                                                                                                                                                            m m m D F K K Y E %.%.+.+.+.^ K K H A F F K I T T T T R R _ R T T U T T T T ~ ^ ]                                                                                                                                                                                                                                                   ",
"                                                                                                                                                                                              z s s n D F F F | %.#.+.+.) K H H F F C F K K U U T T R ~ R T T T Y T Y ~ ~ ^ _                                                                                                                                                                                                                                                   ",
"                                                                                                                                                                                              s y t l B D F D ) %.+.+.+.| J H J K A F C C K K I U T T T T U T U T T T Y ~ ~ ^                                                                                                                                                                                                                                                   ",
"                                                                                                                                                                                              f h f f m M V V T $.%.%.$.+.A C C K J H H D D H H K P P Y Y P P P K P U K U T E                                                                                                                                                                                                                                                   ",
"                                                                                                                                                                                                C C C V M M V K $.*.=.*.$.K V C H H H H K H H D G K P T T T Y P K K K K U U T                                                                                                                                                                                                                                                   ",
"                                                                                                                                                                                                c N C A V V V G | =.1.=.&._ Z V D M M D H K K K K K K Y Y P K P K K P K K K U                                                                                                                                                                                                                                                   ",
"                                                                                                                                                                                                u u f M K V V D ` 1.-.=.%._ m V M M M D D H D D K H P P P Y K K P K P K K K U                                                                                                                                                                                                                                                   ",
"                                                                                                                                                                                                  r r y C C C F _ -.1.1.1.} V V m m m m D D D D H K H K K P P K J J K K K J K P                                                                                                                                                                                                                                                 ",
"                                                                                                                                                                                                  r w u n C C F F +.-.1.2.%.c j x n n n x n x D H H H G J K Y K J J J J H J P P                                                                                                                                                                                                                                                 ",
"                                                                                                                                                                                                  w w r h C C C C } 1.1.1.*.A j g x n x x d n m m D H H H H J J K J F J J J J P                                                                                                                                                                                                                                                 ",
"                                                                                                                                                                                                    7 r f V F F D _ -.-.1.=.K j n x x n n x d l n n D D D H H H J J J H H H H L                                                                                                                                                                                                                                                 ",
"                                                                                                                                                                                                    r r u h V A G T &.-.1.1.U x x x x g n x j g x n n m M D D D H H D D N B B H                                                                                                                                                                                                                                                 ",
"                                                                                                                                                                                                    1 w w w h L T Y %.1.1.1.~ m n g g l g x n x x n n n n n M D D D N m m x m x                                                                                                                                                                                                                                                 ",
"                                                                                                                                                                                                      8 4 5 r C R Y @.1.1.1.` j n n g s g g x M P J H n a f f p t q 8 8 6 1 5                                                                                                                                                                                                                                                   ",
"                                                                                                                                                                                                      3 4 w w n I J ] 1.1.1.} w 4 8 4 4 a n l J ( ( ( ~ J P T P b                                                                                                                                                                                                                                                               ",
"                                                                                                                                                                                                        5 w w p H H U *.<.4...< o % - - t a a H o.....O. . .O.) L                                                                                                                                                                                                                                                               ",
"                                                                                                                                                                                                        w 5 w y C V G $.3.3.:.0 . % : 2 8 e t D ) O...) ..X.X.X./                                                                                                                                                                                                                                                               ",
"                                                                                                                                                                                                        7 1 w r V V D | ,.4.3.f . @ : 4 e 9 9 D ..O.O...X.X.@.#.' Q                                                                                                                                                                                                                                                             ",
"                                                                                                                                                                                                          1 w u M M M [ ,.,.3.n . @ - 4 q a a D  .$.X.X.O.@.$.*.o.'                                                                                                                                                                                                                                                             ",
"                                                                                                                                                                                                          3 3 u C m k R =.1.8.A o o $ 2 w d j V ..$.#.$.%.$.:.>.;.O.                                                                                                                                                                                                                                                            ",
"                                                                                                                                                                                                            5 r Z V V I %.-.2.` = # @ - 9 w j V } %.%.:.,.,.=.,.>.#.>.                                                                                                                                                                                                                                                          ",
"                                                                                                                                                                                                            0 0 m F C G X.1.2.O., & + - 8 9 s k  .O.$.,.,.,.,.>.>.%.<.                                                                                                                                                                                                                                                          ",
"                                                                                                                                                                                                            0 5 s D C G } 1.1.#.7 = $ = 8 8 a k [ %.%.,.,.,.=.,.,.>.2.                                                                                                                                                                                                                                                          ",
"                                                                                                                                                                                                              1 w V C V _ *.*.#.p , = > 8 w g j ^ %.%.,.3.3.&.,.*.,.2.2.                                                                                                                                                                                                                                                        ",
"                                                                                                                                                                                                              1 , y C M K @.@.#.v 5 < , 4 t f k ~ #.+.%.<.0.=.>.%.<.2.6.                                                                                                                                                                                                                                                        ",
"                                                                                                                                                                                                              1 , 1 t t k ` #.%.Z 7 3 7 8 w e d ~ %.+.%.,.,.,.=.%.,.3.8.                                                                                                                                                                                                                                                        ",
"                                                                                                                                                                                                                : : 4 3 r R #.#.L 0 5 8 8 9 9 f T #.&.>.,.,.%.>.%.,.2.6.6.                                                                                                                                                                                                                                                      ",
"                                                                                                                                                                                                                - : 8 w e G @.#./ i u u 6 q 9 k Y $.%.%.%.,.,.:.:.,.6.8.0.                                                                                                                                                                                                                                                      ",
"                                                                                                                                                                                                                  - 4 t d D ..*.' p p u 8 8 9 d F | $.$.%.,.%.%.$.,.6.0.q.                                                                                                                                                                                                                                                      ",
"                                                                                                                                                                                                                  - ; 9 d m } #.o.l p u 5 6 4 t D | $.%.%.=.,.%.%.,.2.8.q.2.                                                                                                                                                                                                                                                    ",
"                                                                                                                                                                                                                  - = 1 w h ` #.O.b l 5 < 8 9 t M } %.$.%.%.%.%.:.:.,.6.q.q.                                                                                                                                                                                                                                                    ",
"                                                                                                                                                                                                                    * = 3 w K X.O.S y 6 4 9 9 a M { +.+.$.%.%.%.%.>.2.2.8.0.                                                                                                                                                                                                                                                    ",
"                                                                                                                                                                                                                    * % = : f ^ / Z i 0 9 9 9 a k { +.+.$.%.=.%.*.*.=.1.8.8.2.                                                                                                                                                                                                                                                  ",
"                                                                                                                                                                                                                      & $ & - r l l p q 9 9 9 q k ) +.%.$.%.>.&.>.*.*.1.2.8.0.                                                                                                                                                                                                                                                  ",
"                                                                                                                                                                                                                      + + + $     l p q q 9 q q k ^ +.+.%.&.=.>.%.%.,.1.2.q.6.                                                                                                                                                                                                                                                  ",
"                                                                                                                                                                                                                                    p u 0 q 9 q j E +.+.+.=.,.,.:.>.,.,.1.8.2.1.                                                                                                                                                                                                                                                ",
"                                                                                                                                                                                                                                    l u q u q t d T +.+.+.>.,.<.*.>.,.,.2.2.8.2.                                                                                                                                                                                                                                                ",
"                                                                                                                                                                                                                                    l u q q q e d Y | +.%.%.,.,.,.*.*.>.1.2.8.2.                                                                                                                                                                                                                                                ",
"                                                                                                                                                                                                                                    l p q a e q d K | +.+.%.,.,.1.>.%.%.1.2.8.6.<.                                                                                                                                                                                                                                              ",
"                                                                                                                                                                                                                                    l p t q q t s G +.+.@.%.%.,.<.>.%.#.,.2.8.2.,.                                                                                                                                                                                                                                              ",
"                                                                                                                                                                                                                                    l f t q q q s D | +.X.%.*.*.,.*.%.$.*.1.6.2.<.                                                                                                                                                                                                                                              ",
"                                                                                                                                                                                                                                    l l a q q a s D | X.@.%.%.,.,.<.%.$.%.,.2.1.*.%.                                                                                                                                                                                                                                            ",
"                                                                                                                                                                                                                                    z l s q e q a M { X.X.#.%.*.>.,.*.$.#.>.2.2.*.*.                                                                                                                                                                                                                                            ",
"                                                                                                                                                                                                                                    z l t q t r s k { +.X.#.:.>.,.>.*.$.#.*.2.2.>.*.                                                                                                                                                                                                                                            ",
"                                                                                                                                                                                                                                    z l r q q r a m ) | X.$.=.,.,.,.=.#.#.%.1.8.,.*.>.                                                                                                                                                                                                                                          ",
"                                                                                                                                                                                                                                    z l i q r e a m ) +.X.$.%.,.=.>.*.@.@.$.>.2.2.,.>.                                                                                                                                                                                                                                          ",
"                                                                                                                                                                                                                                    v x s r t t t d E +.X.$.%.&.>.1.*.X.@.%.*.2.6.<.,.                                                                                                                                                                                                                                          ",
"                                                                                                                                                                                                                                    N N l r t t a d T +.X.+.%.:.1.>.#.[ @.@.*.*.,.,.>.>.                                                                                                                                                                                                                                        ",
"                                                                                                                                                                                                                                      N p u t r a s Y X.X.+.$.%.=.1.%._ | @.X.@.#.>.1.,.                                                                                                                                                                                                                                        ",
"                                                                                                                                                                                                                                      v p t t r t d K X.| X.#.:.,.>.$._ _ [ } @.#.*.,.,.                                                                                                                                                                                                                                        ",
"                                                                                                                                                                                                                                      z p i y y t s G | X.X.+.%.>.1.%.~ U _ [ @.#.*.,.<.>.                                                                                                                                                                                                                                      ",
"                                                                                                                                                                                                                                      v p y y y y s J | X.X.@.#.=.1.$.~ U ` [ } @.#.,.1.>.                                                                                                                                                                                                                                      ",
"                                                                                                                                                                                                                                      z p i s f s g D X.@.X.@.%.%.=.&.U J _ [ ` ..#.*.2.2.                                                                                                                                                                                                                                      ",
"                                                                                                                                                                                                                                      z p u l h s d V X.@.@.@.$.#.=.=.T C ! [ [ ..@.#.<.2.>.                                                                                                                                                                                                                                    ",
"                                                                                                                                                                                                                                      l p i i y s s M { X.@.@.#.#.*.>._ C U ` ` ..@.#.>.2.2.                                                                                                                                                                                                                                    ",
"                                                                                                                                                                                                                                      p i i u t s g B } @.$.@.%.%.%.=.` x K ~ ` [ #.%.%.>.2.                                                                                                                                                                                                                                    ",
"                                                                                                                                                                                                                                      p u r q t f h N ] @.$.$.@.$.%.>.` f C U ` ' #.#.*.*.2.                                                                                                                                                                                                                                    ",
"                                                                                                                                                                                                                                      p i r r r y g m ( @.#.@.@.@.$.&.[ y m P ( ` X.%.#.*.<.2.                                                                                                                                                                                                                                  ",
"                                                                                                                                                                                                                                      i i r q r r r g ~ #.@.@.@.@.@.$.[ y h H ~ ' X.#.%.%.%.<.                                                                                                                                                                                                                                  ",
"                                                                                                                                                                                                                                      p u r r r q 9 t Y X.@.@.@.$.$.$.} s t V U `  .#.%.>.*.>.;.                                                                                                                                                                                                                                ",
"                                                                                                                                                                                                                                        i u r r r r t K X.X.X.@.@.@.$...j 8 f J ^ ` X.#.#.>.>.>.                                                                                                                                                                                                                                ",
"                                                                                                                                                                                                                                        i r 0 0 r q t H ..@.X.@.X.$.$.X.h e s C ~ _ ` #.:.*.>.>.                                                                                                                                                                                                                                ",
"                                                                                                                                                                                                                                        r 8 7 8 9 9 y B  .....X.$.+.+.+.h 4 t M U ` ..#.%.#.%.:.:.                                                                                                                                                                                                                              ",
"                                                                                                                                                                                                                                        1 < 1 7 8 q a B )  .....X.X.$.X.f < 4 s H ( X.O.#.%.:.%.>.                                                                                                                                                                                                                              ",
"                                                                                                                                                                                                                                        5 1 5 7 8 9 q n ) [ { X.X.X.X.X.h - 2 9 m ~ } X.#.%.%.#.:.                                                                                                                                                                                                                              ",
"                                                                                                                                                                                                                                        q q 7 7 2 8 8 t ! [ ..{ X.X.| X.x = ; 3 t P _ [ ..@.#.#.#...                                                                                                                                                                                                                            ",
"                                                                                                                                                                                                                                        u q 0 0 8 8 8 q P ( ) ) ..X.| X.N = = : 4 N U R ~ _ [ [ ..}                                                                                                                                                                                                                             ",
"                                                                                                                                                                                                                                        u q 0 0 7 7 8 q H T ~ ) ) O.| X.M = % - 2 x H Y K Y ~ ) [ [                                                                                                                                                                                                                             ",
"                                                                                                                                                                                                                                          q 7 7 2 3 4 9 D T ~ ~ ) ) ) ..D - = = - i D K T E ~ ^ ^ (                                                                                                                                                                                                                             ",
"                                                                                                                                                                                                                                          7 5 3 < 2 2 8 n Y T ~ ) ( ) ) D > : - - 9 m Y ) ^ ~ ) ~ `                                                                                                                                                                                                                             ",
"                                                                                                                                                                                                                                          0 5 7 5 2 > 4 n F J K T ~ ~ ) H > ; : : 9 n H Y T T E ~ ^ /                                                                                                                                                                                                                           ",
"                                                                                                                                                                                                                                          i p f i 9 5 q m H J H H Y T ) H 6 2 2 4 e k D G Y T ~ ~ ^                                                                                                                                                                                                                             ",
"                                                                                                                                                                                                                                          v N c x n m n J U P U Y Y T ~ J 8 3 4 9 a m G Y T ) ~ ( ~                                                                                                                                                                                                                             ",
"                                                                                                                                                                                                                                        b S N c N B H P )  .) ) ) T Y T K q 8 9 a a D K T ^ ) ) [ ^                                                                                                                                                                                                                             ",
"                                                                                                                                                                                                                                        S Z m m J D H ! ( ( (  .) ( ) ^ Y a 9 e e a D K ~ ^ ) ) ( )                                                                                                                                                                                                                             ",
"                                                                                                                                                                                                                                        S C x Z F J A I _ _ _ _ (  .} ..P t t q e k D G Y Y E ^ ~ ~                                                                                                                                                                                                                             ",
"                                                                                                                                                                                                                                        A Z c Z A C J I L U L _ )  ...[ m q t q e k D D G E ) ^ ^ T                                                                                                                                                                                                                             ",
"                                                                                                                                                                                                                                      A A C C J I F A _ U _ L _ ) (  .~ g e q 9 e k D G G E E E T T                                                                                                                                                                                                                             ",
"                                                                                                                                                                                                                                      L K Z A A A K P _ U U _ U  .) ( A q q 9 9 e k k D Y E E Y E                                                                                                                                                                                                                               ",
"                                                                                                                                                                                                                                      U U A A C A U _ _ U _ ` ` ] ( ~ l q q q e e k D D Y E T T ~                                                                                                                                                                                                                               ",
"                                                                                                                                                                                                                                      U P K C C C _ _ _ _ _ _ _ ( ] L i t t a d d k D G Y T T T T                                                                                                                                                                                                                               ",
"                                                                                                                                                                                                                                    S U P A F C C S U _ _ T U _ ^ ( N s y s a s s k D Y Y Y E T T                                                                                                                                                                                                                               ",
"                                                                                                                                                                                                                                    _ U P K A P A _ _ U U _ U _ ^ ! l y i t y a s D G G Y Y ~ T Y                                                                                                                                                                                                                               ",
"                                                                                                                                                                                                                                    W P P P K J K _ U U U T _ U /   s i t q r e d V K Y Y Y ) E !                                                                                                                                                                                                                               ",
"                                                                                                                                                                                                                                    U J J J J H U U K K U U U T ~   l t q 0 9 9 g V G Y Y Y E E                                                                                                                                                                                                                                 ",
"                                                                                                                                                                                                                                  L P K J J J J U U K I U K U U U   z f t t t s j V K Y Y T ^ T                                                                                                                                                                                                                                 ",
"                                                                                                                                                                                                                                  P U P K P P U U I I I U K I U     z s y y d d k D G Y T E ] ~                                                                                                                                                                                                                                 ",
"                                                                                                                                                                                                                                  P U P P P U T U I I I U U T U     f y i i r t k D G Y Y T ~ ~                                                                                                                                                                                                                                 ",
"                                                                                                                                                                                                                                  ! P U Y U U U K I I I I U U       f p l f t t k D Y K Y K I T                                                                                                                                                                                                                                 ",
"                                                                                                                                                                                                                                U ! U ! U U T P K I I U I I U       f f f p s y k D K Y Y Y T !                                                                                                                                                                                                                                 ",
"                                                                                                                                                                                                                                ! ! ! T U T T K I K I K U T         s f f s f s k V K Y T T ~ !                                                                                                                                                                                                                                 ",
"                                                                                                                                                                                                                                ! ~ ~ Y T _ L K U U K K U U         h p f y h s m D K Y E R ~                                                                                                                                                                                                                                   ",
"                                                                                                                                                                                                                                / ~ ! ! R ! K K K K K U R K         p h i t f s M D I Y R R T                                                                                                                                                                                                                                   ",
"                                                                                                                                                                                                                              W / ! ! U ! U K K K K U U U           h h i t f f M F I Y T R ~                                                                                                                                                                                                                                   ",
"                                                                                                                                                                                                                              ! ~ ! ! U U K K K K K U U K           f h i t y f M F K I T R !                                                                                                                                                                                                                                   ",
"                                                                                                                                                                                                                              / ~ ! W U U P K K K K U U             z h i t t s V F I Y T ~ U                                                                                                                                                                                                                                   ",
"                                                                                                                                                                                                                            W ! ! ! ! U U K K K K U U U             x h u t t s m F G T ^ ~ !                                                                                                                                                                                                                                   ",
"                                                                                                                                                                                                                            ! ! U ! U T U J K K K K U               z h t i t s V D J T _ ~                                                                                                                                                                                                                                     ",
"                                                                                                                                                                                                                            T ! ! W U U L K K K K U P               h p i i w f C F P U _ ^                                                                                                                                                                                                                                     ",
"                                                                                                                                                                                                                            W ! W P P U K J K K P U P               h f t i e h C D K T ~ R                                                                                                                                                                                                                                     ",
"                                                                                                                                                                                                                          W ! ! U P P K K I J J P I                 h f u y e j C G I R ~ T                                                                                                                                                                                                                                     ",
"                                                                                                                                                                                                                          W W P U L U J J J J J J J                 h p t w w h V G U ~ _ R                                                                                                                                                                                                                                     ",
"                                                                                                                                                                                                                          ! P J L U K G K J J H P                   z y w 4 8 j C G U R ~ U                                                                                                                                                                                                                                     ",
"                                                                                                                                                                                                                          P P H A K K F J J D D D                   h u 8 6 w h C J T ~ ~ T                                                                                                                                                                                                                                     ",
"                                                                                                                                                                                                                        L J L K A F J J F J F D C                   h r w 8 w k V J I R ~                                                                                                                                                                                                                                       ",
"                                                                                                                                                                                                                        H J L J A K F A J F D H                     f t 8 w w k C J U ~ T                                                                                                                                                                                                                                       ",
"                                                                                                                                                                                                                        K P H C I I F K D D D V                     h t 8 8 e x C J U ~ ~                                                                                                                                                                                                                                       ",
"                                                                                                                                                                                                                        P P J D F A G F C C F                       t 8 4 4 e m V H U U U                                                                                                                                                                                                                                       ",
"                                                                                                                                                                                                                      H J H D H C F C F V C C                       r 7 3 8 t j V V H A C                                                                                                                                                                                                                                       ",
"                                                                                                                                                                                                                      H J H V D F C F C C D                         7 3 3 9 t k V V V C C                                                                                                                                                                                                                                       ",
"                                                                                                                                                                                                                      H H F D D C C V F D C                         6 3 4 4 t j c m V A                                                                                                                                                                                                                                         ",
"                                                                                                                                                                                                                      K J D H F D V V D V V                         9 7 4 3 t j m V C J                                                                                                                                                                                                                                         ",
"                                                                                                                                                                                                                    A H D D J D V V V V V                           9 3 3 4 e j C C C C                                                                                                                                                                                                                                         ",
"                                                                                                                                                                                                                    B D V H F M V V V V M                           7 3 3 4 e j m k k V                                                                                                                                                                                                                                         ",
"                                                                                                                                                                                                                    H D N D V M M V V V                             < < < 2 e f j j m m                                                                                                                                                                                                                                         ",
"                                                                                                                                                                                                                    A B n m m m M M D D                             2 > - : 9 d k m m m                                                                                                                                                                                                                                         ",
"                                                                                                                                                                                                                  C B m g a d k k k k                               4 < : 3 q d k m m n                                                                                                                                                                                                                                         ",
"                                                                                                                                                                                                                  N x x d 9 d k s d k                               4 2 : 2 q s g n m                                                                                                                                                                                                                                           ",
"                                                                                                                                                                                                                  m x x a a a a d d g                               2 2 2 3 q a g m n                                                                                                                                                                                                                                           ",
"                                                                                                                                                                                                                  l g a q a a e a d                                 3 < 2 4 q a g g g                                                                                                                                                                                                                                           ",
"                                                                                                                                                                                                                f f i 9 a a e a t a                                 3 < - 3 9 a t a f                                                                                                                                                                                                                                           ",
"                                                                                                                                                                                                                f i q a s e a s s                                   3 < - 2 9 e q y s                                                                                                                                                                                                                                           ",
"                                                                                                                                                                                                                i i a d s a e a t                                   < > - 2 8 9 q t s                                                                                                                                                                                                                                           ",
"                                                                                                                                                                                                                2 5 4 q r q e a t                                   = * * < 4 8 w r                                                                                                                                                                                                                                             ",
"                                                                                                                                                                                                                + + & < 4 8 9 9                                     # # # > < 4 8 7                                                                                                                                                                                                                                             ",
"                                                                                                                                                                                                                  X O & - 2 4 4                                       O + $ % * = &                                                                                                                                                                                                                                             ",
"                                                                                                                                                                                                                        o $ -                                                                                                                                                                                                                                                                                                   ",
"                                                                                                                                                                                                                                                                                                                                                                                                                                                                                                                                ",
"                                                                                                                                                                                                                                                                                                                                                                                                                                                                                                                                ",
"                                                                                                                                                                                                                                                                                                                                                                                                                                                                                                                                ",
"                                                                                                                                                                                                                                                                                                                                                                                                                                                                                                                                "
};
