/* XPM */
static char *out[] = {
/* columns rows colors chars-per-pixel */
"256 256 147 2 ",
"   c None",
".  c #1B130D",
"X  c #141010",
"o  c #1C1512",
"O  c #21170E",
"+  c #23180F",
"@  c #201712",
"#  c #241A15",
"$  c #291E16",
"%  c #2A1E19",
"&  c #2D2017",
"*  c #2E2119",
"=  c #33251C",
"-  c #38271C",
";  c #37281F",
":  c #3A291E",
">  c #362921",
",  c #3C2C23",
"<  c #3F2F28",
"1  c #3F3125",
"2  c #3D3028",
"3  c #412E22",
"4  c #443225",
"5  c #493526",
"6  c #4D3827",
"7  c #45342A",
"8  c #49362A",
"9  c #4D3A2C",
"0  c #523D2D",
"q  c #583F2D",
"w  c #4E3C31",
"e  c #523E31",
"r  c #56402F",
"t  c #59412F",
"y  c #554133",
"u  c #5B4433",
"i  c #5F4836",
"p  c #554438",
"a  c #5A4639",
"s  c #5E493A",
"d  c #604733",
"f  c #634A36",
"g  c #694D36",
"h  c #644C3B",
"j  c #694E3A",
"k  c #67503E",
"l  c #6C523E",
"z  c #71553E",
"x  c #644E41",
"c  c #6A4E40",
"v  c #655143",
"b  c #6C5441",
"n  c #6E594B",
"m  c #715641",
"M  c #745A44",
"N  c #7A5D45",
"B  c #745C4A",
"V  c #7A5E49",
"C  c #7E6047",
"Z  c #7D624B",
"A  c #776254",
"S  c #7C6352",
"D  c #7F6854",
"F  c #82654D",
"G  c #87684E",
"H  c #89694F",
"J  c #836751",
"K  c #866A53",
"L  c #8A6D54",
"P  c #856C5A",
"I  c #8B6F59",
"U  c #8F7056",
"Y  c #8E715A",
"T  c #917156",
"R  c #93755C",
"E  c #96785E",
"W  c #997A5E",
"Q  c #846E63",
"!  c #886F61",
"~  c #8D7561",
"^  c #927661",
"/  c #967962",
"(  c #9B7C63",
")  c #947C6C",
"_  c #9C7F68",
"`  c #A07F63",
"'  c #9E8066",
"]  c #9E816A",
"[  c #9B8373",
"{  c #A28266",
"}  c #A4856B",
"|  c #A8876B",
" . c #A6886E",
".. c #AA8A6D",
"X. c #A38771",
"o. c #A68A73",
"O. c #AD8D72",
"+. c #A38C7B",
"@. c #AB8E79",
"#. c #B08F72",
"$. c #AE9075",
"%. c #AE927A",
"&. c #B29275",
"*. c #B4957A",
"=. c #B8977A",
"-. c #B6987E",
";. c #BA9A7D",
":. c #C09E7E",
">. c #AE9380",
",. c #B49680",
"<. c #B69A82",
"1. c #BB9D82",
"2. c #B29B8A",
"3. c #BB9F89",
"4. c #BEA185",
"5. c #B6A18C",
"6. c #BDA38A",
"7. c #BBA592",
"8. c #BEA893",
"9. c #C09F80",
"0. c #C3A385",
"q. c #C8A787",
"w. c #C4A68A",
"e. c #C6A98C",
"r. c #CAAB8C",
"t. c #C2A790",
"y. c #C6AB91",
"u. c #CDAE91",
"i. c #CEB193",
"p. c #CCB39A",
"a. c #D2B495",
"s. c #D5B897",
"d. c #D3B699",
"f. c #D6B99A",
"g. c #D9BD9D",
"h. c #D9BEA0",
"j. c #DBC09F",
"k. c #DCC2A2",
"l. c #D4C1A8",
"z. c #DEC7A9",
"x. c #DECDB5",
"c. c #DDCEB9",
"v. c #DCD0B6",
"b. c #DDD0B9",
"n. c #E0CAAA",
"m. c #E4CFB2",
"M. c #E6D3B5",
/* pixels */
"                                                                                                                                                                                                                                                                                                                                                                                                                                                                                                                                ",
"                                                                                                                                                                                                                                                                                                                                                                                                                                                                                                                                ",
"                                                                                                                                                                                                                                                                                                                                                                                                                                                                                                                                ",
"                                                                                                                                                                                                                                                                                                                                                                                                                                                                                                                                ",
"                                                                                                                                                                                                                                                                                                                                                                                                                                                                                                                                ",
"                                                                                                                                                                                                                                                                                                                                                                                                                                                                                                                                ",
"                                                                                                                                                                                                                                                                                                                                                                                                                                                                                                                                ",
"                                                                                                                                                                                                                                                                                                                                                                                                                                                                                                                                ",
"                                                                                                                                                                                                                                                                                                                                                                                                                                                                                                                                ",
"                                                                                                                                                                                                                                                                                                                                                                                                                                                                                                                                ",
"                                                                                                                                                                                                                                                                                                                                                                                                                                                                                                                                ",
"                                                                                                                                                                                                                                                                                                                                                                                                                                                                                                                                ",
"                                                                                                                                                                                                                                                                                                                                                                                                                                                                                                                                ",
"                                                                                                                                                                                                                                                                                                                                                                                                                                                                                                                                ",
"                                                                                                                                                                                                                                                                                                                                                                                                                                                                                                                                ",
"                                                                                                                                                                                                                                                                                                                                                                                                                                                                                                                                ",
"                                                                                                                                                                                                                                                                                                                                                                                                                                                                                                                                ",
"                                                                                                                                                                                                                                                                                                                                                                                                                                                                                                                                ",
"                                                                                                                                                                                                                                                                                                                                                                                                                                                                                                                                ",
"                                                                                                                                                                                                                                                                                                                                                                                                                                                                                                                                ",
"                                                                                                                                                                                                                                                                                                                                                                                                                                                                                                                                ",
"                                                                                                                                                                                                                                                                                                                                                                                                                                                                                                                                ",
"                                                                                                                                                                                                                                                                                                                                                                                                                                                                                                                                ",
"                                                                                                                                                                                                                                                                                                                                                                                                                                                                                                                                ",
"                                                                                                                                                                                                                                                                                                                                                                                                                                                                                                                                ",
"                                                                                                                                                                                                                                                                                                                                                                                                                                                                                                                                ",
"                                                                                                                                                                                                                                                                                                                                                                                                                                                                                                                                ",
"                                                                                                                                                                                                                                                                                                                                                                                                                                                                                                                                ",
"                                                                                                                                                                                                                                                                                                                                                                                                                                                                                                                                ",
"                                                                                                                                                                                                                                                                                                                                                                                                                                                                                                                                ",
"                                                                                                                                                                                                                                                                                                                                                                                                                                                                                                                                ",
"                                                                                                                                                                                                                                                                                                                                                                                                                                                                                                                                ",
"                                                                                                                                                                                                                  v.v.v.v.v.v.v.                                                                                                                                                                                                                                                                                                ",
"                                                                                                                                                                                                                n.M.M.n.M.M.v.v.M.M.M.M.M.M.M.n.M.M.M.M.M.M.M.j.n.n.j.j.d.d.h.p.                                                                                                                                                                                                                                                ",
"                                                                                                                                                                                                                p.j.j.j.j.j.j.j.z.j.j.j.k.k.j.j.n.j.j.j.n.k.s.s.s.i.r.e.0.0.w.0.                                                                                                                                                                                                                                                ",
"                                                                                                                                                                                                                y.j.j.j.j.j.j.j.j.j.j.j.j.j.j.j.j.j.j.j.j.k.s.s.a.u.r.e.w.w.0.0.                                                                                                                                                                                                                                                ",
"                                                                                                                                                                                                                p.j.j.j.s.j.s.j.j.s.j.s.j.i.j.j.j.j.j.a.s.j.j.j.i.i.r.u.u.u.u.r.                                                                                                                                                                                                                                                ",
"                                                                                                                                                                                                                l.j.j.u.j.s.s.s.a.s.s.s.j.j.i.j.j.i.r.j.j.s.r.s.u.u.a.a.u.a.a.r.                                                                                                                                                                                                                                                ",
"                                                                                                                                                                                                                8.j.u.j.s.s.i.j.a.a.i.i.j.r.:.j.i.j.j.r.s.s.s.s.u.a.a.a.u.a.r.r.                                                                                                                                                                                                                                                ",
"                                                                                                                                                                                                                8.u.j.6.i.r.e.r.r.r.r.r.i.:.j.i.i.i.r.j.s.s.r.r.i.u.q.r.q.r.r.q.                                                                                                                                                                                                                                                ",
"                                                                                                                                                                                                                y.s.y.r.r.r.e.e.q.q.r.r.r.r.r.r.i.i.r.r.r.a.a.r.u.q.w.w.w.r.r.w.                                                                                                                                                                                                                                                ",
"                                                                                                                                                                                                                e.i.y.r.e.e.0.0.e.q.q.r.r.r.r.q.q.q.e.e.q.r.q.r.q.w.q.w.w.t.r.w.                                                                                                                                                                                                                                                ",
"                                                                                                                                                                                                                e.y.e.e.0.0.0.0.e.q.:.6.:.r.q.q.q.e.q.q.r.r.q.q.w.q.q.r.r.r.r.w.                                                                                                                                                                                                                                                ",
"                                                                                                                                                                                                                8.e.e.e.;.-.:.0.:.6.q.q.q.6.q.q.e.q.q.q.r.r.r.r.u.q.q.r.r.r.u.u.                                                                                                                                                                                                                                                ",
"                                                                                                                                                                                                                8.e.:.:.:.;.:.:.:.:.:.8.6.r.:.r.q.q.q.q.q.r.r.r.u.u.q.q.r.r.u.e.                                                                                                                                                                                                                                                ",
"                                                                                                                                                                                                                6.y.e.0.:.:.:.;.8.:.:.:.:.r.:.r.q.q.0.q.q.0.r.q.u.u.u.u.r.q.r.w.                                                                                                                                                                                                                                                ",
"                                                                                                                                                                                                                5.:.:.:.:.-.;.-.:.:.:.:.6.6.6.:.0.0.q.q.q.q.q.q.q.u.r.q.w.q.w.r.                                                                                                                                                                                                                                                ",
"                                                                                                                                                                                                                ;.6.;.-.-.;.:.;.;.;.;.:.:.:.:.:.0.0.0.q.q.q.r.0.q.q.u.q.q.r.r.w.                                                                                                                                                                                                                                                ",
"                                                                                                                                                                                                                6.;.=.&.&.=.=.=.&.&.=.=.=.=.:.:.:.:.:.q.r.0.0.r.q.q.q.r.r.r.r.w.                                                                                                                                                                                                                                                ",
"                                                                                                                                                                                                                %.&.&.&.O...#.&.#.#.#.&.=.=.=.:.:.=.:.:.0.0.q.0.0.0.0.q.q.r.r.w.                                                                                                                                                                                                                                                ",
"                                                                                                                                                                                                                 .....O.........#.#.#.#.#.#.=.=.=.=.:.&.:.0.0.q.q.0.9.0.q.r.w.w.                                                                                                                                                                                                                                                ",
"                                                                                                                                                                                                                ]  .| ............#.#.....#...&.&.=.=.:.:.9.9.9.9.0.0.0.0.w.0.4.                                                                                                                                                                                                                                                ",
"                                                                                                                                                                                                                { | | ..| | ....#.#.#.#.....| | O.&.&.=.:.=.:.:.:.:.0.:.0.0.9.1.                                                                                                                                                                                                                                                ",
"                                                                                                                                                                                                                { | { | { { | #.#.#.#.#.....| | ....#.=.=.=.=.:.;.;.;.:.;.0.:.1.                                                                                                                                                                                                                                                ",
"                                                                                                                                                                                                                ' { { { { { { ..#.#.#.......#...O.#...#.&.&.=.:.;.;.=.=.;.;.:.;.                                                                                                                                                                                                                                                ",
"                                                                                                                                                                                                                ' { { { { { { | ....| | ..#...#...O.#.#.#.&.&.&.=.=.;.;.;.;.9.-.                                                                                                                                                                                                                                                ",
"                                                                                                                                                                                                                ' ' ' ' { { { ' | ..| | ........| #.#.#.&.&.&.&.#.&.=.=.;.0.;.*.                                                                                                                                                                                                                                                ",
"                                                                                                                                                                                                                ' H ' H T { { T | ....| | | | | | ....#.&.&.&.=.#.#.&.&.;.;.;.*.                                                                                                                                                                                                                                                ",
"                                                                                                                                                                                                                H ' ' ' H { { { { | | | | | | | | | ..#.#.&.=.#.&.#.#.#.=.=.=.&.                                                                                                                                                                                                                                                ",
"                                                                                                                                                                                                                C H C C H T H T ` | | { | | | { ..| | #.#.#.&.=.&.#.#.#.&.#.&.O.                                                                                                                                                                                                                                                ",
"                                                                                                                                                                                                                H H C H H H H H T W { { { { { { | | ....#.#.#.#.#.#.#...#...O.o.                                                                                                                                                                                                                                                ",
"                                                                                                                                                                                                                H H H H H H C H T T { { { { { | { | ....#.#.#.#...| .......... .                                                                                                                                                                                                                                                ",
"                                                                                                                                                                                                                N H H H H H H H H T ` { { { { { | | ......#.&.&...{ | ..{ { | }                                                                                                                                                                                                                                                 ",
"                                                                                                                                                                                                                f g z z z N C C C H H T T ` W { { { { | | | ..O.| { { | { { { {                                                                                                                                                                                                                                                 ",
"                                                                                                                                                                                                                        7 8 9 9 9 r 0 7 8 9 9 0 e u i f b V S J Z M B Z F S S                                                                                                                                                                                                                                                   ",
"                                                                                                                                                                                                                                      o . . . o @ @ o #                                                                                                                                                                                                                                                                         ",
"                                                                                                                                                                                                                                      % $ $ * = = % % >                                                                                                                                                                                                                                                                         ",
"                                                                                                                                                                                                                                      , 4 5 8 9 8 w e x                                                                                                                                                                                                                                                                         ",
"                                                                                                                                                                                                                                      7 0 i f h h h x S                                                                                                                                                                                                                                                                         ",
"                                                                                                                                                                                                                                      p h b M M B M m Y                                                                                                                                                                                                                                                                         ",
"                                                                                                                                                                                                                                      x B J S Z J Z J ]                                                                                                                                                                                                                                                                         ",
"                                                                                                                                                                                                                                      M K I K L I I E @.                                                                                                                                                                                                                                                                        ",
"                                                                                                                                                                                                                                      S I E R Y / ( _ *.                                                                                                                                                                                                                                                                        ",
"                                                                                                                                                                                                                                      P E ^ R E / } X.-.                                                                                                                                                                                                                                                                        ",
"                                                                                                                                                                                                                                      I ( / / ^ E ( ..,.                                                                                                                                                                                                                                                                        ",
"                                                                                                                                                                                                                                      L ` / ( ( E ( O.1.                                                                                                                                                                                                                                                                        ",
"                                                                                                                                                                                                                                      B E E _ _ ( / ` -.                                                                                                                                                                                                                                                                        ",
"                                                                                                                                                                                                                7.8.7.7.2.            A Y ( ` } } ( /  .                                                                                                                                                                                                                                                                        ",
"                                                                                                                                                                                                                *.&.,.3.9.9.9.9.0.6.6.1.<.1.<.9.<.1.%.*.,.                                                                                                                                                                                                                                                                      ",
"                                                                                                                                                                                                                 .| | | ..O.#.:.;.;.;.:.9.0.0.q.q.r.q.q.w.w.w.w.6.6.<.,.>.%.+.                                                                                                                                                                                                                                                  ",
"                                                                                                                                                                                                              [ o. .| ......#.=.6.7.4.:.;.:.:.:.:.:.:.:.:.:.:.:.0.9.1.1.1.<.=.%.                                                                                                                                                                                                                                                ",
"                                                                                                                                                                                                              [ O.o. .#.#.#.#.9.d.f.f.y.6.:.;.;.:.:.:.:.:.:.6.:.3.1.<.=.,.=.<.%.                                                                                                                                                                                                                                                ",
"                                                                                                                                                                                                              [ #.#...#.*.=.1.u.d.h.k.z.j.j.6.;.:.;.-.;.-.-.:.8.9.1.<.=.,.<.1.                                                                                                                                                                                                                                                  ",
"                                                                                                                                                                                                              o.=.=.=.&.*.;.9.i.p.d.p.s.j.j.j.i.i.8.;.-.-.-.-.:.1.;.1.<.=.*.-.                                                                                                                                                                                                                                                  ",
"                                                                                                                                                                                                              @.*.=.=.=.#.:.a.i.p.f.i.i.j.r.j.j.y.;.-.;.-.-.:.-.1.9.9.,.,.,.<.                                                                                                                                                                                                                                                  ",
"                                                                                                                                                                                                              o.#.#.#.&.&.u.h.f.f.p.d.i.8.j.r.r.;.$.$.;.:.:.:.:.9.9.9.9.:.,.1.                                                                                                                                                                                                                                                  ",
"                                                                                                                                                                                                              o.#...#.#.:.s.h.k.g.f.d.p.8.:.u.:.$.O.O.$.;.:.:.:.1.1.1.,.*.*.>.                                                                                                                                                                                                                                                  ",
"                                                                                                                                                                                                              o.......=.a.f.g.s.f.f.d.a.j.j.6.&.O.O.O...$.;.:.:.1.1.,.1.*.#.O.                                                                                                                                                                                                                                                  ",
"                                                                                                                                                                                                              %.&.....w.f.g.f.f.d.a.i.a.i.u.3.&.&...&.....;.;.;.1.1.9.,.<.*.O.                                                                                                                                                                                                                                                  ",
"                                                                                                                                                                                                              o...| *.f.f.g.h.g.f.a.a.i.u.w.*.#...&.....O.;.;.;.;.9.1.1.1.,.*.                                                                                                                                                                                                                                                  ",
"                                                                                                                                                                                                               .| ..i.k.g.f.g.g.h.f.d.d.r.;.&.#...O.....&.;.=.;.1.1.1.1.1.9.<.                                                                                                                                                                                                                                                  ",
"                                                                                                                                                                                                              o...9.d.g.g.f.s.f.d.f.d.d.w.;.&.#.........=.;.=.=.=.;.1.9.1.3.,.                                                                                                                                                                                                                                                  ",
"                                                                                                                                                                                                              { #.u.a.a.s.a.a.a.a.a.i.r.1.;.=.&.......O.=.-.-.;.*.;.*.;.;.1.,.                                                                                                                                                                                                                                                  ",
"                                                                                                                                                                                                              o.u.n.g.s.i.a.a.a.a.i.u.;.*.&.&.#.......&.&.&.&.&.=.;.;.;.<.1.,.                                                                                                                                                                                                                                                  ",
"                                                                                                                                                                                                              9.g.n.n.s.s.a.u.u.u.u.0.=.&.=.&...O.O.O.&.&.$.&.$.=.,.,.:.=.1.<.                                                                                                                                                                                                                                                  ",
"                                                                                                                                                                                                              u.f.g.s.d.s.s.i.r.r.0.=.=.=.&.&.&.&.O.&.*.&.&.&.$.#.=.;.;.<.=.*.                                                                                                                                                                                                                                                  ",
"                                                                                                                                                                                                            y.d.d.d.d.a.a.a.a.u.r.;.&.=.&.&.#.#.....=.=.&.&.&.&.#.&.;.=.=.=.*.                                                                                                                                                                                                                                                  ",
"                                                                                                                                                                                                            f.g.d.g.g.d.a.u.u.r.:.=.&.=.&.&.#.....#.=.=.&.&.*.&.#.#.&.*.=.=.                                                                                                                                                                                                                                                    ",
"                                                                                                                                                                                                          f.g.s.d.s.d.g.d.u.u.0.=.=.=.&.&.&...| ..&.&.&.&.&.&.&.#.#.#.*.*.-.                                                                                                                                                                                                                                                    ",
"                                                                                                                                                                                                          f.s.s.s.a.r.d.s.u.q.;.&.&.#.&.&.........&.&.=.=.&.=.&.*.&.*.=.*.-.                                                                                                                                                                                                                                                    ",
"                                                                                                                                                                                                        d.f.s.d.a.u.a.r.0.9.=.*.=.&.#.#.#.......&.&.=.&.=.&.=.&.=.*.&.*.*.*.                                                                                                                                                                                                                                                    ",
"                                                                                                                                                                                                      p.g.g.d.s.s.s.s.u.q.1.*.#.&.&.&.&.....| O.&.&.&.&.&.;.&.=.&.*.=.*.*.-.                                                                                                                                                                                                                                                    ",
"                                                                                                                                                                                                      d.d.d.d.d.s.a.a.s.a.1.#.#.&.&.&.........O.=.&.&.#.&.&.&.&.&.&.*.&.*.*.                                                                                                                                                                                                                                                    ",
"                                                                                                                                                                                                    d.h.f.f.f.d.a.a.u.r.0.*...#.&.&.#.......O.O.&.&.&.#.&.&.&.&.&.&.&.&.&.*.                                                                                                                                                                                                                                                    ",
"                                                                                                                                                                                                  p.f.d.f.f.s.s.d.s.a.r.=.#.#.#.&.#.......| #.O.O.&.&.O.O.&.#.#.#.#.&.&.#.*.                                                                                                                                                                                                                                                    ",
"                                                                                                                                                                                                  f.a.a.f.a.s.s.i.i.a.r.=.#.| | ........| ..O.$.&.&.&.&.&.&.O.O.O.O.O.#.%.*.                                                                                                                                                                                                                                                    ",
"                                                                                                                                                                                                p.a.f.f.f.f.s.i.u.u.q.:.#...#...#... .| ....#.$.&.&.&.#.#.&.&.O.#.O.#.#.O.*.                                                                                                                                                                                                                                                    ",
"                                                                                                                                                                                                d.a.f.f.a.i.i.u.q.q.=...| #.| | ....{ |  ...O.O.$.&.&.&.&.*.&...O.O.O.O.&.&.                                                                                                                                                                                                                                                    ",
"                                                                                                                                                                                              i.a.a.i.i.i.i.i.r.:.=.| W { { { { | | {  .....$.$.$.&.&.&.&.&.&.O.O.O.O.O.O.O.                                                                                                                                                                                                                                                    ",
"                                                                                                                                                                                              u.u.r.w.u.u.r.r.q.:...{ W W ` W W { ' | ........&.O.O.&.&.&...#.O.o.O.O.O.#.%.                                                                                                                                                                                                                                                    ",
"                                                                                                                                                                                            w.r.w.e.r.e.e.4.:.:.#.{ { W W { W { ' }  . ... ...$.&.O.$.#.&.#.&.O.......O.O.#.                                                                                                                                                                                                                                                    ",
"                                                                                                                                                                                          3.0.0.w.u.e.0.:.&.$.&.{ { W W W W W T '  .}  . .......O.O.&.#.O.#.#.O...O.O.O.O.o.                                                                                                                                                                                                                                                    ",
"                                                                                                                                                                                          1.-.-.3.w.0.1.&. .} ( W W W W W R T W {  .}  . .......O.O...$...O...O. ...O.#.&.$.                                                                                                                                                                                                                                                    ",
"                                                                                                                                                                                        <.-.&...} } $.O.} ] W R W W W R T T T { }  .} }  . ...$.O.....O.$.....$.O.| o.O.O.&.                                                                                                                                                                                                                                                    ",
"                                                                                                                                                                                        $.O.o.} ( ( ( E E ( / R R R R T H T R { } } } }  . . . . .{ } } ......$.#.O.O.O.&.&.                                                                                                                                                                                                                                                    ",
"                                                                                                                                                                                      o. .( ( R ( } ( W ( ( E E T L T T T T ` { } } { } }  . .' } { { }  .....$.#.#.O.o.O.&.                                                                                                                                                                                                                                                    ",
"                                                                                                                                                                                      _ } _ K J J I R ( ` / E E T L H H U E E ' ' '  .' '  .} ' { } ' } }  .|  .O.O.#.o.| #.                                                                                                                                                                                                                                                    ",
"                                                                                                                                                                                    3.t.y.y.5.3.2.,.,.>.X.I L T R L F F U R R E ' ' ' ' } ' } ' } { { } { } .... .O.O... .O.                                                                                                                                                                                                                                                    ",
"                                                                                                                                                                                      1.3.9.1.&.&.*.#.o.=.%.^ F G G G L Y E R R E ' ' ' ' ' ' ' ( { ' ' { { { { ` { |  .O.o.                                                                                                                                                                                                                                                    ",
"                                                                                                                                                                                      X. . . .} ( ` %.=.%.%.%./ S C D U Y Y R R R R E ' ' ' ' ' ( W E W ( { ' ' ( W ( } {  .                                                                                                                                                                                                                                                    ",
"                                                                                                                                                                                      / } ( } O.} { *.9.1.X. . .` ^ P I L Y R R R R R ' ' ' E ' E E E E E ' { { ( ( ( { { .. .                                                                                                                                                                                                                                                  ",
"                                                                                                                                                                                        ( ( { } o. ...*.9.,.O.o.o.} T I L L L R R R Y R R ' ' E ' R R E E ( ( ( ( ` ( ( { o. .                                                                                                                                                                                                                                                  ",
"                                                                                                                                                                                        ^ ( ( ( ....{ ` #.9.*.O... .^ L Y R I L R R ' R R E R ' E R R E E E / ( ( ( ( ( { }  .                                                                                                                                                                                                                                                  ",
"                                                                                                                                                                                        K Y I R / ( E ( { 1.=.O.O.O./ L L I L L L U Y ' ' R ' R E E R R E E W ( ( E ( ( ( } X.                                                                                                                                                                                                                                                  ",
"                                                                                                                                                                                        V Z F L T T T E ( #.-.O...O.` L L L K L L K U R E ' ' R ' E E R E E ( ( / ( W / ( } }                                                                                                                                                                                                                                                   ",
"                                                                                                                                                                                          M b l M F H L L } =.#.O.#.{ L K J K K K L L U U U R ' / ' ' / E E E E E E E E ( } X.                                                                                                                                                                                                                                                  ",
"                                                                                                                                                                                          x h a j V F H F E &.&.#.#.O.L K L K K D K K L L Y R R E E / / E R R R T E R E E ( _                                                                                                                                                                                                                                                   ",
"                                                                                                                                                                                          a h f h M V F H U #.*.#.%.#.I Z J K J G Z Z K P U U Y R R E E E Y R Y R T R R ( ( ]                                                                                                                                                                                                                                                   ",
"                                                                                                                                                                                            M B M M N N C G ..*.=.*.&.E C Z D G J G F F F K L L U R ^ ^ R R R Y R R R I / ( (                                                                                                                                                                                                                                                   ",
"                                                                                                                                                                                            B D D Z C C C F ' =.;.;.=.' Z C Z D L J J J F J J G L U Y Y Y U I L L I T L T R /                                                                                                                                                                                                                                                   ",
"                                                                                                                                                                                            h h m Z H Z F C ' =.:.:.-. .C m C C J J J J J J G J G K T Y Y Y Y L K L L L L R R                                                                                                                                                                                                                                                   ",
"                                                                                                                                                                                              w y h C G F G U =.4.4.;.$.A C n C V V F F J L L J K L L I T T I L L P L L L L Y                                                                                                                                                                                                                                                   ",
"                                                                                                                                                                                              w y y k D Z G G  .4.4.6.;.K C B C V V F M F J G J K L L L I Y L I L I I L L K I                                                                                                                                                                                                                                                   ",
"                                                                                                                                                                                              w r y h C Z G F ' :.:.4.4.I b l C M M M M M F F J K H L K L Y L L G K L L L K L I                                                                                                                                                                                                                                                 ",
"                                                                                                                                                                                                y r s B G Z Z T -.:.4.4.R l l z m M m z l m m F F F J J L L L K J J K K K K K I                                                                                                                                                                                                                                                 ",
"                                                                                                                                                                                                7 r i l Z L H H $.4.:.4.] C b l l m c l m c c m B F F G J J L L L J K J K K P I                                                                                                                                                                                                                                                 ",
"                                                                                                                                                                                                  y y i l D U L  .:.4.4...M m b l l m m m l j l m N F F F F J G L J J J K F K K                                                                                                                                                                                                                                                 ",
"                                                                                                                                                                                                  r 9 9 r C R T ] 4.4.4.$.M m m c l j c c m m j m m c M M V V F J J J G V V V J                                                                                                                                                                                                                                                 ",
"                                                                                                                                                                                                  7 7 6 r k L R W :.4.4.-.Z l z m g j g j b m j l c c m m M V F F F V M m b b B                                                                                                                                                                                                                                                 ",
"                                                                                                                                                                                                    4 r r i D L U &.4.4.-.D k k m m j h j j c V J J J m d f h h e e 0 9 7 7 7                                                                                                                                                                                                                                                   ",
"                                                                                                                                                                                                    1 r 8 p C D F | :.4.4.J r 0 0 0 0 5 i m j J _ o.o.^ J R ~ I n                                                                                                                                                                                                                                                               ",
"                                                                                                                                                                                                      8 8 r C C C ' ;.:.4.D = = $ = - - u f i J _ o.o.o.o. .o.} !                                                                                                                                                                                                                                                               ",
"                                                                                                                                                                                                      r 7 y z Z C R ;.4.6.^ , , . + - - 9 q q V X.o.o...o.o.O.O.) Q                                                                                                                                                                                                                                                             ",
"                                                                                                                                                                                                      1 1 y b C z H &.4.0.[ , - . O - 4 q q e M X.@.#.o.o.#.#.%.o.)                                                                                                                                                                                                                                                             ",
"                                                                                                                                                                                                        2 8 m C M G ..4.4.%.8 * @ . = 3 0 d f M } %.O.@.O.%.*.,.%.[                                                                                                                                                                                                                                                             ",
"                                                                                                                                                                                                        9 9 k D C C ] :.4.;.a * @ . $ - 0 g l M ] *.%.&.*.=.=.1.<.@.>.                                                                                                                                                                                                                                                          ",
"                                                                                                                                                                                                          9 u D F F ' ;.;.4.v * $ @ @ $ 6 r g M _ %.*.;.1.1.,.;.1.%.<.                                                                                                                                                                                                                                                          ",
"                                                                                                                                                                                                          7 8 M H C T =.-.-.n * * $ # $ 6 6 d l / *.&.-.;.3.1.1.1.,.1.5.                                                                                                                                                                                                                                                        ",
"                                                                                                                                                                                                          2 1 y Z Z Z  .-.*.D = * > # % 5 6 a g Y *.*.<.3.9.1.1.<.-.1.6.                                                                                                                                                                                                                                                        ",
"                                                                                                                                                                                                            > 4 k m m ' $.%.~ = > , = % 3 0 d j K &.*.=.3.q.1.-.1.<.3.w.                                                                                                                                                                                                                                                        ",
"                                                                                                                                                                                                            , : 5 r r Z O.%.] > > 7 , = 4 u h j J O.&.@.1.0.3.;.-.;.3.w.6.                                                                                                                                                                                                                                                      ",
"                                                                                                                                                                                                            > - 1 5 r m o.%.X.7 > 8 4 < 7 0 q d Z @.-.*.-.1.1.1.1.;.3.0.t.                                                                                                                                                                                                                                                      ",
"                                                                                                                                                                                                              = 1 t d z ' %.o.p * 7 7 8 w w 0 u N o.,.=.-.1.1.=.,.1.6.w.e.                                                                                                                                                                                                                                                      ",
"                                                                                                                                                                                                              = - 6 f z ' O.%.v * 7 w p w w 9 h N } *.=.*.1.1.<.-.-.6.w.y.t.                                                                                                                                                                                                                                                    ",
"                                                                                                                                                                                                                & : t g L $.%.A > 8 p a w 8 9 q z W &.&.&.=.1.*.&.,.3.w.y.y.                                                                                                                                                                                                                                                    ",
"                                                                                                                                                                                                                & & 5 t Z +.%.P , 7 a x w 5 5 0 g R &.*.*.=.=.-.-.-.1.0.y.y.6.                                                                                                                                                                                                                                                  ",
"                                                                                                                                                                                                                % % * 4 s ' o.R 4 4 a s 7 4 5 0 f T &.&.=.=.=.-.-.-.<.6.w.y.8.                                                                                                                                                                                                                                                  ",
"                                                                                                                                                                                                                  $ $ * ; s D n w 7 a e 7 6 6 0 f H O.&.*.&.-.-.*.;.<.4.w.y.y.                                                                                                                                                                                                                                                  ",
"                                                                                                                                                                                                                  # o # * * > 7 w 7 x e 8 0 0 0 d F ..&.&.*.*.-.-.<.<.<.6.w.e.6.                                                                                                                                                                                                                                                ",
"                                                                                                                                                                                                                      o         7 7 s p e 8 0 6 d N  .&.%.*.=.1.1.;.<.1.4.w.y.6.                                                                                                                                                                                                                                                ",
"                                                                                                                                                                                                                                  < p p e w 0 0 d M { #.=.=.=.1.-.*.<.1.4.4.w.w.                                                                                                                                                                                                                                                ",
"                                                                                                                                                                                                                                  = p a e w 9 9 u m ` #.#.*.1.6.1.-.<.1.4.4.6.y.6.                                                                                                                                                                                                                                              ",
"                                                                                                                                                                                                                                    s a e e q 0 q z ( #.#.%.=.0.3.;.<.<.4.4.w.y.w.                                                                                                                                                                                                                                              ",
"                                                                                                                                                                                                                                      a e 9 e 0 q g E #.#.*.=.<.1.<.1.<.;.6.6.w.w.                                                                                                                                                                                                                                              ",
"                                                                                                                                                                                                                                      s a e q e q g T #.#.%.*.<.4.4.1.*.&.1.6.e.w.3.                                                                                                                                                                                                                                            ",
"                                                                                                                                                                                                                                      s a e e e q f G O.#.#.*.=.<.3.<.*.*.<.6.w.w.3.                                                                                                                                                                                                                                            ",
"                                                                                                                                                                                                                                      x h e 9 0 q d F ..#.#.*.<.;.1.<.-.&.*.4.6.4.<.<.                                                                                                                                                                                                                                          ",
"                                                                                                                                                                                                                                      x s e 8 0 0 d F  .#.#.*.-.<.4.4.;.*.*.<.6.6.;.,.                                                                                                                                                                                                                                          ",
"                                                                                                                                                                                                                                      x s p e 0 e d m { #.#.#.*.<.1.1.1.&.&.<.6.w.<.-.                                                                                                                                                                                                                                          ",
"                                                                                                                                                                                                                                      x x y e 0 0 d z ` O.#.%.=.<.1.1.1.&.&.*.4.e.4.1.,.                                                                                                                                                                                                                                        ",
"                                                                                                                                                                                                                                      x h e 0 0 0 d z ( ..#.#.<.<.<.1.<.*.&.&.<.w.6.1.<.                                                                                                                                                                                                                                        ",
"                                                                                                                                                                                                                                      x h p e 0 0 t g E #.#.%.-.;.4.1.1.@.&.%.<.6.y.3.1.                                                                                                                                                                                                                                        ",
"                                                                                                                                                                                                                                        x s e r q q d T ..#.%.=.;.<.4.;. .O.&.*.<.6.0.<.<.                                                                                                                                                                                                                                      ",
"                                                                                                                                                                                                                                        B x y y q u d H ..O.#.&.-.<.4.<.} o.&.*.*.*.<.4.3.                                                                                                                                                                                                                                      ",
"                                                                                                                                                                                                                                        A s y y q u f F ..#.#.%.-.;.4.;.} ( O. .O.&.-.1.3.2.                                                                                                                                                                                                                                    ",
"                                                                                                                                                                                                                                        v a y e u q u M | ..O.%.-.<.4.-. .Y ' } @.*.*.<.0.1.                                                                                                                                                                                                                                    ",
"                                                                                                                                                                                                                                        x s y a d t u z } O.O.$.&.;.5.;.} U / } o.$.%.<.4.4.                                                                                                                                                                                                                                    ",
"                                                                                                                                                                                                                                        v s p u u u d z { O.O.$.%.-.4.;. .G ^  .}  .$.%.4.6.<.                                                                                                                                                                                                                                  ",
"                                                                                                                                                                                                                                        x a e a f f f l ( &.&.$.$.*.-.;.o.Z I ] } X.@.%.<.6.8.                                                                                                                                                                                                                                  ",
"                                                                                                                                                                                                                                        v a e a j h d j / $.$.&.%.*.*.4.%.Z J ( } X.$.*.*.1.w.                                                                                                                                                                                                                                  ",
"                                                                                                                                                                                                                                          s p p u i i f U $.$.$.$.*.*.;.-.Z B R ] ] @.%.-.-.<.3.                                                                                                                                                                                                                                ",
"                                                                                                                                                                                                                                          a p y y i h h P O.$.&.$.*.*.-.-.Z l P ( ] o.*.*.<.<.6.                                                                                                                                                                                                                                ",
"                                                                                                                                                                                                                                          p e w 0 a h j J $.%.*.*.$.*.-.<.J i Z ^ ] o.%.%.<.<.6.5.                                                                                                                                                                                                                              ",
"                                                                                                                                                                                                                                          a e w 0 e i f Z ..*.&.&.$.&.&.-.L r M Y ] ] %.%.-.-.<.3.                                                                                                                                                                                                                              ",
"                                                                                                                                                                                                                                          p y w 9 e y 0 b  .%.$.$.$.&.*.*.E 0 g J ) } o.%.-.-.<.<.>.                                                                                                                                                                                                                            ",
"                                                                                                                                                                                                                                          p e e e e 9 0 f ( %.$.$.&.$.&.*.( 9 0 M Y ] } $.*.-.<.<.3.                                                                                                                                                                                                                            ",
"                                                                                                                                                                                                                                          p y e e 9 0 e i R O.$.$.$.$.&.*.] r 0 h J ( _  .%.*.<.<.<.                                                                                                                                                                                                                            ",
"                                                                                                                                                                                                                                          p y w 9 9 e 0 u Y @.O.O.$.&.&.&.} r 9 i V ~ ] o.%.%.*.<.<.,.                                                                                                                                                                                                                          ",
"                                                                                                                                                                                                                                            w 8 4 7 9 e i J  .o.O.@.$.$.&. .y : 9 j P ( o.%.*.-.-.*.<.                                                                                                                                                                                                                          ",
"                                                                                                                                                                                                                                            < , < 2 8 y u V } X. .O.$.$.&...u * 3 9 M E o.O.%.*.<.>.<.%.                                                                                                                                                                                                                        ",
"                                                                                                                                                                                                                                            2 , 4 7 8 0 0 b ` o. .o.O.$.$.O.h * - 4 r L ]  .O.%.%.*.%.%.                                                                                                                                                                                                                        ",
"                                                                                                                                                                                                                                            w w 8 3 < 4 8 u ^ ` }  .O.......h & & : 3 m Y ( ( } o. .@.o.                                                                                                                                                                                                                        ",
"                                                                                                                                                                                                                                            p w w w 7 7 6 q L ` `  .O.O...#.c % $ = 3 h J T I T ( _ } }                                                                                                                                                                                                                         ",
"                                                                                                                                                                                                                                              w w 8 7 7 5 0 F ^ ( ( {  .o...n % $ $ = q N L T T / ( _ ]                                                                                                                                                                                                                         ",
"                                                                                                                                                                                                                                              w 7 4 > 3 5 9 M R / / ( { |  .V = - = = 5 m K ( ( ( ( ( ( )                                                                                                                                                                                                                       ",
"                                                                                                                                                                                                                                              w 7 4 , : 3 6 c K R R / ` ` { F > - - : 5 c F R W E R / ( (                                                                                                                                                                                                                       ",
"                                                                                                                                                                                                                                              w w w w 4 > 3 c F G L R / / ` G 7 3 3 5 0 j F F H U E / / ^                                                                                                                                                                                                                       ",
"                                                                                                                                                                                                                                              v v n c u q u M J J G F L R ` K 9 5 5 0 t m G L T E E E E Y                                                                                                                                                                                                                       ",
"                                                                                                                                                                                                                                              B A V B B J F K ) R I T T R / I e 9 q q d M L T W ( _ ( (                                                                                                                                                                                                                         ",
"                                                                                                                                                                                                                                            n A V B J V J ! ` _ _ _ ` ^ Y R I d q t t g N U T W ` ` ` (                                                                                                                                                                                                                         ",
"                                                                                                                                                                                                                                            S A n Z L D D Y ' ' _ ` ( ( _ ( R h u q u j N L T R ( ( E /                                                                                                                                                                                                                         ",
"                                                                                                                                                                                                                                            A V n Z K L D Y Y ' / _ } X. . .R a u u u z N H L T E / R R                                                                                                                                                                                                                         ",
"                                                                                                                                                                                                                                          A S V C D Y D I Y I I / ( ` X.X.X.V a u q d z V G G E W E E R                                                                                                                                                                                                                         ",
"                                                                                                                                                                                                                                          P D A D K L L D ' ' Y R ^ _ _ } ^ h q q q u z N F H T R T T                                                                                                                                                                                                                           ",
"                                                                                                                                                                                                                                          I P D K G K Y Y Y ' Y / / ] _ ( Z a u q u d m N F H T L T E                                                                                                                                                                                                                           ",
"                                                                                                                                                                                                                                          I L P K D Y / ' D Y ' ' ] ] ( ^ x u a h f f m F H U T T R R                                                                                                                                                                                                                           ",
"                                                                                                                                                                                                                                        P Y L K K Z K / ' ' Y ' / ( ( ] P h f f g g g z F H T T R T I                                                                                                                                                                                                                           ",
"                                                                                                                                                                                                                                        Y ~ P P L L P / ' Y ' Y E / / / n h f a f g g F H H L T E T L                                                                                                                                                                                                                           ",
"                                                                                                                                                                                                                                        ~ I I I Y U R ' R Y Y ' R / / Y h f a u u d z F H H T T E R                                                                                                                                                                                                                             ",
"                                                                                                                                                                                                                                      P ~ I I I L L R Y Y Y Y Y Y ^ /   b a y y r u z F H U T T ( R                                                                                                                                                                                                                             ",
"                                                                                                                                                                                                                                      I Y I L L D L Y L D L L I Y Y Y   b h f i f g M F H T T T / L                                                                                                                                                                                                                             ",
"                                                                                                                                                                                                                                      Y Y I I L Y Y Y L Y L L L U Y     v h h h k g N F H H T W ( L                                                                                                                                                                                                                             ",
"                                                                                                                                                                                                                                    P Y Y Y Y Y Y R L L L L L K P P     h h h i d g F F H T T E _ Y                                                                                                                                                                                                                             ",
"                                                                                                                                                                                                                                    ~ ^ Y Y Y Y Y Y L Y L U L U U       h b b h u d N F H T U H I                                                                                                                                                                                                                               ",
"                                                                                                                                                                                                                                    ^ Y Y ^ R Y Y L L L L L P U P       k h k h f g N G H L L L Y                                                                                                                                                                                                                               ",
"                                                                                                                                                                                                                                    ^ ^ / R ^ ^ U L U L L L U U         k b h v j j F G U T T T ^                                                                                                                                                                                                                               ",
"                                                                                                                                                                                                                                  ~ ^ / ~ ~ ' R P L L L L L L P         k k s k j l Z H L T R R R                                                                                                                                                                                                                               ",
"                                                                                                                                                                                                                                  / _ / Y ' ~ Y L L L L L U Y         k b k i k h z C H H R R R Y                                                                                                                                                                                                                               ",
"                                                                                                                                                                                                                                  ) / ^ ' ~ R L L L L L P U U         b b k i h h m F L U Y R R Y                                                                                                                                                                                                                               ",
"                                                                                                                                                                                                                                ^ ) ^ ^ Y ' Y L L L L D U Y           k v k i f g M F L L U R R                                                                                                                                                                                                                                 ",
"                                                                                                                                                                                                                                ) ] / R ^ R L L K K K L Y D           l n s s s i M Z L L U R R                                                                                                                                                                                                                                 ",
"                                                                                                                                                                                                                                ( ( / / ~ R L L K L L L Y             b b s s i i C F H U R E Y                                                                                                                                                                                                                                 ",
"                                                                                                                                                                                                                              ~ ) / ^ ) ' R P K K K L Y L             b b s s u f C F H U / E Y                                                                                                                                                                                                                                 ",
"                                                                                                                                                                                                                              ^ ) ^ / R Y D K K K K L L D             n b s i u i C Z L U / / Y                                                                                                                                                                                                                                 ",
"                                                                                                                                                                                                                              ^ ~ ' R Y Y L L J K K I K               b v s s i k C F H U / /                                                                                                                                                                                                                                   ",
"                                                                                                                                                                                                                              ) ] ~ R Y P K G L K K I J               b h f s u k C G H Y E R                                                                                                                                                                                                                                   ",
"                                                                                                                                                                                                                            ^ / ~ R R Y L G J K K K L                 b h i u y l Z F L R ^ R                                                                                                                                                                                                                                   ",
"                                                                                                                                                                                                                            ^ ~ Y Y Y P K K L Z F K H                 b s y 0 0 l C H P R / Y                                                                                                                                                                                                                                   ",
"                                                                                                                                                                                                                            R Y D I Y P J G J G F D                   k i 0 9 r z Z L Y ^ R Y                                                                                                                                                                                                                                   ",
"                                                                                                                                                                                                                          P I I Y D K K J F G Z Z Z                   k u y 0 u M C H U R R                                                                                                                                                                                                                                     ",
"                                                                                                                                                                                                                          L I I L L K D F G J F C                     b u r r u M Z P Y R Y                                                                                                                                                                                                                                     ",
"                                                                                                                                                                                                                          I I L K Y L G J F C C Z                     k y 0 0 i m C K Y ^ Y                                                                                                                                                                                                                                     ",
"                                                                                                                                                                                                                          Y I L K P G F Z C C C                       u 9 9 9 d M C K Y Y L                                                                                                                                                                                                                                     ",
"                                                                                                                                                                                                                        P I K L U D Z F Z C C C                       y 8 6 0 d M C Z F Z V                                                                                                                                                                                                                                     ",
"                                                                                                                                                                                                                        L I K F H Z Z F C C C                         9 4 9 r g M N M M B                                                                                                                                                                                                                                       ",
"                                                                                                                                                                                                                        L K K K Z C C C C C M                         9 9 6 9 h z M b Z F                                                                                                                                                                                                                                       ",
"                                                                                                                                                                                                                      J L L H G F N F N C N                           9 9 9 6 h m M C F F                                                                                                                                                                                                                                       ",
"                                                                                                                                                                                                                      K L H H T F F z F C N                           0 8 5 9 g m C Z Z V                                                                                                                                                                                                                                       ",
"                                                                                                                                                                                                                      J F F H H N N N N N                             8 5 5 9 h m M z z m                                                                                                                                                                                                                                       ",
"                                                                                                                                                                                                                    J J F F H C z N N N M                             < 4 : 6 f k g k z                                                                                                                                                                                                                                         ",
"                                                                                                                                                                                                                    S K V M N M z F z N z                             , : - 5 d l z z M                                                                                                                                                                                                                                         ",
"                                                                                                                                                                                                                    J V m h g z z z N N                             w 5 3 3 0 f l z z b                                                                                                                                                                                                                                         ",
"                                                                                                                                                                                                                    V M z d g g g g z z                             9 7 3 , 0 a f l l m                                                                                                                                                                                                                                         ",
"                                                                                                                                                                                                                  M B M g d d d d f g                               8 3 3 3 q q j l m l                                                                                                                                                                                                                                         ",
"                                                                                                                                                                                                                  b b c u d d q t g g                               7 3 , 4 q d j g h                                                                                                                                                                                                                                           ",
"                                                                                                                                                                                                                  x f e t d t q q d                                 7 4 : 3 0 q u r f                                                                                                                                                                                                                                           ",
"                                                                                                                                                                                                                h x f f f d t d d t                                 7 4 , 3 0 q a q a                                                                                                                                                                                                                                           ",
"                                                                                                                                                                                                                a h f j f t q d u                                   , > = 3 8 6 0 q d                                                                                                                                                                                                                                           ",
"                                                                                                                                                                                                                , 7 8 y q r q u y                                   = % % , 4 8 9 0 r                                                                                                                                                                                                                                           ",
"                                                                                                                                                                                                                X o # < 5 5 0 q                                     o o o > 3 4 9 9                                                                                                                                                                                                                                             ",
"                                                                                                                                                                                                                  X o # - : 3 5                                       o o # $ $ * *                                                                                                                                                                                                                                             ",
"                                                                                                                                                                                                                        o # =                                                                                                                                                                                                                                                                                                   ",
"                                                                                                                                                                                                                                                                                                                                                                                                                                                                                                                                ",
"                                                                                                                                                                                                                                                                                                                                                                                                                                                                                                                                ",
"                                                                                                                                                                                                                                                                                                                                                                                                                                                                                                                                ",
"                                                                                                                                                                                                                                                                                                                                                                                                                                                                                                                                "
};
