/* XPM */
static char *out[] = {
/* columns rows colors chars-per-pixel */
"256 256 146 2 ",
"   c None",
".  c #1D140E",
"X  c #171212",
"o  c #1D1613",
"O  c #21160E",
"+  c #211713",
"@  c #241A14",
"#  c #2A1E17",
"$  c #251C18",
"%  c #2A1F18",
"&  c #2F2117",
"*  c #2D221A",
"=  c #33251C",
"-  c #36281F",
";  c #3A291E",
":  c #312521",
">  c #362921",
",  c #3C2C22",
"<  c #3F3025",
"1  c #3F3228",
"2  c #402E23",
"3  c #443125",
"4  c #4A3526",
"5  c #453429",
"6  c #4A372A",
"7  c #47382E",
"8  c #4D3A2C",
"9  c #523D2D",
"0  c #593F2E",
"q  c #453630",
"w  c #4E3C30",
"e  c #523E31",
"r  c #57402F",
"t  c #59412F",
"y  c #554133",
"u  c #5C4433",
"i  c #5F4836",
"p  c #554338",
"a  c #5B4639",
"s  c #5E493B",
"d  c #614733",
"f  c #634A36",
"g  c #684C36",
"h  c #644C3B",
"j  c #694E3A",
"k  c #67503E",
"l  c #6C523E",
"z  c #72553F",
"x  c #634E41",
"c  c #665142",
"v  c #6C5442",
"b  c #6B5548",
"n  c #6F594B",
"m  c #715642",
"M  c #755A44",
"N  c #7A5D46",
"B  c #755C4A",
"V  c #7A5F49",
"C  c #755E50",
"Z  c #7D6047",
"A  c #7D614B",
"S  c #776153",
"D  c #7C6352",
"F  c #82654D",
"G  c #86684E",
"H  c #89694F",
"J  c #836751",
"K  c #866952",
"L  c #8A6D54",
"P  c #856D5B",
"I  c #8A6E59",
"U  c #8E7057",
"Y  c #87715D",
"T  c #8D715A",
"R  c #917156",
"E  c #93755C",
"W  c #96785F",
"Q  c #99795E",
"!  c #816A60",
"~  c #8E7461",
"^  c #927661",
"/  c #957962",
"(  c #9B7C63",
")  c #927969",
"_  c #9B7F69",
"`  c #A07F63",
"'  c #9E8066",
"]  c #9E816A",
"[  c #9D8472",
"{  c #9B8378",
"}  c #A18266",
"|  c #A4856A",
" . c #A8876B",
".. c #A6886D",
"X. c #AA8A6D",
"o. c #A28672",
"O. c #A68971",
"+. c #AD8D72",
"@. c #A68B79",
"#. c #AB8E79",
"$. c #B08F73",
"%. c #AF9075",
"&. c #AE927B",
"*. c #B29275",
"=. c #B4957A",
"-. c #B89779",
";. c #B7987E",
":. c #BA9A7D",
">. c #C19E7E",
",. c #AE9581",
"<. c #B39781",
"1. c #B69A81",
"2. c #BB9D82",
"3. c #B59B89",
"4. c #B99F8A",
"5. c #BEA185",
"6. c #B7A08B",
"7. c #BDA28A",
"8. c #BAA693",
"9. c #BEA892",
"0. c #C09F81",
"q. c #C3A485",
"w. c #C4A68A",
"e. c #C8A788",
"r. c #C6A88B",
"t. c #CAAB8C",
"y. c #C1A791",
"u. c #C5AB91",
"i. c #CCAE91",
"p. c #CEB193",
"a. c #CDB399",
"s. c #D2B495",
"d. c #D5B897",
"f. c #D3B699",
"g. c #D6BA9A",
"h. c #D9BD9D",
"j. c #D7BCA1",
"k. c #D9BEA1",
"l. c #DBC09F",
"z. c #DDC3A3",
"x. c #DFC7A9",
"c. c #D7C6B0",
"v. c #E0C6A6",
"b. c #E0C9AA",
"n. c #E4D2B5",
"m. c #E6D6BA",
/* pixels */
"                                                                                                                                                                                                                                                                                                                                                                                                                                                                                                                                ",
"                                                                                                                                                                                                                                                                                                                                                                                                                                                                                                                                ",
"                                                                                                                                                                                                                                                                                                                                                                                                                                                                                                                                ",
"                                                                                                                                                                                                                                                                                                                                                                                                                                                                                                                                ",
"                                                                                                                                                                                                                                                                                                                                                                                                                                                                                                                                ",
"                                                                                                                                                                                                                                                                                                                                                                                                                                                                                                                                ",
"                                                                                                                                                                                                                                                                                                                                                                                                                                                                                                                                ",
"                                                                                                                                                                                                                                                                                                                                                                                                                                                                                                                                ",
"                                                                                                                                                                                                                                                                                                                                                                                                                                                                                                                                ",
"                                                                                                                                                                                                                                                                                                                                                                                                                                                                                                                                ",
"                                                                                                                                                                                                                                                                                                                                                                                                                                                                                                                                ",
"                                                                                                                                                                                                                                                                                                                                                                                                                                                                                                                                ",
"                                                                                                                                                                                                                                                                                                                                                                                                                                                                                                                                ",
"                                                                                                                                                                                                                                                                                                                                                                                                                                                                                                                                ",
"                                                                                                                                                                                                                                                                                                                                                                                                                                                                                                                                ",
"                                                                                                                                                                                                                                                                                                                                                                                                                                                                                                                                ",
"                                                                                                                                                                                                                                                                                                                                                                                                                                                                                                                                ",
"                                                                                                                                                                                                                                                                                                                                                                                                                                                                                                                                ",
"                                                                                                                                                                                                                                                                                                                                                                                                                                                                                                                                ",
"                                                                                                                                                                                                                                                                                                                                                                                                                                                                                                                                ",
"                                                                                                                                                                                                                                                                                                                                                                                                                                                                                                                                ",
"                                                                                                                                                                                                                                                                                                                                                                                                                                                                                                                                ",
"                                                                                                                                                                                                                                                                                                                                                                                                                                                                                                                                ",
"                                                                                                                                                                                                                                                                                                                                                                                                                                                                                                                                ",
"                                                                                                                                                                                                                                                                                                                                                                                                                                                                                                                                ",
"                                                                                                                                                                                                                                                                                                                                                                                                                                                                                                                                ",
"                                                                                                                                                                                                                                                                                                                                                                                                                                                                                                                                ",
"                                                                                                                                                                                                                                                                                                                                                                                                                                                                                                                                ",
"                                                                                                                                                                                                                                                                                                                                                                                                                                                                                                                                ",
"                                                                                                                                                                                                                                                                                                                                                                                                                                                                                                                                ",
"                                                                                                                                                                                                                                                                                                                                                                                                                                                                                                                                ",
"                                                                                                                                                                                                                                                                                                                                                                                                                                                                                                                                ",
"                                                                                                                                                                                                                                                                                                                                                                                                                                                                                                                                ",
"                                                                                                                                                                                                                n.m.m.m.m.m.m.n.m.m.m.m.m.m.m.b.m.m.m.n.m.m.n.b.b.v.l.l.f.s.f.a.                                                                                                                                                                                                                                                ",
"                                                                                                                                                                                                                l.z.z.z.n.b.l.z.b.x.z.z.b.v.l.l.b.b.l.z.n.z.d.d.d.i.u.t.w.q.q.q.                                                                                                                                                                                                                                                ",
"                                                                                                                                                                                                                a.l.l.l.l.z.d.l.l.l.l.l.l.l.l.l.l.l.l.l.l.l.d.d.s.i.t.r.t.e.q.q.                                                                                                                                                                                                                                                ",
"                                                                                                                                                                                                                a.l.l.l.d.l.l.l.l.l.l.s.l.l.l.l.l.l.l.>.d.d.l.d.p.p.t.p.p.p.p.e.                                                                                                                                                                                                                                                ",
"                                                                                                                                                                                                                a.l.l.u.l.l.d.d.d.d.d.d.l.l.9.l.l.l.l.l.d.d.d.d.i.p.s.s.p.s.p.i.                                                                                                                                                                                                                                                ",
"                                                                                                                                                                                                                9.l.l.u.l.p.d.d.p.l.p.s.l.t.t.l.l.l.l.>.d.d.d.t.p.p.s.s.p.p.t.t.                                                                                                                                                                                                                                                ",
"                                                                                                                                                                                                                5.l.9.l.p.p.t.p.t.t.i.t.t.>.l.l.>.>.l.l.d.d.d.d.p.p.t.e.>.p.t.e.                                                                                                                                                                                                                                                ",
"                                                                                                                                                                                                                u.d.p.p.t.r.r.r.e.t.t.t.t.t.t.t.t.d.t.t.t.d.t.t.i.t.e.w.w.w.t.w.                                                                                                                                                                                                                                                ",
"                                                                                                                                                                                                                r.p.u.r.r.r.r.q.e.e.t.t.t.t.l.>.e.t.e.t.t.t.e.t.w.0.e.e.w.t.t.w.                                                                                                                                                                                                                                                ",
"                                                                                                                                                                                                                9.t.u.r.q.q.q.q.5.r.>.r.>.l.>.t.t.e.e.e.e.e.t.e.e.e.e.t.t.i.i.t.                                                                                                                                                                                                                                                ",
"                                                                                                                                                                                                                9.r.r.q.5.:.5.q.>.r.r.>.>.5.t.>.e.e.e.e.t.t.t.t.i.t.t.e.t.t.i.t.                                                                                                                                                                                                                                                ",
"                                                                                                                                                                                                                8.r.5.q.9.:.>.>.9.>.>.9.>.>.l.>.e.e.e.e.e.t.t.t.i.i.i.e.e.t.i.t.                                                                                                                                                                                                                                                ",
"                                                                                                                                                                                                                >.9.r.q.:.>.:.>.>.>.>.>.9.>.>.>.q.e.q.e.e.e.t.t.e.i.i.t.e.e.t.t.                                                                                                                                                                                                                                                ",
"                                                                                                                                                                                                                ;.9.>.9.>.:.:.:.>.>.>.>.>.9.9.>.e.q.e.q.e.e.t.q.e.t.t.t.t.w.t.t.                                                                                                                                                                                                                                                ",
"                                                                                                                                                                                                                ;.>.>.:.:.:.:.:.:.;.>.>.>.>.>.>.q.q.q.e.e.q.t.q.e.e.t.t.t.e.t.u.                                                                                                                                                                                                                                                ",
"                                                                                                                                                                                                                6.:.-.-.*.-.:.:.>.$.-.-.-.-.>.>.>.>.>.e.t.q.q.t.e.e.t.e.t.t.t.r.                                                                                                                                                                                                                                                ",
"                                                                                                                                                                                                                &.-.-.*.%.+.*.*.$.$.$.-.-.-.-.>.>.-.>.>.q.q.q.q.q.e.q.e.t.e.t.r.                                                                                                                                                                                                                                                ",
"                                                                                                                                                                                                                O.+.+.$.X.X.X.X.$.$.$.-.$.-.-.-.-.-.>.-.>.q.q.>.e.q.>.q.e.e.q.r.                                                                                                                                                                                                                                                ",
"                                                                                                                                                                                                                ] ....X.X.X.X.X.X.X.$.X.X.$.X.$.*.-.>.-.>.>.>.>.0.q.q.q.q.e.q.q.                                                                                                                                                                                                                                                ",
"                                                                                                                                                                                                                }  .} X.X.X.X.X.X.$.$.$. .X.X. .X.*.-.-.-.-.>.>.>.>.q.>.q.q.q.>.                                                                                                                                                                                                                                                ",
"                                                                                                                                                                                                                } }  .X...} X.X.$.$.$.$.$. . . .X.X.$.-.-.-.-.>.>.:.>.>.:.q.:.q.                                                                                                                                                                                                                                                ",
"                                                                                                                                                                                                                ' } }  .} } } X.X.$.$.X.X.X.$.X.X.$.X.$.*.-.-.>.5.-.-.-.:.:.:.0.                                                                                                                                                                                                                                                ",
"                                                                                                                                                                                                                ' ' } } } } } } X.$.X. .X.$.X.$.X.$.$.$.*.*.$.*.-.-.-.-.:.:.q.:.                                                                                                                                                                                                                                                ",
"                                                                                                                                                                                                                ' ' ' ' } } } }  .X. . . .X.X.X.X.X.X.$.*.*.*.*.*.$.-.-.:.>.>.:.                                                                                                                                                                                                                                                ",
"                                                                                                                                                                                                                ' Z H ' ' } ' ' } X.X. . . . . .X.X.$.X.*.*.*.-.*.$.$.*.:.:.:.:.                                                                                                                                                                                                                                                ",
"                                                                                                                                                                                                                L ' Z ' R } R }  . .X. . . . . . . .X.$.$.*.$.-.*.$.$.$.*.-.-.-.                                                                                                                                                                                                                                                ",
"                                                                                                                                                                                                                A ' ' Z H H R } } } X.}  . . . . . . .X.$.$.$.-.-.*.$.$.*.*.%.*.                                                                                                                                                                                                                                                ",
"                                                                                                                                                                                                                Z H H H H Z H H R Q } } } } } }  . .X.X.$.$.$.-.*.$.$.X.$.X.X.*.                                                                                                                                                                                                                                                ",
"                                                                                                                                                                                                                H H H H H H H H H R } } } } }  .}  .X.X.X.$.$.$.$. . .$.X.X.X...                                                                                                                                                                                                                                                ",
"                                                                                                                                                                                                                Z Z H H H H H H H R R } } } } }  . .X.X.X.$.$.*.$. . .X. .} } ..                                                                                                                                                                                                                                                ",
"                                                                                                                                                                                                                l N Z Z Z Z H H H H R Q } } } } }  . . . .X.+.$.X.} } }  .} } }                                                                                                                                                                                                                                                 ",
"                                                                                                                                                                                                                w e e u y u u u f f j h h h h j h k l v M A J K J V V A D A A S                                                                                                                                                                                                                                                 ",
"                                                                                                                                                                                                                                      o o . . o @ + @ @ :                                                                                                                                                                                                                                                                       ",
"                                                                                                                                                                                                                                      o @ # % # # # * : q                                                                                                                                                                                                                                                                       ",
"                                                                                                                                                                                                                                      = , 3 6 6 5 6 9 u b                                                                                                                                                                                                                                                                       ",
"                                                                                                                                                                                                                                      > 9 u u h h h h n !                                                                                                                                                                                                                                                                       ",
"                                                                                                                                                                                                                                      1 u k v B M B v J [                                                                                                                                                                                                                                                                       ",
"                                                                                                                                                                                                                                      w v A J A J J A T #.                                                                                                                                                                                                                                                                      ",
"                                                                                                                                                                                                                                      s A I I K I I T ] ,.                                                                                                                                                                                                                                                                      ",
"                                                                                                                                                                                                                                      b L E E I E W _ +.1.                                                                                                                                                                                                                                                                      ",
"                                                                                                                                                                                                                                      B E W / W ( | ..+.2.                                                                                                                                                                                                                                                                      ",
"                                                                                                                                                                                                                                      D ( W / W W _ o.*.2.                                                                                                                                                                                                                                                                      ",
"                                                                                                                                                                                                                                      A _ ( ( ( W /  .;.6.                                                                                                                                                                                                                                                                      ",
"                                                                                                                                                                                                                                      n E W ( _ ( W } -.6.                                                                                                                                                                                                                                                                      ",
"                                                                                                                                                                                                                  y.8.                b K W / | } ( Q | <.                                                                                                                                                                                                                                                                      ",
"                                                                                                                                                                                                                1.=.4.w.0.w.0.0.7.7.4.&.#.=.&.;.=.#.o.o.#.                                                                                                                                                                                                                                                                      ",
"                                                                                                                                                                                                                o. . .X.X.X.=.>.-.>.:.0.0.q.w.e.r.t.e.e.e.7.7.7.1.1.,.@.@.{                                                                                                                                                                                                                                                     ",
"                                                                                                                                                                                                                #. . .+.X.X.$.*.:.7.6.:.:.>.>.>.>.r.>.>.>.9.>.r.w.w.4.2.2.<.<.<.                                                                                                                                                                                                                                                ",
"                                                                                                                                                                                                                #.+. . .$.$.$.-.i.f.a.9.7.>.:.:.>.>.>.>.>.>.>.:.2.2.2.1.1.<.1.=.                                                                                                                                                                                                                                                ",
"                                                                                                                                                                                                                %.$.+.+.*.-.-.w.a.g.l.l.l.a.>.:.>.:.:.:.:.:.>.9.0.2.:.-.<.-.2.<.                                                                                                                                                                                                                                                ",
"                                                                                                                                                                                                                =.-.-.*.*.-.0.i.a.f.l.l.l.l.l.u.u.>.;.-.;.;.:.>.0.2.2.<.-.<.-.&.                                                                                                                                                                                                                                                ",
"                                                                                                                                                                                                              o.=.-.-.-.*.-.t.s.p.a.a.p.p.l.p.l.l.>.;.;.;.:.:.;.2.-.0.<.1.=.=.&.                                                                                                                                                                                                                                                ",
"                                                                                                                                                                                                              o.=.$.*.*.*.e.g.j.g.g.d.a.9.l.p.p.:.%.&.:.>.:.:.>.0.0.0.1.-.<.1.<.                                                                                                                                                                                                                                                ",
"                                                                                                                                                                                                              o.$.X.$.$.>.s.j.k.k.g.g.f.l.>.l.9.*.%.%.%.:.>.>.>.2.2.2.0.0.<.=.                                                                                                                                                                                                                                                  ",
"                                                                                                                                                                                                              o.$.+.X.$.t.d.g.h.g.g.f.f.9.l.>.;.%.X.%.X.%.:.>.>.0.2.1.1.=.$.$.                                                                                                                                                                                                                                                  ",
"                                                                                                                                                                                                              #.*.$.X.0.h.h.h.g.f.f.s.p.s.s.w.*.X.%.$.X.X.:.:.:.2.>.2.1.1.=.+.                                                                                                                                                                                                                                                  ",
"                                                                                                                                                                                                              o.$.X.*.f.f.h.j.h.g.f.s.s.i.u.1.%.$.$.X.X.%.:.:.:.:.2.2.:.1.<.*.                                                                                                                                                                                                                                                  ",
"                                                                                                                                                                                                              o. . .t.k.h.h.g.j.h.g.g.f.i.0.*.$.%.X.X.X.$.:.:.:.2.0.2.2.2.2.1.                                                                                                                                                                                                                                                  ",
"                                                                                                                                                                                                              o.X.:.f.h.h.h.g.g.g.g.g.f.t.-.*.+.X.X.X.X.*.:.-.-.-.:.0.4.0.0.1.                                                                                                                                                                                                                                                  ",
"                                                                                                                                                                                                              | $.p.s.f.d.d.d.s.d.s.s.i.2.;.-.$.X.X.X.X.-.-.-.;.-.<.-.2.2.2.1.                                                                                                                                                                                                                                                  ",
"                                                                                                                                                                                                              O.t.z.k.g.s.s.d.f.s.s.i.5.-.-.*.$.X.X.X.%.%.%.-.;.-.-.<.-.-.2.-.                                                                                                                                                                                                                                                  ",
"                                                                                                                                                                                                              2.h.v.v.h.g.s.s.s.i.s.r.-.-.*.*.+.X.$.$.%.%.*.*.*.$.2.0.:.1.2.1.                                                                                                                                                                                                                                                  ",
"                                                                                                                                                                                                              p.h.h.h.d.d.s.p.i.t.q.-.-.*.*.*.$.*.X.*.*.-.%.%.%.$.-.2.-.:.-.;.                                                                                                                                                                                                                                                  ",
"                                                                                                                                                                                                            p.g.f.f.f.s.s.d.s.p.l.-.*.-.*.*.$.$.$.X.*.-.*.*.%.=.$.-.-.-.<.2.%.                                                                                                                                                                                                                                                  ",
"                                                                                                                                                                                                            g.h.g.h.h.g.s.s.p.p.>.-.*.*.*.$.$.X.X.$.-.-.*.*.%.%.$.$.-.-.-.-.=.                                                                                                                                                                                                                                                  ",
"                                                                                                                                                                                                          j.k.d.g.f.g.h.f.s.i.q.-.-.-.*.*.$.X.X.X.*.*.-.*.%.*.*.$.$.%.&.=.;.=.                                                                                                                                                                                                                                                  ",
"                                                                                                                                                                                                          d.h.d.d.s.i.d.s.p.e.:.*.*.*.$.$.$.X.} X.*.*.*.-.*.-.*.%.*.*.=.=.;.                                                                                                                                                                                                                                                    ",
"                                                                                                                                                                                                        g.g.g.d.d.s.s.t.e.q.-.=.*.*.$.$.X.X...X.$.*.*.*.-.*.-.*.=.=.=.-.=.=.                                                                                                                                                                                                                                                    ",
"                                                                                                                                                                                                      a.j.j.d.g.d.d.d.i.q.0.-.$.*.*.*.$.X.X...%.*.*.-.*.-.-.*.-.*.=.=.=.=.=.                                                                                                                                                                                                                                                    ",
"                                                                                                                                                                                                      g.g.g.g.g.d.f.s.d.s.2.$.+.*.*.*.X.X.X.X.X.*.*.*.*.*.-.*.*.*.=.=.*.*.;.                                                                                                                                                                                                                                                    ",
"                                                                                                                                                                                                    g.h.g.g.g.g.d.s.p.p.q.*...$.*.$.$.X.X.X.X.X.*.*.*.$.*.$.*.*.$.$.*.*.*.-.                                                                                                                                                                                                                                                    ",
"                                                                                                                                                                                                  a.g.g.h.g.g.d.d.d.s.t.-.$.X.$.$.$.X.X.X.X.$.$.*.$.*.+.$.*.$.*.$.$.$.*.&.*.                                                                                                                                                                                                                                                    ",
"                                                                                                                                                                                                  g.f.g.g.d.d.d.s.s.d.e.-.$.X. .X.X.X.X.} X.X.$.+.*.*.+.X.*.+.+.+.$.$.%.*.=.                                                                                                                                                                                                                                                    ",
"                                                                                                                                                                                                f.f.g.g.g.g.d.s.i.i.e.-.X.X.X.X.+.X. .| X.X.$.$.*.*.*.*.*.*.*.+.$.+.$.$.$.*.                                                                                                                                                                                                                                                    ",
"                                                                                                                                                                                              a.f.f.d.g.d.a.p.i.e.e.-. . .X. .X.X.X.} | ..X.$.$.%.*.*.*.*.*.*.X.X.#.%.+.*.*.                                                                                                                                                                                                                                                    ",
"                                                                                                                                                                                              p.s.s.p.p.p.s.p.t.>.-. .Q } } } }  . .|  ...X.+.%.%.*.*.*.*.*.*.+.+.+.+.+.$.&.                                                                                                                                                                                                                                                    ",
"                                                                                                                                                                                            u.p.p.t.t.i.i.t.t.e.-. .} Q ` ` Q Q } } ....X.X.+.%.%.X.*.*.*.$.%.X.X.+.+.$.$.&.                                                                                                                                                                                                                                                    ",
"                                                                                                                                                                                            t.t.r.r.i.r.e.5.>.>.X.} } Q Q Q Q Q ' | | ....X.+.%.*.+.*.*.*.+.+.X.X.X.+.X.X.&.                                                                                                                                                                                                                                                    ",
"                                                                                                                                                                                          5.q.q.t.i.r.q.:.$.*.$.} Q Q Q Q Q Q Q ' X.| ....X.X.X.+.*.X.%.+.*.*.+.X.X.X.+.X.+.                                                                                                                                                                                                                                                    ",
"                                                                                                                                                                                          2.;.;.2.w.q.:.%.| ' W Q Q Q Q Q E R ' } ..| ..X.X.X.X.%.+.+.*.X.%.+.X. . .+.$.+.+.                                                                                                                                                                                                                                                    ",
"                                                                                                                                                                                        ;.-.*...] | +...} | W E Q Q Q R R H R } | ..| | | X.X.%.X.X.X.+.X.X.+.X.+. .+.+.*.*.                                                                                                                                                                                                                                                    ",
"                                                                                                                                                                                      &.+.+.O.| | ' Q W / ( W W E E R U H H Q | | | | ..] ....X.........X.X.+.*.+.+. .#.%.=.                                                                                                                                                                                                                                                    ",
"                                                                                                                                                                                      O. ./ E E ( ' ( _ _ Q W E R H R U R Q ' } | | ' | | ....] } } } ....+.X.*.+.+.+.+.+.$.                                                                                                                                                                                                                                                    ",
"                                                                                                                                                                                    _ [ O._ P J K E I / ( W W W U H H G U ' W ' | | } ' | ..| } | } } | .... . .+.+.+.+.X.$.                                                                                                                                                                                                                                                    ",
"                                                                                                                                                                                    9.i.a.i.y.7.7.4.1.=._ L L R T L F G T E E ( ' ' ' ' ] ] | } } } | } } | .. .+.+.+. .| +.                                                                                                                                                                                                                                                    ",
"                                                                                                                                                                                    =.<.1.1.*.+.#.#.+.#.-.#.T F F K F U E E E E ' ' ' ' ' ' ' ' } } } } } } | | } |  .O.X.+.                                                                                                                                                                                                                                                    ",
"                                                                                                                                                                                       . . .O.| (  .:.1.#.#.+.^ A A K U E E E E U U ' ' ' ' ' ' ( Q ( Q _ } } } ( ( } | | o.                                                                                                                                                                                                                                                    ",
"                                                                                                                                                                                      ( } }  .+.|  .-.2.;.o... ._ T I L L T T E ' E E ' ' ' ' ' W W E E W ' } } ( Q ( ` } ..                                                                                                                                                                                                                                                    ",
"                                                                                                                                                                                      E _ } }  .X.+.+.-.2.=.+...o._ L T U L T E U E U E E ' W ' ' E W W W ( ( ( ( _ ( ( | ....                                                                                                                                                                                                                                                  ",
"                                                                                                                                                                                        / ( ( ` +. .} ` -.2.*.+.+.| E L T U T U E E W ' W W E ' ' W E W E ( Q ( Q _ ( } ]  .O.                                                                                                                                                                                                                                                  ",
"                                                                                                                                                                                        L T T W W Q ( ( +.2.*.+.X...T L L T L L U U T ' W ' W E W E E E W W ( / ( Q Q ( ] |  .                                                                                                                                                                                                                                                  ",
"                                                                                                                                                                                        A A F L U U R W } -.*.+.+.X.W K K L K L L K U ' E ' ' W W W E E E ( ( ( ( W / ( _ } ..                                                                                                                                                                                                                                                  ",
"                                                                                                                                                                                          n k k N K H L L +.-.$.+.$.( G K K K K K L L U U U E ' W ' ( E ( E ( ( W / W W ( } ..                                                                                                                                                                                                                                                  ",
"                                                                                                                                                                                          k h i k F J L H } -.+.+.$.| J K K K K D L L L U U E E W ( W ( E E E E E W W W / ( ]                                                                                                                                                                                                                                                   ",
"                                                                                                                                                                                          h j h k N N G G W =.*.$.*...G F K K G K A A L Y U U E E E ( W E E E T R E E E Q ( '                                                                                                                                                                                                                                                   ",
"                                                                                                                                                                                          l A S M Z N Z F U %.;.=.-.%.L Z G G D J F F F J L I I T E W E E E E R T T U E ^ ( `                                                                                                                                                                                                                                                   ",
"                                                                                                                                                                                            S K D G Z Z Z H +.:.:.;.*.U Z Z D G L J J F F F H J L T E E R R I I R T E L E E (                                                                                                                                                                                                                                                   ",
"                                                                                                                                                                                            s h M A L F F F ' >.5.:.;.W Z m Z A J J J K J J F F H L I R E R R L H L L L L E E                                                                                                                                                                                                                                                   ",
"                                                                                                                                                                                            w y u k Z G G G ' >.q.5.;.] Z B n Z V F F F J L L J J L L I E T I L L I I L L L E                                                                                                                                                                                                                                                   ",
"                                                                                                                                                                                              e y s M A A H U -.>.5.5.%.Z Z n Z B V V V F F F L K L L I I U I I L I I L L L I                                                                                                                                                                                                                                                   ",
"                                                                                                                                                                                              8 y u v A A G G ..>.5.5.;.Z z z Z N M M M F F F F H J L L I T L L K K L L L J L                                                                                                                                                                                                                                                   ",
"                                                                                                                                                                                                y p k A H G A ' :.>.5.;.A l z m m m m m m m N F J J J J L L L I J H L K L K K I                                                                                                                                                                                                                                                 ",
"                                                                                                                                                                                                r y i M A L H W :.5.5.:.Y b z k m m m v v g v M F F J J J J L L K J J K J K I P                                                                                                                                                                                                                                                 ",
"                                                                                                                                                                                                r r y u l U U E *.q.>.5.E m m z l j v m m l l l m N F F F F F J I K K J J J L P                                                                                                                                                                                                                                                 ",
"                                                                                                                                                                                                  1 r 6 i D ' E %.5.5.5.' z m z z v v v l l l l m m m M N V F F J J J J V V A J                                                                                                                                                                                                                                                 ",
"                                                                                                                                                                                                  6 6 r r Z U U ..>.5.5.] b z z v j j j g m z l j l m m m N V F F J F N N M M B                                                                                                                                                                                                                                                 ",
"                                                                                                                                                                                                    6 r r k K K E :.5.5.@.z k l m l g g g g v m V V V v f x l v x h a 0 e w e p                                                                                                                                                                                                                                                 ",
"                                                                                                                                                                                                    7 6 r i A A H *.5.5.*.n u u d f u 0 f m m K _ _ _ K M V F F x                                                                                                                                                                                                                                                               ",
"                                                                                                                                                                                                    7 r r p A A G X.>.5.;.h ; - = 2 ; ; a g d J o.o.#.o.o.o.o.o.P                                                                                                                                                                                                                                                               ",
"                                                                                                                                                                                                      r r i A A Z } :.5.2.b > , O @ = = w 0 0 V O.+.O.O.+.O.#.X.) !                                                                                                                                                                                                                                                             ",
"                                                                                                                                                                                                      1 1 p Z Z Z Q :.5.7.D ; 2 + O ; 2 9 0 e m _ #.#.+.X.#.%.%.o.)                                                                                                                                                                                                                                                             ",
"                                                                                                                                                                                                      1 5 y A A Z U -.5.5.W = 1 & . & 2 0 t d M | &.%.+.#.$.=.-.#.{                                                                                                                                                                                                                                                             ",
"                                                                                                                                                                                                        8 w M J Z G %.5.5.[ - ; * . # ; 9 g l z ] &.%.%.=.=.=.1.<.@.,.                                                                                                                                                                                                                                                          ",
"                                                                                                                                                                                                        8 8 l K F G X.:.6.O.1 = = . + * 8 t g z _ =.=.=.:.1.1.:.1.&.1.                                                                                                                                                                                                                                                          ",
"                                                                                                                                                                                                          < y A G F ' :.-.O.y = - # @ # 8 9 u z ^ &.=.1.2.0.2.2.1.;.2.3.                                                                                                                                                                                                                                                        ",
"                                                                                                                                                                                                          < < k A Z T *.=.#.p = , * % % 4 8 u j T *.=.;.2.5.2.2.1.:.2.7.                                                                                                                                                                                                                                                        ",
"                                                                                                                                                                                                          1 , 6 l l Z ..%.%.c * 1 , * % 3 9 t j J &.=.;.7.w.2.1.2.1.2.r.                                                                                                                                                                                                                                                        ",
"                                                                                                                                                                                                            , ; 4 4 t W %.&.S * 5 5 > = , r f l F O.=.*.1.r.5.2.1.1.2.r.7.                                                                                                                                                                                                                                                      ",
"                                                                                                                                                                                                            - ; 4 r r K %.&.Y = , 5 5 , 4 9 u d N +.=.&.-.2.2.1.1.1.2.w.r.                                                                                                                                                                                                                                                      ",
"                                                                                                                                                                                                              = 8 u f A +.=./ > > 6 5 5 q 9 9 t M  .;.;.:.2.:.1.:.1.4.e.r.                                                                                                                                                                                                                                                      ",
"                                                                                                                                                                                                              - ; t g Z ] &.[ 7 = w w w w 8 9 u M } =.;.;.2.2.1.-.1.4.w.u.y.                                                                                                                                                                                                                                                    ",
"                                                                                                                                                                                                              * = 4 u z / &.@.p * w p a w 8 8 u l Q *.*.*.-.1.:.-.;.2.w.u.u.                                                                                                                                                                                                                                                    ",
"                                                                                                                                                                                                                & & 4 u T %.@.c = 5 p x e 8 6 9 f L *.*.-.;.:.;.;.<.2.w.u.u.w.                                                                                                                                                                                                                                                  ",
"                                                                                                                                                                                                                # # = 3 m ] ..n > , p s 6 2 4 8 f H $.*.=.-.;.;.=.;.:.7.w.u.u.                                                                                                                                                                                                                                                  ",
"                                                                                                                                                                                                                  # @ = , b n x 5 , a a 5 4 9 9 g F X.*.=.=.-.;.;.;.2.6.w.u.u.                                                                                                                                                                                                                                                  ",
"                                                                                                                                                                                                                  @ o $ $ *   7 5 , a p 6 8 9 4 t F ..*.*.*.-.:.;.1.1.2.7.w.u.7.                                                                                                                                                                                                                                                ",
"                                                                                                                                                                                                                                5 , a a w 8 9 9 t z | *.*.=.;.:.:.1.1.2.2.w.u.r.                                                                                                                                                                                                                                                ",
"                                                                                                                                                                                                                                > : p p e 8 e 9 t z ` $.*.-.-.1.1.;.1.2.5.5.r.r.7.                                                                                                                                                                                                                                              ",
"                                                                                                                                                                                                                                  % e p e w 8 8 t l Q *.*.*.1.2.1.;.1.2.5.5.7.r.7.                                                                                                                                                                                                                                              ",
"                                                                                                                                                                                                                                    s a e w 9 9 0 j R $.$.*.1.w.5.1.1.2.5.5.7.u.w.                                                                                                                                                                                                                                              ",
"                                                                                                                                                                                                                                      a e w 9 9 0 g L $.$.=.-.1.2.2.1.1.1.5.7.r.r.6.                                                                                                                                                                                                                                            ",
"                                                                                                                                                                                                                                      s a e 9 9 9 f G $.$.$.-.1.2.w.2.=.*.2.7.r.w.7.                                                                                                                                                                                                                                            ",
"                                                                                                                                                                                                                                      s a e e 9 9 d F  .$.$.=.<.2.4.2.;.*.1.7.r.w.w.                                                                                                                                                                                                                                            ",
"                                                                                                                                                                                                                                      x h e 6 9 9 d N | $.$.=.<.1.2.2.;.=.=.2.7.w.2.<.                                                                                                                                                                                                                                          ",
"                                                                                                                                                                                                                                      x s e 8 8 9 u z | $.$.*.;.:.2.4.1.*.=.1.7.7.1.1.                                                                                                                                                                                                                                          ",
"                                                                                                                                                                                                                                      x s p e 9 9 u l Q +.$.$.=.;.1.5.2.=.*.-.6.w.7.:.<.                                                                                                                                                                                                                                        ",
"                                                                                                                                                                                                                                      x x a e 9 9 u g W $.+.$.;.;.5.1.5.=.*.*.5.w.7.1.<.                                                                                                                                                                                                                                        ",
"                                                                                                                                                                                                                                        h y 9 9 9 t g R +.$.$.;.5.2.5.1.=.&.&.;.7.w.2.2.                                                                                                                                                                                                                                        ",
"                                                                                                                                                                                                                                        x y e 9 9 t f L +.+.+.<.1.;.1.5.*.%.=.=.5.r.7.7.1.                                                                                                                                                                                                                                      ",
"                                                                                                                                                                                                                                        x s e e 0 t d F X.$.%.=.;.5.5.5.%.%.%.=.1.7.7.2.2.                                                                                                                                                                                                                                      ",
"                                                                                                                                                                                                                                        n c y e u t t M  .$.$.*.;.:.5.:.O.| %.*.=.=.1.2.7.                                                                                                                                                                                                                                      ",
"                                                                                                                                                                                                                                        B c y y 9 t u z } $.+.%.=.;.5.1.%.Q X.%.%.&.&.2.7.2.                                                                                                                                                                                                                                    ",
"                                                                                                                                                                                                                                        b s e y e t d j ` +.+.$.;.;.7.:.%.T ' ] X.&.=.2.7.2.                                                                                                                                                                                                                                    ",
"                                                                                                                                                                                                                                        c s p y u t u g ( +.+.+.&.;.5.6.$.U W ' ..O.&.1.5.7.1.                                                                                                                                                                                                                                  ",
"                                                                                                                                                                                                                                        c s y p u u t f E +.+.+.&.=.:.6.$.U E ] ..o.+.&.1.7.6.                                                                                                                                                                                                                                  ",
"                                                                                                                                                                                                                                          s y p h u u j E +.$.*.%.&.:.:.-.D K ' ....O.&.;.5.w.                                                                                                                                                                                                                                  ",
"                                                                                                                                                                                                                                          x y y h j d f K +.%.*.%.=.=.:.:.L S E ] ..%.=.=.1.7.8.                                                                                                                                                                                                                                ",
"                                                                                                                                                                                                                                          s p y u s u u A +.+.&.&.=.=.;.5.E m Y ] | O.&.=.=.5.7.                                                                                                                                                                                                                                ",
"                                                                                                                                                                                                                                          s y y y u f f M  .+.*.%.=.=.;.:./ k A / ] ] &.=.=.;.7.7.                                                                                                                                                                                                                              ",
"                                                                                                                                                                                                                                          p y w 8 y j j M ..*.*.&.*.=.=.:.] u Z Y ] ] %.;.,.1.6.6.                                                                                                                                                                                                                              ",
"                                                                                                                                                                                                                                          p y e w w u h m _ &.&.*.%.*.&.-...r h D ' ] @.;.=.1.1.6.                                                                                                                                                                                                                              ",
"                                                                                                                                                                                                                                          p y e w 9 e e f / *.=.&.%.%.*.-.X.i u Z ~ ] O.&.=.1.1.2.3.                                                                                                                                                                                                                            ",
"                                                                                                                                                                                                                                            e w w w 9 8 e K #.*.%.*.*.*.*.%.k 6 k K ' ] X.&.=.1.1.2.                                                                                                                                                                                                                            ",
"                                                                                                                                                                                                                                            y w e w 8 9 9 A +.%.&.%.%.*.*.%.m 6 r A ~ ] ] #.=.<.1.1.<.                                                                                                                                                                                                                          ",
"                                                                                                                                                                                                                                            p y 8 8 9 e 9 N o.+.+.%.%.*.*.*.n 3 u k L ] ..#.=.=.1.<.1.                                                                                                                                                                                                                          ",
"                                                                                                                                                                                                                                            y w 5 5 6 8 0 m ` X.X.%.%.%.%.*.Z = 4 u A ^ O.+.&.=.;.=.=.,.                                                                                                                                                                                                                        ",
"                                                                                                                                                                                                                                            5 < , 1 3 w 0 h _ o.X.X.X.%.&.*.D = - 4 i U ] +.%.=.<.=.,.1.                                                                                                                                                                                                                        ",
"                                                                                                                                                                                                                                            , : , 5 5 8 e a ^ | ..X.+.%.$.%.L - & , 4 M / O.O.%.=.=.&.,.                                                                                                                                                                                                                        ",
"                                                                                                                                                                                                                                              w 8 3 2 2 8 8 F ` [ ....%.+.$.U - & = ; t K / _ ' O.O.O.%.                                                                                                                                                                                                                        ",
"                                                                                                                                                                                                                                              p w q 6 5 6 8 m ` ` |  .#.+.$.E > # & ; 4 M L T R W _ ]  .]                                                                                                                                                                                                                       ",
"                                                                                                                                                                                                                                              e w q 8 5 6 6 j E / ( | X.X.X./ > # & & ; m F R R E Q _ _ ]                                                                                                                                                                                                                       ",
"                                                                                                                                                                                                                                              e w 5 , , 2 6 a L / ( ( `  . .( 5 = = = ; d V E ( Q ( ( ( _                                                                                                                                                                                                                       ",
"                                                                                                                                                                                                                                              w 5 5 , > , 4 0 F E W / / ` | / w = = ; ; u B L W W W W W _                                                                                                                                                                                                                       ",
"                                                                                                                                                                                                                                                q w q 6 > 2 0 N J L E W Q ` ( d 2 2 4 4 u m F L L R Q Q /                                                                                                                                                                                                                       ",
"                                                                                                                                                                                                                                              s x b x f e 8 a F F F G L W Q E h 3 4 4 0 g N L L E Q W / E                                                                                                                                                                                                                       ",
"                                                                                                                                                                                                                                              n C C B m V B V ~ T I L L E E W c 8 9 0 u l F R R ( _ ( ( T                                                                                                                                                                                                                       ",
"                                                                                                                                                                                                                                              S C V V F F K ) ` ` / ( / R E E M e 0 0 d z G R E ` ` ` _ E                                                                                                                                                                                                                       ",
"                                                                                                                                                                                                                                              D S M D L D L ' ' | | _ _ ( W W V u u u f M F R R W Q Q (                                                                                                                                                                                                                         ",
"                                                                                                                                                                                                                                            C D M S A K L Y Y ' / ( _ | | | ` B r u t g M F H R E Q E E                                                                                                                                                                                                                         ",
"                                                                                                                                                                                                                                            S D A S K L K Y E E ^ / _ o.o.o._ j u r u g N F F R Q W W E                                                                                                                                                                                                                         ",
"                                                                                                                                                                                                                                            P J D L L U U T E Y E E / ` | | D u y t t j M F F R W R R T                                                                                                                                                                                                                         ",
"                                                                                                                                                                                                                                          P Y K J K K Y U E E U E E ( ' _ / h u u u u g z Z F R R R E T                                                                                                                                                                                                                         ",
"                                                                                                                                                                                                                                          P P P U K L ^ ' Y E ' ] ' ' _ ( J s u f g d l F F H R R L E                                                                                                                                                                                                                           ",
"                                                                                                                                                                                                                                          T P L L D J T ' ' ' ' ( / ( _ / n h h g g g z F F R R E E E                                                                                                                                                                                                                           ",
"                                                                                                                                                                                                                                        Y ~ Y U L L L E U ' Y U E / / _ K h h h d g g z F H L L R R R                                                                                                                                                                                                                           ",
"                                                                                                                                                                                                                                        ~ ~ T T U ' Y ' ' Y U ' E ~ / / B s u u u u l N G H L R W W L                                                                                                                                                                                                                           ",
"                                                                                                                                                                                                                                        Y T I T U U U E U L Y U E E ( Y v h u e y u g N G H R R W W T                                                                                                                                                                                                                           ",
"                                                                                                                                                                                                                                      P T I L I L D U U D U K U U T E   v v h s f g z Z H R H R W U                                                                                                                                                                                                                             ",
"                                                                                                                                                                                                                                      Y T T T I K L ' K U L K U L U Y   v j h h k j z F H H R R ' T                                                                                                                                                                                                                             ",
"                                                                                                                                                                                                                                      T ^ T T T U ' Y U U L L L K L     c h h h d g z F H H R R ' E                                                                                                                                                                                                                             ",
"                                                                                                                                                                                                                                      ^ T E E I U U K K L L L K I K     k v v k i g z F H H R R I Y                                                                                                                                                                                                                             ",
"                                                                                                                                                                                                                                    T ^ E ^ E E E U L L L L L Y U       k k k k g f N F H H H H U U                                                                                                                                                                                                                             ",
"                                                                                                                                                                                                                                    ^ ^ ^ ^ T ^ E K L L U K L U K       k v h k k g z F R R L E W                                                                                                                                                                                                                               ",
"                                                                                                                                                                                                                                    ^ / ~ E / / Y K L L L K U E         z b h k l k Z G H L R E E                                                                                                                                                                                                                               ",
"                                                                                                                                                                                                                                  ^ ) _ ' / / E L L L K K L U D         k k s h k g A G L U E E T                                                                                                                                                                                                                               ",
"                                                                                                                                                                                                                                  / _ / ' Y / U K L L K K U E           v k s h k l A H L U E E E                                                                                                                                                                                                                               ",
"                                                                                                                                                                                                                                  / / / / / E L L L K L U E D           b k s i f z A H L U U E ~                                                                                                                                                                                                                               ",
"                                                                                                                                                                                                                                ) ] ' ) ~ E U H K H L L U L             z k s i f z A G H U T E                                                                                                                                                                                                                                 ",
"                                                                                                                                                                                                                                ) _ / / / / Y L L K D L U D             b k s s u M A G L E E E                                                                                                                                                                                                                                 ",
"                                                                                                                                                                                                                                / / / / / T P H K K K U U               b k s i i Z Z G K / E E                                                                                                                                                                                                                                 ",
"                                                                                                                                                                                                                              T _ / / ) E Y K K L K K L D             v m s s u r Z A G U E ( T                                                                                                                                                                                                                                 ",
"                                                                                                                                                                                                                              ~ ) ' / Y T L K K K K L L               m v s s i i Z A G U W W T                                                                                                                                                                                                                                 ",
"                                                                                                                                                                                                                              / ' / E E T L K G K K L K               b v s h i i Z F H U E E                                                                                                                                                                                                                                   ",
"                                                                                                                                                                                                                              _ ~ / E Y I F K K J K L                 v k a i r h Z F K T / E                                                                                                                                                                                                                                   ",
"                                                                                                                                                                                                                            ~ ^ ~ E T T K G J F F K J                 v s y r r k Z G L E E T                                                                                                                                                                                                                                   ",
"                                                                                                                                                                                                                            T T Y I T L K F F F A J                   v s u r r k A F L T E T                                                                                                                                                                                                                                   ",
"                                                                                                                                                                                                                            T T Y K K K F F K F A A                   c i y r r z Z G I ^ E L                                                                                                                                                                                                                                   ",
"                                                                                                                                                                                                                          L I T T L I A F F F F A N                   z a r r r m Z K U T E                                                                                                                                                                                                                                     ",
"                                                                                                                                                                                                                          I I I K U Y G F F A A A                     k y r r r m Z J T ^ T                                                                                                                                                                                                                                     ",
"                                                                                                                                                                                                                          T E I K L F F F A Z Z N                     s 8 8 8 u z Z G I Y L                                                                                                                                                                                                                                     ",
"                                                                                                                                                                                                                        K I L L I F F A Z Z Z Z                       y 6 8 r u z Z D A A A                                                                                                                                                                                                                                     ",
"                                                                                                                                                                                                                        L I L J L A A F Z Z Z z                       8 4 6 y f m Z Z m N A                                                                                                                                                                                                                                     ",
"                                                                                                                                                                                                                        L L K K F A Z Z Z Z Z                         8 8 8 4 f z M z M A                                                                                                                                                                                                                                       ",
"                                                                                                                                                                                                                      K L L L H F Z z F Z N z                         y 4 8 8 g v M Z A A                                                                                                                                                                                                                                       ",
"                                                                                                                                                                                                                      J L H L R F Z F N N M                           r 6 6 4 f z Z Z A A                                                                                                                                                                                                                                       ",
"                                                                                                                                                                                                                      K J G L H z Z N N Z z                           6 6 4 9 f z z z z m                                                                                                                                                                                                                                       ",
"                                                                                                                                                                                                                      K J F H Z z Z N N M                             < < ; 4 f k h h z                                                                                                                                                                                                                                         ",
"                                                                                                                                                                                                                    J K V B F z z F z N z                             2 ; ; 4 d j l z m                                                                                                                                                                                                                                         ",
"                                                                                                                                                                                                                    J V M j g z z z z N                               4 2 ; 8 d l z m m                                                                                                                                                                                                                                         ",
"                                                                                                                                                                                                                    B N z d d l g g z z                             w 5 2 2 9 u f j l l                                                                                                                                                                                                                                         ",
"                                                                                                                                                                                                                  B B M l u u d d d f                               8 4 2 2 9 u f z m l                                                                                                                                                                                                                                         ",
"                                                                                                                                                                                                                  v v x d d u 0 t g g                               6 2 2 3 0 u g f j                                                                                                                                                                                                                                           ",
"                                                                                                                                                                                                                  c h u t d t 0 t t                                 6 5 2 2 9 0 u u u                                                                                                                                                                                                                                           ",
"                                                                                                                                                                                                                h x f f g t 0 d d 0                                 5 5 ; ; 9 e 0 9 u                                                                                                                                                                                                                                           ",
"                                                                                                                                                                                                                s h f j g u 0 u u                                   , > = 2 8 8 9 u d                                                                                                                                                                                                                                           ",
"                                                                                                                                                                                                                , 5 8 u e 0 9 0 t                                   = % $ , 4 4 8 r r                                                                                                                                                                                                                                           ",
"                                                                                                                                                                                                                o o @ , 4 4 9 0                                     o o + = 2 2 6 6                                                                                                                                                                                                                                             ",
"                                                                                                                                                                                                                    X $ ; ; 2 4                                       o X @ % % * *                                                                                                                                                                                                                                             ",
"                                                                                                                                                                                                                        o @ =                                                                                                                                                                                                                                                                                                   ",
"                                                                                                                                                                                                                                                                                                                                                                                                                                                                                                                                ",
"                                                                                                                                                                                                                                                                                                                                                                                                                                                                                                                                ",
"                                                                                                                                                                                                                                                                                                                                                                                                                                                                                                                                ",
"                                                                                                                                                                                                                                                                                                                                                                                                                                                                                                                                "
};
