/* XPM */
static char *out[] = {
/* columns rows colors chars-per-pixel */
"256 256 156 2 ",
"   c None",
".  c #150D08",
"X  c #1B130E",
"o  c #161211",
"O  c #1D1511",
"+  c #1E1816",
"@  c #21170F",
"#  c #211710",
"$  c #241A14",
"%  c #2A1E16",
"&  c #261D1A",
"*  c #2B1F19",
"=  c #2D2017",
"-  c #2D211A",
";  c #302217",
":  c #33251C",
">  c #38271C",
",  c #36281F",
"<  c #3B2A1E",
"1  c #352721",
"2  c #362921",
"3  c #3C2D23",
"4  c #3F3126",
"5  c #402C1F",
"6  c #412F22",
"7  c #443225",
"8  c #4A3526",
"9  c #4E3827",
"0  c #44342A",
"q  c #49362A",
"w  c #4D392B",
"e  c #503827",
"r  c #533C2C",
"t  c #593F2D",
"y  c #443631",
"u  c #493D32",
"i  c #523E32",
"p  c #57402F",
"a  c #5A412E",
"s  c #564132",
"d  c #5C4433",
"f  c #5F4837",
"g  c #5B4638",
"h  c #5D493C",
"j  c #614633",
"k  c #634A36",
"l  c #694D37",
"z  c #61473C",
"x  c #644C3A",
"c  c #694F3A",
"v  c #67503C",
"b  c #6C513D",
"n  c #71553E",
"m  c #75583F",
"M  c #645043",
"N  c #6D5542",
"B  c #6F5945",
"V  c #675448",
"C  c #6C5549",
"Z  c #6F5949",
"A  c #715642",
"S  c #755A44",
"D  c #7A5D45",
"F  c #755C4A",
"G  c #7A5F49",
"H  c #7E6046",
"J  c #77614F",
"K  c #7D614B",
"L  c #776251",
"P  c #7D6451",
"I  c #776159",
"U  c #82654D",
"Y  c #87684E",
"T  c #88694F",
"R  c #836750",
"E  c #866952",
"W  c #8B6D54",
"Q  c #866C5A",
"!  c #8A6E59",
"~  c #8E7056",
"^  c #8E7159",
"/  c #917256",
"(  c #93755C",
")  c #98775B",
"_  c #96785F",
"`  c #99795E",
"'  c #8C7462",
"]  c #8E7868",
"[  c #927661",
"{  c #967962",
"}  c #9B7D63",
"|  c #967C69",
" . c #9C7F69",
".. c #A07F64",
"X. c #9E8066",
"o. c #9E816A",
"O. c #9D8572",
"+. c #A28266",
"@. c #A4856A",
"#. c #A8876A",
"$. c #A7886D",
"%. c #AA8A6E",
"&. c #A38771",
"*. c #A68972",
"=. c #AD8D72",
"-. c #A08878",
";. c #AB8F7A",
":. c #B08F72",
">. c #AE9075",
",. c #AE917A",
"<. c #B29275",
"1. c #B4957B",
"2. c #B8977A",
"3. c #B6987E",
"4. c #BA9A7D",
"5. c #C09E7E",
"6. c #A78E80",
"7. c #AE9480",
"8. c #B39681",
"9. c #B69A82",
"0. c #BB9D83",
"q. c #BB9E89",
"w. c #BEA185",
"e. c #BEA289",
"r. c #B9A290",
"t. c #C19F80",
"y. c #C3A385",
"u. c #C3A58A",
"i. c #C9A788",
"p. c #C6A88B",
"a. c #CAAB8C",
"s. c #C5AA92",
"d. c #CCAE91",
"f. c #CEB193",
"g. c #CBB29A",
"h. c #D2B495",
"j. c #D4B799",
"k. c #D6BA9B",
"l. c #D9BD9D",
"z. c #CEB9A0",
"x. c #D4BCA2",
"c. c #DABFA1",
"v. c #DBC09F",
"b. c #D7C1A2",
"n. c #DDC3A3",
"m. c #D6C3AE",
"M. c #DEC7A8",
"N. c #DAC8AF",
"B. c #DDCCB4",
"V. c #E0C7A7",
"C. c #E0C9A7",
"Z. c #E0C7A8",
"A. c #E2CBAB",
"S. c #E2CFB2",
"D. c #E5D2B4",
"F. c #E5D4B9",
/* pixels */
"                                                                                                                                                                                                                                                                                                                                                                                                                                                                                                                                ",
"                                                                                                                                                                                                                                                                                                                                                                                                                                                                                                                                ",
"                                                                                                                                                                                                                                                                                                                                                                                                                                                                                                                                ",
"                                                                                                                                                                                                                                                                                                                                                                                                                                                                                                                                ",
"                                                                                                                                                                                                                                                                                                                                                                                                                                                                                                                                ",
"                                                                                                                                                                                                                                                                                                                                                                                                                                                                                                                                ",
"                                                                                                                                                                                                                                                                                                                                                                                                                                                                                                                                ",
"                                                                                                                                                                                                                                                                                                                                                                                                                                                                                                                                ",
"                                                                                                                                                                                                                                                                                                                                                                                                                                                                                                                                ",
"                                                                                                                                                                                                                                                                                                                                                                                                                                                                                                                                ",
"                                                                                                                                                                                                                                                                                                                                                                                                                                                                                                                                ",
"                                                                                                                                                                                                                                                                                                                                                                                                                                                                                                                                ",
"                                                                                                                                                                                                                                                                                                                                                                                                                                                                                                                                ",
"                                                                                                                                                                                                                                                                                                                                                                                                                                                                                                                                ",
"                                                                                                                                                                                                                                                                                                                                                                                                                                                                                                                                ",
"                                                                                                                                                                                                                                                                                                                                                                                                                                                                                                                                ",
"                                                                                                                                                                                                                                                                                                                                                                                                                                                                                                                                ",
"                                                                                                                                                                                                                                                                                                                                                                                                                                                                                                                                ",
"                                                                                                                                                                                                                                                                                                                                                                                                                                                                                                                                ",
"                                                                                                                                                                                                                                                                                                                                                                                                                                                                                                                                ",
"                                                                                                                                                                                                                                                                                                                                                                                                                                                                                                                                ",
"                                                                                                                                                                                                                                                                                                                                                                                                                                                                                                                                ",
"                                                                                                                                                                                                                                                                                                                                                                                                                                                                                                                                ",
"                                                                                                                                                                                                                                                                                                                                                                                                                                                                                                                                ",
"                                                                                                                                                                                                                                                                                                                                                                                                                                                                                                                                ",
"                                                                                                                                                                                                                                                                                                                                                                                                                                                                                                                                ",
"                                                                                                                                                                                                                                                                                                                                                                                                                                                                                                                                ",
"                                                                                                                                                                                                                                                                                                                                                                                                                                                                                                                                ",
"                                                                                                                                                                                                                                                                                                                                                                                                                                                                                                                                ",
"                                                                                                                                                                                                                                                                                                                                                                                                                                                                                                                                ",
"                                                                                                                                                                                                                                                                                                                                                                                                                                                                                                                                ",
"                                                                                                                                                                                                                                                                                                                                                                                                                                                                                                                                ",
"                                                                                                                                                                                                                                                                                                                                                                                                                                                                                                                                ",
"                                                                                                                                                                                                                                                                                                                                                                                                                                                                                                                                ",
"                                                                                                                                                                                                                                                                                                                                                                                                                                                                                                                                ",
"                                                                                                                                                                                                                                                                                                                                                                                                                                                                                                                                ",
"                                                                                                                                                                                                                                                                                                                                                                                                                                                                                                                                ",
"                                                                                                                                                                                                                                                                                                                                                                                                                                                                                                                                ",
"                                                                                                                                                                                                                                    F.B.D.                                                                                                                                                                                                                                                                                      ",
"                                                                                                                                                                                                                                  b.D.D.F.F.F.F.F.F.D.F.F.                                                                                                                                                                                                                                                                      ",
"                                                                                                                                                                                                                                  b.v.v.v.n.n.n.v.C.C.A.D.D.A.D.S.S.A.Z.                                                                                                                                                                                                                                                        ",
"                                                                                                                                                                                                                                  b.v.v.v.l.v.v.v.v.v.v.v.C.v.C.n.V.A.A.A.A.A.V.b.x.j.g.                                                                                                                                                                                                                                        ",
"                                                                                                                                                                                                                                  b.l.l.l.v.l.v.v.v.v.v.v.v.v.v.l.l.l.v.V.v.v.k.l.k.j.h.h.h.f.f.d.                                                                                                                                                                                                                              ",
"                                                                                                                                                                                                                                  b.k.k.k.k.k.k.v.h.h.v.v.h.h.v.k.l.k.v.v.l.l.h.j.h.a.u.u.y.w.u.u.                                                                                                                                                                                                                              ",
"                                                                                                                                                                                                                                  h.b.v.k.k.h.h.h.h.h.h.h.h.h.v.j.k.l.k.k.k.k.l.k.d.d.i.u.u.u.t.0.                                                                                                                                                                                                                              ",
"                                                                                                                                                                                                                                g.v.f.h.f.f.f.f.f.f.h.f.h.f.h.h.h.j.h.h.k.h.h.k.f.d.d.d.d.d.d.d.e.                                                                                                                                                                                                                              ",
"                                                                                                                                                                                                                                g.j.h.f.f.a.a.a.a.a.a.a.a.a.f.h.h.h.h.h.h.h.k.i.i.d.f.f.d.d.d.d.e.                                                                                                                                                                                                                              ",
"                                                                                                                                                                                                                                g.h.f.f.a.a.i.i.a.a.a.f.a.a.a.f.a.f.h.h.h.h.h.h.i.h.d.d.d.d.d.u.w.                                                                                                                                                                                                                              ",
"                                                                                                                                                                                                                                g.f.f.a.p.5.y.p.p.a.a.p.a.a.a.a.i.a.a.a.a.a.f.a.a.f.a.p.i.i.a.p.                                                                                                                                                                                                                                ",
"                                                                                                                                                                                                                                f.f.p.p.5.5.y.u.p.y.y.y.y.a.a.a.a.i.p.a.a.a.a.a.i.5.p.p.p.p.a.p.                                                                                                                                                                                                                                ",
"                                                                                                                                                                                                                                f.s.a.a.5.5.e.u.5.y.y.p.y.y.p.p.i.a.a.i.a.a.i.i.p.p.i.i.5.a.a.p.                                                                                                                                                                                                                                ",
"                                                                                                                                                                                                                                s.a.a.e.u.5.5.p.y.y.y.y.y.p.p.p.i.a.i.i.a.a.a.a.a.i.i.a.a.a.a.a.                                                                                                                                                                                                                                ",
"                                                                                                                                                                                                                                p.5.e.5.5.2.2.5.y.5.y.y.y.y.p.y.a.5.a.a.i.a.a.f.f.a.a.a.a.a.a.p.                                                                                                                                                                                                                                ",
"                                                                                                                                                                                                                              e.5.5.5.5.5.5.5.5.5.5.5.y.y.y.y.y.a.a.5.a.5.a.a.a.a.f.a.a.a.f.a.e.                                                                                                                                                                                                                                ",
"                                                                                                                                                                                                                              e.5.5.4.2.<.5.5.5.2.4.4.4.4.5.y.y.5.a.a.5.5.a.5.a.a.a.a.a.p.p.a.p.                                                                                                                                                                                                                                ",
"                                                                                                                                                                                                                              9.<.<.<.:.:.:.<.<.<.<.<.2.4.5.5.5.a.5.5.a.a.a.a.5.i.a.a.a.5.p.a.                                                                                                                                                                                                                                  ",
"                                                                                                                                                                                                                              ,.#.:.:.:.%.%.:.:.:.:.<.2.2.2.4.4.5.5.5.i.v.5.5.v.5.v.5.e.a.5.f.                                                                                                                                                                                                                                  ",
"                                                                                                                                                                                                                              ,.#.:.:.:.%.%.#.:.:.:.<.<.<.2.2.2.5.5.5.5.5.e.5.e.5.5.5.a.a.f.a.                                                                                                                                                                                                                                  ",
"                                                                                                                                                                                                                              ,.%.%.#.#.#.%.:.:.:.:.%.%.:.:.<.2.2.4.2.5.5.a.5.5.e.5.v.5.p.5.f.                                                                                                                                                                                                                                  ",
"                                                                                                                                                                                                                              *.#.#.#.+.#.#.:.:.<.:.<.%.%.#.%.<.<.2.4.4.5.e.5.5.e.5.5.5.p.a.w.                                                                                                                                                                                                                                  ",
"                                                                                                                                                                                                                            &.@.+.#.#.#.+.#.:.:.<.%.:.:.%.#.#.%.>.:.2.2.2.5.5.5.5.5.5.5.e.5.5.                                                                                                                                                                                                                                  ",
"                                                                                                                                                                                                                            O.X.+.+.#.+.+.#.#.%.:.:.%.#.%.%.%.:.:.:.<.2.2.2.5.5.5.5.5.5.e.5.5.                                                                                                                                                                                                                                  ",
"                                                                                                                                                                                                                            O.} X.+.+.+.#.+.#.%.#.#.%.:.%.:.%.=.:.%.:.<.<.2.5.2.5.2.5.5.5.5.3.                                                                                                                                                                                                                                  ",
"                                                                                                                                                                                                                            o.} ) / X.X.X.X.+.%.%.#.#.#.=.%.%.%.:.:.:.:.<.<.<.2.2.2.<.2.5.5.                                                                                                                                                                                                                                    ",
"                                                                                                                                                                                                                            [ ( ) / / ` +.#.#.%.%.%.#.#.#.%.#.%.:.:.:.:.2.:.:.:.2.2.4.2.4.2.                                                                                                                                                                                                                                    ",
"                                                                                                                                                                                                                            Q Y W T T T / ` +.#.%.%.%.#.#.@.#.#.#.:.:.:.:.2.:.%.:.2.2.4.4.2.                                                                                                                                                                                                                                    ",
"                                                                                                                                                                                                                            { T T T Y Y T T / ..+.+.+.#.+.@.#.#.#.:.:.:.:.:.:.:.%.:.2.2.4.1.                                                                                                                                                                                                                                    ",
"                                                                                                                                                                                                                            T W W T T Y T T T / ..+.+.+.+.#.#.#.#.#.%.:.:.2.:.:.%.:.:.1.<.<.                                                                                                                                                                                                                                    ",
"                                                                                                                                                                                                                          I F U Y U W W T T T / ` +.+...+.+.+.#.:.:.:.:.:.:.:.:.%.%.:.%.%.%.                                                                                                                                                                                                                                    ",
"                                                                                                                                                                                                                            i d l c n H Y T / / ) ..+.+.+.@.#.#.#.#.:.#.:.:.#.#.#.%.%.#.%.@.                                                                                                                                                                                                                                    ",
"                                                                                                                                                                                                                                    q w p d l n G W ( { ..+.#.#.#.#.#.:.:.:.#.+.#.#.#.#.@.                                                                                                                                                                                                                                      ",
"                                                                                                                                                                                                                                                1 : 6 w d c S U / ) +.+.%.%.+...#.#.) ..X.                                                                                                                                                                                                                                      ",
"                                                                                                                                                                                                                                                & X X X O $ % ; 5 5 v B K R K Y ^ _ _ { }                                                                                                                                                                                                                                       ",
"                                                                                                                                                                                                                                                - + O X O O X X X @               z M A F                                                                                                                                                                                                                                       ",
"                                                                                                                                                                                                                                                : = & $ $ # # $ @ ;                                                                                                                                                                                                                                                             ",
"                                                                                                                                                                                                                                                0 < 3 < 3 1 : - ; q                                                                                                                                                                                                                                                             ",
"                                                                                                                                                                                                                                                i w s s i r w q g L                                                                                                                                                                                                                                                             ",
"                                                                                                                                                                                                                                                M x N v M x x k P                                                                                                                                                                                                                                                               ",
"                                                                                                                                                                                                                                                C F K S S F F G '                                                                                                                                                                                                                                                               ",
"                                                                                                                                                                                                                                                F R Q Y R E E ! o.                                                                                                                                                                                                                                                              ",
"                                                                                                                                                                                                                                                E ~ ! Q ! ! ( ( *.                                                                                                                                                                                                                                                              ",
"                                                                                                                                                                                                                                                ^ ^ ~ ~ Y ! [ X.,.                                                                                                                                                                                                                                                              ",
"                                                                                                                                                                                                                                              N ^ ^ ^ ^ ! W _ @.1.                                                                                                                                                                                                                                                              ",
"                                                                                                                                                                                                                        r.s.s.s.r.            M P ^ ^ _ ^ ~ _ $.9.                                                                                                                                                                                                                                                              ",
"                                                                                                                                                                                                                        1.=.<.t.u.y.u.u.q.q.7.] ( [ X.o.X.{ ^ { ,.                                                                                                                                                                                                                                                              ",
"                                                                                                                                                                                                                        1.=.*.=.%.<.2.3.0.t.t.y.w.w.0.9.1.>.o.X.*.                                                                                                                                                                                                                                                              ",
"                                                                                                                                                                                                                        1.=.#.:.:.:.:.2.0.y.u.4.4.5.y.y.i.i.p.w.q.9.8.                                                                                                                                                                                                                                                          ",
"                                                                                                                                                                                                                      6.,.=.=.:.:.1.2.t.f.x.l.a.y.4.5.5.5.y.5.w.y.y.y.u.y.9.8.;.-.                                                                                                                                                                                                                                              ",
"                                                                                                                                                                                                                      8.2.1.:.<.4.5.i.j.x.c.n.n.h.e.5.2.5.5.5.5.t.t.t.t.t.t.t.9.9.8.8.*.                                                                                                                                                                                                                                        ",
"                                                                                                                                                                                                                      8.9.2.5.2.2.i.x.x.l.x.c.n.v.v.f.w.5.2.5.2.2.9.0.t.t.9.1.1.3.8.8.1.                                                                                                                                                                                                                                        ",
"                                                                                                                                                                                                                      0.2.5.4.2.y.c.Z.c.c.x.j.l.b.h.h.b.p.4.1.1.1.2.t.t.9.9.1.8.1.9.8.                                                                                                                                                                                                                                          ",
"                                                                                                                                                                                                                      9.:.:.2.u.c.Z.Z.n.c.c.x.j.v.h.h.b.3.1.4.2.1.2.8.2.t.8.2.8.1.1.1.                                                                                                                                                                                                                                          ",
"                                                                                                                                                                                                                      3.:.<.t.c.n.Z.Z.n.n.c.k.j.v.a.e.<.%.%.3.5.t.t.2.9.2.0.9.1.1.<.1.                                                                                                                                                                                                                                          ",
"                                                                                                                                                                                                                    6.2.<.t.c.Z.Z.n.n.c.c.l.j.c.b.e.2.%.$.@.>.5.t.9.t.t.0.0.t.1.8.8.1.                                                                                                                                                                                                                                          ",
"                                                                                                                                                                                                                    7.2.t.n.A.Z.Z.Z.Z.c.c.j.j.j.b.<.=.+.@.+.+.<.9.t.9.t.4.4.0.8.1.,.;.                                                                                                                                                                                                                                          ",
"                                                                                                                                                                                                                    ;.3.l.A.A.Z.Z.Z.Z.n.c.c.c.f.5.<.$.$.%.$.+.$.2.2.5.9.0.3.2.1.=.=.*.                                                                                                                                                                                                                                          ",
"                                                                                                                                                                                                                    e.j.M.M.V.n.v.C.b.C.v.v.b.4.:.%.+.$.$.+.+.$.2.2.2.9.t.9.2.8.,.*.                                                                                                                                                                                                                                            ",
"                                                                                                                                                                                                                    n.A.A.n.n.n.v.b.v.v.v.v.5.<.:.+.+.+.+.+.+.<.2.2.2.t.9.2.1.5.1.;.                                                                                                                                                                                                                                            ",
"                                                                                                                                                                                                                  c.A.A.A.V.n.l.v.v.v.b.v.5.<.<.:.%.$.+.+.+.$.<.2.2.2.8.8.t.t.8.0.1.                                                                                                                                                                                                                                            ",
"                                                                                                                                                                                                                c.V.V.V.V.V.n.l.a.v.v.v.5.%.:.:.:.%.+.+.+.+.<.<.<.1.1.2.5.8.9.t.9.1.                                                                                                                                                                                                                                            ",
"                                                                                                                                                                                                              x.V.V.n.n.c.c.c.l.v.f.a.5.<.%.:.%.+.+.+.+.+.$.>.<.<.1.1.<.<.1.1.8.3.,.                                                                                                                                                                                                                                            ",
"                                                                                                                                                                                                            x.Z.V.n.V.V.c.l.l.l.v.f.5.:.<.:.%.%.%.%.#.+.+.<.<.<.<.<.<.2.2.2.1.5.9.<.                                                                                                                                                                                                                                            ",
"                                                                                                                                                                                                          x.n.n.l.n.l.n.V.l.l.j.b.5.<.:.:.%.#.#.#.#.#.+.:.<.<.<.=.=.=.1.t.2.1.2.3.                                                                                                                                                                                                                                              ",
"                                                                                                                                                                                                        x.M.M.n.n.l.k.k.l.l.k.d.5.:.<.:.%.%.#.+.+.#.+.#.<.<.<.<.:.<.=.:.1.1.2.1.3.                                                                                                                                                                                                                                              ",
"                                                                                                                                                                                                      x.V.V.V.c.n.l.l.k.h.a.i.5.<.%.%.%.%.$.+.+.X.X.%.:.<.<.<.>.:.;.=.=.<.8.<.t.;.                                                                                                                                                                                                                                              ",
"                                                                                                                                                                                                    x.n.n.n.l.V.V.l.l.k.h.i.2.:.%.:.#.#.#.#.+.X.X.+.:.>.<.<.<.<.:.:.=.=.:.<.<.<.:.                                                                                                                                                                                                                                              ",
"                                                                                                                                                                                                  x.n.V.n.n.n.l.l.l.k.k.j.t.:.%.%.%.%.+.#.+.X.X.+.#.=.<.<.<.<.<.:.:.=.=.:.<.<.<.1.                                                                                                                                                                                                                                              ",
"                                                                                                                                                                                                  n.c.n.n.n.V.l.l.l.k.h.t.=.#...:.%.%.#.+.X.X.X.%.:.<.<.<.<.<.<.,.:.<.<.:.<.8.<.;.                                                                                                                                                                                                                                              ",
"                                                                                                                                                                                                c.n.n.n.V.l.l.l.l.l.k.i.:.$...#.#.#.#.+.+.+.+.+.%.:.:.:.:.<.2.<.,.<.,.<.<.<.<.<.                                                                                                                                                                                                                                                ",
"                                                                                                                                                                                              l.c.n.v.n.l.l.l.l.h.k.a.<.$.#...@.+.+.+.+.+.+.%.%.#.:.:.:.:.:.<.<.<.<.<.;.,.<.<.,.                                                                                                                                                                                                                                                ",
"                                                                                                                                                                                            j.l.l.l.l.l.l.k.j.h.f.5.:.#.+.+.....X.X.+.X.+.#.%.%.:.%.:.<.>.:.>.%.<.<.:.:.:.:.:.,.                                                                                                                                                                                                                                                ",
"                                                                                                                                                                                          g.j.j.f.f.h.j.k.j.h.a.5.#.` ` +...+.@.X.X.X.+.#.+.$.%.%.:.:.:.%.:.:.:...<.:.:.:.:.:.;.                                                                                                                                                                                                                                                ",
"                                                                                                                                                                                          f.h.d.g.h.f.f.d.a.a.3.+./ T / X./ X.X.X.X.X.#.#.$.$.%.>.>.=.>.=.%.:.%.=.%.%.=.=.=.=.=.                                                                                                                                                                                                                                                ",
"                                                                                                                                                                                        s.a.a.h.h.d.p.y.0.y.2.{ / / ~ / / / T X.X.X.#.#.#.#.%.%.%.=.<.=.>.=.>.:.%.%.%.%.=.=.,.=.                                                                                                                                                                                                                                                ",
"                                                                                                                                                                                      u.w.0.w.u.u.y.9.<.=.%.` ( / ~ ~ W T ~ ~ T / #.#.#.$.$.$.%.%.>.<.>.>.>.>.<.=.#.%.=.%.=.=.                                                                                                                                                                                                                                                  ",
"                                                                                                                                                                                    0.9.4.<.=.%.=.=.%.$.} W W / ~ T ~ ~ ~ T T X.X.+.#.#.$.%.%.%.=.<.%.>.:.:.:.:.=.*.%.%.*.%.=.                                                                                                                                                                                                                                                  ",
"                                                                                                                                                                                  1.<.=.=.#.%.*...{ } { / W W W W T T Y Y H Y X.o.$.$.$.$.$.$.$.=.=.=.=.>.:.>.%.%.%.%.%.=.=.=.                                                                                                                                                                                                                                                  ",
"                                                                                                                                                                                  =.*.} ! / }  .} ..{ ( / W Y Y Y Y H H H P X.X.o.@.@.@.+.$.$.$.=.=.=.%.:.>.%.%.#.$.$.*.#.*.=.                                                                                                                                                                                                                                                  ",
"                                                                                                                                                                                8.;.3.&.[ ' ' [ [  .W / ~ W Y D H H D D Y X.X.X.+.@.@.@.+.$.$.$.=.%.%.>.%.:.>.%.%.%.$.$.#.$.%.                                                                                                                                                                                                                                                  ",
"                                                                                                                                                                                s.g.g.g.g.s.s.u.9.7.[ R Y T Y D m D H P X.X.X.X.@.+.@.@.+.$.$.%.%.%.%.%.%.%.%.%.%...$.#.=.%.%.                                                                                                                                                                                                                                                  ",
"                                                                                                                                                                                *.<.1.3.:.*.#.:.1.8.9.&.P S U D n D W { X.X.X.X.o.+.@.o.+.@.$.%.%.%.$.@.%.%.$.%.%.$...=.=.=.=.                                                                                                                                                                                                                                                  ",
"                                                                                                                                                                                  @.@.@.=.%.@.*.0.t.1.1.&.R A M D W ( { _ X._ X.o.@.@.+.o.o.+.@.@.o.X.@.@.%.$.$.=.%.%...*.=.,.                                                                                                                                                                                                                                                  ",
"                                                                                                                                                                                  (  .@.@.=.%.#.,.t.t.1.=.&.' V E ( { _ X._ X.` X.X.@.X.X.X.X.X.X.X.X.X.#.+.#.#.%.:.=.$.#.=.:.                                                                                                                                                                                                                                                  ",
"                                                                                                                                                                                    { } } @.=.=.#.*.0.t.1.%.&.Q ^ { _ ( ^ ( ^ ( X.X.X.X.X.X.X.X.X.X.+.X.+.+.+.+...=.=.%.#.%.=.                                                                                                                                                                                                                                                  ",
"                                                                                                                                                                                    Q ( ( ( } ..} { #.t.4.=.=.@.{ _ ( [ ( ^ ( ^ X.^ ~ X.X.X.X.X.X.X.X.X.X.X.X.#.@.#.=.*.$.@.*.                                                                                                                                                                                                                                                  ",
"                                                                                                                                                                                    F U U W / ! ~ ) { :.4.,.=.:.} ( ^ ^ ~ ^ ^ ( ^ ~ X.X.X.X.X.X.X.X.X.X.X.X.X.X.....@.@.@.@.#.                                                                                                                                                                                                                                                  ",
"                                                                                                                                                                                      N N b S H U Y T } 4.1.:.:.@.^ W W W W ~ ~ X.W ~ X.~ X.X.X.X.X.~ X.T X.X.X.} _ ` +.@.@.$.                                                                                                                                                                                                                                                  ",
"                                                                                                                                                                                      g f d d x D U U T :.3.:.:.=.( E E ~ Q W Q P X.X.P ~ X.X.! X.~ X.Y W X.X./ .._ ) ` } } @.                                                                                                                                                                                                                                                  ",
"                                                                                                                                                                                        s p p g B D Y H X.4.1.1.1.X.Y W W ! ! W ! ( ( ( ) _ ) [ ` ` ( ( ( ) ) { _ } _ ` } ..$.                                                                                                                                                                                                                                                  ",
"                                                                                                                                                                                        s g d s v m D H W 1.4.4.2.>.~ U E W W W W ^ ( { _ [ _ ( ( ( ~ ( ( ( _ _ _ _ } { } ..$.                                                                                                                                                                                                                                                  ",
"                                                                                                                                                                                          b S N m m m D H #.w.5.5.1.X.K P W W E Y Y T ( _ _ _ ( [ _ ( ~ ( ( _ _ _ ) _ _ } } @.                                                                                                                                                                                                                                                  ",
"                                                                                                                                                                                          M N S H P D D H / 5.y.w.4.%.P U P Y Y R E U Q ^ ( _ _ _ _ ( ^ ( ( ( _ _ ( ( _ { } }                                                                                                                                                                                                                                                   ",
"                                                                                                                                                                                          u i g v J K H H T <.w.p.5.3.W K Y R U U R E E ! W ( _ _ ` [ ` ( ( ( _ ( ) ) ( ` } +.                                                                                                                                                                                                                                                  ",
"                                                                                                                                                                                            0 q p x K H H Y X.5.p.w.w.X.J Y E P U U U R T W ^ ^ ^ ( ( [ ( ( ( ^ ! ! ( ( _ _ }                                                                                                                                                                                                                                                   ",
"                                                                                                                                                                                            3 8 p d B H K H Y <.5.p.w.$.K H U K U U G U U T ! W W ^ ( _ ( ( ^ W ! / / ( ( _ { |                                                                                                                                                                                                                                                 ",
"                                                                                                                                                                                              0 0 s v K K H H +.w.w.e.3.K S K P R R U D F U T T ! ! ^ ( / ^ ^ ^ ! ! ! W ( _ _ _                                                                                                                                                                                                                                                 ",
"                                                                                                                                                                                              3 4 p f B P Y Y ~ 4.y.y.w.^ A S K U R R R U G U U R E W ~ W W W E W ! / W ^ ( ( [                                                                                                                                                                                                                                                 ",
"                                                                                                                                                                                                2 p s f m Y ~ W %.y.u.e.o.S B H F G G R R R R G U R E ^ ^ W W ! U T W T E W ^ ^                                                                                                                                                                                                                                                 ",
"                                                                                                                                                                                                  q s p p B / ( X.y.y.u.,.K S S F D D S U R E E Y R Y W W W E T E E R R E W W !                                                                                                                                                                                                                                                 ",
"                                                                                                                                                                                                  4 p 4 p x P / ^ 2.u.u.w.E n S D S A S S G U R R R R Y W ! E W E E W T R T Q Q                                                                                                                                                                                                                                                 ",
"                                                                                                                                                                                                    4 7 7 p b W U +.y.u.u.{ c c A A A A A S F U R R U R E W W R R R R R R R R E                                                                                                                                                                                                                                                 ",
"                                                                                                                                                                                                    < p p 4 v P Y T 2.y.u.=.A c c A c c c c N D G U U R R R E E U R R R R R U Q                                                                                                                                                                                                                                                 ",
"                                                                                                                                                                                                      4 8 4 f K U U %.y.u.q.U c l x c N c l l c A D G U R U R E R R U U R U R E                                                                                                                                                                                                                                                 ",
"                                                                                                                                                                                                      3 4 4 p K U D { t.u.u.[ M c c c c N N l c N A S D G G U R R R U U U R R E                                                                                                                                                                                                                                                 ",
"                                                                                                                                                                                                        4 3 9 H J m T 2.p.p.*.m b x x l x b b x b b n A S D F D K R K K G G G U                                                                                                                                                                                                                                                 ",
"                                                                                                                                                                                                          , 4 b K H H +.5.p.3.J b b k k l x c c z b A b N A D D K H G D S A A F                                                                                                                                                                                                                                                 ",
"                                                                                                                                                                                                          4 3 f Y K H ) 5.w.w.P f x f p s f x N G Q { G z j z x f z g i r i i s                                                                                                                                                                                                                                                 ",
"                                                                                                                                                                                                            2 q J U K W ,.w.4.! 3 7 4 7 w f N b Q O.@. .W Q / ! N M                                                                                                                                                                                                                                                             ",
"                                                                                                                                                                                                            4 2 s K K H X.3.3.o.w u s p d n l a G @.*.*.$.*.$...[ Q                                                                                                                                                                                                                                                             ",
"                                                                                                                                                                                                              2 4 x K H Y >.,.>.f = > : > e a p N  .;.*.#.*.*.=.$.] &.                                                                                                                                                                                                                                                          ",
"                                                                                                                                                                                                              2 , 7 f d d X.>.,.F . $ > < e p p d ( ;.=.=.=.,.1.1.&.*.;.                                                                                                                                                                                                                                                        ",
"                                                                                                                                                                                                                , < 8 7 p K >.1.[ @ @ ; 7 p a d z W =.=.,.,.1.2.8.1.*.9.                                                                                                                                                                                                                                                        ",
"                                                                                                                                                                                                                ; < 8 a d n o.1.-.0 . % > w j b A F *.1.3.4.4.0.q.8.,.4.q.                                                                                                                                                                                                                                                      ",
"                                                                                                                                                                                                                  ; , p k b ~ >.8.V X # % 7 r d c A o.1.2.4.q.q.q.0.9.4.u.                                                                                                                                                                                                                                                      ",
"                                                                                                                                                                                                                    : 3 p l K =.8.' * # $ < r r j b ( 1.1.9.u.w.q.q.0.0.u.u.                                                                                                                                                                                                                                                    ",
"                                                                                                                                                                                                                    = ; < p k { <.&.y # $ ; r r d l K <.3.9.u.s.t.q.0.0.w.u.e.                                                                                                                                                                                                                                                  ",
"                                                                                                                                                                                                                      & = < 9 S &. .h & & % 8 r r b S @.1.<.0.u.e.w.q.0.w.u.u.                                                                                                                                                                                                                                                  ",
"                                                                                                                                                                                                                      = $ = > 7 x V y : = - 3 r f x n { 3.1.3.w.e.0.e.q.w.u.p.s.                                                                                                                                                                                                                                                ",
"                                                                                                                                                                                                                        = $ - 2 3 4 3 1 : ; 3 r s d j ! 1.4.4.w.e.w.w.0.e.u.s.s.                                                                                                                                                                                                                                                ",
"                                                                                                                                                                                                                          + -       3 1 1 : 3 w r r k H =.4.3.0.y.0.0.9.w.u.p.s.d.                                                                                                                                                                                                                                              ",
"                                                                                                                                                                                                                                      3 1 1 7 q w r k S +.1.2.2.0.0.0.0.0.e.e.s.s.e.                                                                                                                                                                                                                                            ",
"                                                                                                                                                                                                                                        4 4 0 q r 9 e l ~ <.2.4.4.q.9.0.9.e.e.p.s.s.                                                                                                                                                                                                                                            ",
"                                                                                                                                                                                                                                        0 7 q q 9 8 8 k H %.2.4.4.0.q.0.9.w.w.e.p.p.e.                                                                                                                                                                                                                                          ",
"                                                                                                                                                                                                                                        3 4 0 3 6 8 8 a m +.1.2.2.4.0.0.e.9.0.e.u.s.u.                                                                                                                                                                                                                                          ",
"                                                                                                                                                                                                                                          0 0 1 7 w 8 r l ) <.2.3.4.0.q.w.0.w.0.e.u.p.e.                                                                                                                                                                                                                                        ",
"                                                                                                                                                                                                                                          q 0 3 6 w 8 9 j Y %.2.2.4.0.w.0.0.0.0.w.e.s.u.e.                                                                                                                                                                                                                                      ",
"                                                                                                                                                                                                                                          0 3 3 6 8 e 8 j m #.<.2.4.0.e.q.e.9.w.w.e.u.u.e.                                                                                                                                                                                                                                      ",
"                                                                                                                                                                                                                                          w 0 3 < 7 e e t l ` 2.1.3.w.u.e.e.0.9.w.e.u.u.u.e.                                                                                                                                                                                                                                    ",
"                                                                                                                                                                                                                                            0 6 3 7 q 8 e l T :.<.2.0.e.e.e.9.1.3.w.e.p.p.e.                                                                                                                                                                                                                                    ",
"                                                                                                                                                                                                                                            0 4 3 3 w w e j H #.1.1.3.w.e.u.e.1.,.0.e.e.e.w.w.                                                                                                                                                                                                                                  ",
"                                                                                                                                                                                                                                            0 3 3 3 8 8 8 a n +.<.<.1.0.e.u.e.9.1.1.w.e.e.0.3.9.                                                                                                                                                                                                                                ",
"                                                                                                                                                                                                                                              0 3 3 8 8 8 e l / <.<.2.0.w.e.e.w.,.1.0.w.u.w.3.0.                                                                                                                                                                                                                                ",
"                                                                                                                                                                                                                                              0 7 3 7 8 8 8 j U =.<.2.4.w.w.e.e.1.,.1.w.e.e.w.3.9.                                                                                                                                                                                                                              ",
"                                                                                                                                                                                                                                              q 7 4 3 7 8 8 a n @.<.<.3.3.w.e.e.3.,.1.3.e.p.w.w.0.                                                                                                                                                                                                                              ",
"                                                                                                                                                                                                                                              u 0 3 3 7 8 7 r l _ :.<.3.5.w.y.e.w.,.,.1.w.e.e.w.q.0.                                                                                                                                                                                                                            ",
"                                                                                                                                                                                                                                                0 0 q 7 8 8 e j T :.:.1.w.w.w.e.w.,.,.,.1.w.u.w.0.0.                                                                                                                                                                                                                            ",
"                                                                                                                                                                                                                                                q 0 3 7 7 8 9 a D #.<.1.3.t.t.u.q.<.,.<.3.9.9.0.0.w.q.                                                                                                                                                                                                                          ",
"                                                                                                                                                                                                                                                w 7 3 7 7 8 8 p l ..<.<.3.0.q.e.u.;.*.<.,.<.,.1.9.0.0.0.                                                                                                                                                                                                                        ",
"                                                                                                                                                                                                                                                  0 3 3 7 8 8 e j W :.<.2.4.q.y.u.;.} *.*.*.<.1.9.e.w.w.                                                                                                                                                                                                                        ",
"                                                                                                                                                                                                                                                  u 7 7 7 8 9 w t D %.:.<.3.0.w.u.9.{ } @.$.;.,.1.9.q.w.e.                                                                                                                                                                                                                      ",
"                                                                                                                                                                                                                                                  s s 0 7 8 9 9 t c ..<.>.3.0.w.u.0.| ( @.@.$.*.,.,.0.e.e.                                                                                                                                                                                                                      ",
"                                                                                                                                                                                                                                                  h u 0 7 7 8 9 t j ( <.<.<.3.0.u.y.@.R | *.*.*.,.,.1.w.u.e.                                                                                                                                                                                                                    ",
"                                                                                                                                                                                                                                                    y 0 7 8 w e e t H =.<.<.1.9.q.u.*.F ! o.*.&.,.,.,.9.w.u.e.                                                                                                                                                                                                                  ",
"                                                                                                                                                                                                                                                    y 0 7 q w r e t n $.1.<.2.3.9.u.0.F F { *.O.*.,.9.1.9.e.r.                                                                                                                                                                                                                  ",
"                                                                                                                                                                                                                                                    u 0 3 q w e r r k ` 1.<.<.3.3.w.w.Q f E o.o.o.,.,.9.9.0.e.e.                                                                                                                                                                                                                ",
"                                                                                                                                                                                                                                                      0 3 3 w g p r a W >.1.2.2.3.w.y.O.q B ^ o.o.;.,.9.9.9.0.e.q.                                                                                                                                                                                                              ",
"                                                                                                                                                                                                                                                      0 4 3 4 w r r r m >.1.4.1.3.3.w.1.s w K { o.O.,.9.1.9.0.9.e.                                                                                                                                                                                                              ",
"                                                                                                                                                                                                                                                      0 3 3 3 0 w r r l o.1.1.3.3.3.0.w.Z , x Q o.o.*.,.1.9.9.0.9.0.                                                                                                                                                                                                            ",
"                                                                                                                                                                                                                                                      0 3 3 2 7 8 r p d ( 2.2.1.2.3.3.w.[ : 8 J [ o. .*.;.1.9.9.9.0.q.                                                                                                                                                                                                          ",
"                                                                                                                                                                                                                                                        2 1 , , 3 8 e r G >.3.1.2.2.1.5.*.4 , s P [  .o.&.,.1.9.9.9.9.                                                                                                                                                                                                          ",
"                                                                                                                                                                                                                                                        4 2 1 , 3 7 7 7 f o.1.1.1.1.2.3.1.h = < g R [ &.*.;.1.1.9.9.9.9.                                                                                                                                                                                                        ",
"                                                                                                                                                                                                                                                        4 1 , 1 , 3 < 7 9 ^ ,.1.1.1.1.3.3.B = - 2 f R [ $.*.,.1.1.9.1.9.7.                                                                                                                                                                                                      ",
"                                                                                                                                                                                                                                                          2 2 1 , < 6 7 7 S =.1.1.1.1.3.8.U - * * : i R } *.=.,.1.9.1.1.8.                                                                                                                                                                                                      ",
"                                                                                                                                                                                                                                                          2 1 1 : > 6 6 7 g o.,.:.<.1.2.2.[ 1 * * * > r R  .@.*.;.,.,.,.,.                                                                                                                                                                                                      ",
"                                                                                                                                                                                                                                                          1 1 1 : : , 6 8 p W =.=.=.1.:.1. .1 * * % * > z W { ) { X.@.$.*.                                                                                                                                                                                                      ",
"                                                                                                                                                                                                                                                            - - - - : 7 7 9 G $.=.;.,.:.1.*.u & & % % * d K W W W ( {  .o.o.                                                                                                                                                                                                    ",
"                                                                                                                                                                                                                                                              - = - : 3 6 7 p { $.*.=.=.,.=.M 3 - * % % w S R W ( ( _ _ } }                                                                                                                                                                                                     ",
"                                                                                                                                                                                                                                                              2 - - - - , 8 e K @.$.*.=.:.=.F w 2 > ; * 6 c Y ( ) ( ( ( ( (                                                                                                                                                                                                     ",
"                                                                                                                                                                                                                                                                1 : - , < 8 8 b _ @.*.:.=.:.E i 0 6 7 6 8 c D T / / ! ! ( (                                                                                                                                                                                                     ",
"                                                                                                                                                                                                                                                                  : - - > 7 8 r E { } %.*.=.! i q w 8 r d A D D U T T W ! (                                                                                                                                                                                                     ",
"                                                                                                                                                                                                                                                                  0 0 1 - ; 7 r S / { } #.#.{ h i i d d l G U U Y T W W W W                                                                                                                                                                                                     ",
"                                                                                                                                                                                                                                                                  M z z d 7 6 6 c R W _ } @.} N z k k l b H W T / / W W W U                                                                                                                                                                                                     ",
"                                                                                                                                                                                                                                                                C Z N N n A b c A R U W _ } { S z l k l m U T T / ( ( ( E                                                                                                                                                                                                       ",
"                                                                                                                                                                                                                                                              F L F N S G G R R ! ( W Y W _ { D l x x b D U U U T W T W R                                                                                                                                                                                                       ",
"                                                                                                                                                                                                                                                              P J A A R W U R } @.@.} [ ! / { K j z l m D D D U U T U U                                                                                                                                                                                                         ",
"                                                                                                                                                                                                                                                            L P P F F R W ! ^ { }  . . .{ / ( U z j l D D m m U U U Y G                                                                                                                                                                                                         ",
"                                                                                                                                                                                                                                                            ' Q E R E ( / ! ! ( { { } } } } ( E c z l D m m U D D D D G                                                                                                                                                                                                         ",
"                                                                                                                                                                                                                                                          ' [ ! E W ^ _ ( ! ( ! ! ^ } } @.@.@.^ S b n m m m H D S D G                                                                                                                                                                                                           ",
"                                                                                                                                                                                                                                                          [ { { [ ! ( [ ' ( ^ ! ! ^ ( X.o.o.o.J c l D D m U H H m U U                                                                                                                                                                                                           ",
"                                                                                                                                                                                                                                                        | o.{ { { ( ( } o.^ ^ ^ ( ~ ^ X.{ X.P b l n D U m U m D U m D                                                                                                                                                                                                           ",
"                                                                                                                                                                                                                                                        o.@.} } { ( ( } X.( ^ ( _ { X.{ ( ! b f l m U H D D m U G S                                                                                                                                                                                                             ",
"                                                                                                                                                                                                                                                      | o.| | } } } } } ( ( ( ~ ^ ( ( ' ^ J v v l D H H H m H T G D                                                                                                                                                                                                             ",
"                                                                                                                                                                                                                                                      o.o.} X.X.}  .| { ^ ~ ! ! Q ~ ^ ( P B S B n U U H D D H U U                                                                                                                                                                                                               ",
"                                                                                                                                                                                                                                                    [ o.| } { { } { [ W R E Y Q W Q ^ E S B N b m U D D D H U G N                                                                                                                                                                                                               ",
"                                                                                                                                                                                                                                                    | X.X.} X.` } { E K H K K R P W Q F J S b v m Y m U D U ^ U b                                                                                                                                                                                                               ",
"                                                                                                                                                                                                                                                  [ X.X.X.X.` X.} ( K H H K K K K E F F F A b v D U D m D D P K                                                                                                                                                                                                                 ",
"                                                                                                                                                                                                                                                  o.| } o.X.X.X._ Y K K K K G F K J J K F N N A U D D m D n b A                                                                                                                                                                                                                 ",
"                                                                                                                                                                                                                                                | o. .@.o.o.o.X.E K Y K K H S D F B F F Z B b S H H D D D D G                                                                                                                                                                                                                   ",
"                                                                                                                                                                                                                                                o.o.o.@.o.o.o.~ K P K H H D G F   F K F B N b G H D H H K K G                                                                                                                                                                                                                   ",
"                                                                                                                                                                                                                                              o.O.o.@.o.o.o.( Y U K H H J K K     F L F N N b H D D G K K G F                                                                                                                                                                                                                   ",
"                                                                                                                                                                                                                                              o.@.o.@.O.@.X.W K U K K H K K S     J J Z N b S K H D D H H F                                                                                                                                                                                                                     ",
"                                                                                                                                                                                                                                            o.o.o.o.o.o.o.Q U U H K H H K F       P F B N x K K D D H G K G                                                                                                                                                                                                                     ",
"                                                                                                                                                                                                                                            *.&.&.o.o.o._ P U K H J S K G       F P F N x b K G S D K F G K                                                                                                                                                                                                                     ",
"                                                                                                                                                                                                                                          o.O.o.@.o.o.| E K K H H H K J         K L B N x N H D S K U K K                                                                                                                                                                                                                       ",
"                                                                                                                                                                                                                                          $.@.o.O.@.o.^ K H H F S K K N         K J B M x D H S S U Y H K                                                                                                                                                                                                                       ",
"                                                                                                                                                                                                                                        o.O.O.O.@.o.[ U K K K D J K A           P F B x x K D S D U R K                                                                                                                                                                                                                         ",
"                                                                                                                                                                                                                                      X.O.$.O.o.o.{ Q H H K F K K S           F K Z N k N H D S H P K K                                                                                                                                                                                                                         ",
"                                                                                                                                                                                                                                      O.$.O.o.o.X.( P H H F D K J             K J N f g D G D D K K D J                                                                                                                                                                                                                         ",
"                                                                                                                                                                                                                                    o.@.o.o.o.X.{ K K H H S K D N             F F f s f D D S H P K G                                                                                                                                                                                                                           ",
"                                                                                                                                                                                                                                    o.o.X.X.o.{ Q J K H D F J B               L N f f b J D D K P K F                                                                                                                                                                                                                           ",
"                                                                                                                                                                                                                                  { o.o.{ { X.^ K H H S A D S                 F b f f n H D D K K J                                                                                                                                                                                                                             ",
"                                                                                                                                                                                                                                  { X.o.o.{ ( P H S S B A A                 J F x f l S S S J K K H                                                                                                                                                                                                                             ",
"                                                                                                                                                                                                                                { o.} } { } ( G D S S n b b                 N x g d b S S S H K K B                                                                                                                                                                                                                             ",
"                                                                                                                                                                                                                                } @.+.} { { U G D S n b b                   M f d d b S S D K K D                                                                                                                                                                                                                               ",
"                                                                                                                                                                                                                              {  .} } { _ U D D m n b b                     d i f x n S n A S N v                                                                                                                                                                                                                               ",
"                                                                                                                                                                                                                              } X.} _ { ! G S n b b l l                   z f f f l A A x f s d                                                                                                                                                                                                                                 ",
"                                                                                                                                                                                                                            [ } { ` _ ) H S S n c c z                     v f f d k A b a a d f                                                                                                                                                                                                                                 ",
"                                                                                                                                                                                                                            } ..} ` _ U m n n b c l                       x g g s c b l k l b x                                                                                                                                                                                                                                 ",
"                                                                                                                                                                                                                          ( } _ _ } ) G m n n l l                         d s d p b b b b v c                                                                                                                                                                                                                                   ",
"                                                                                                                                                                                                                          } _ _ ` _ D m n n c l l                         r i w p b c j p d d                                                                                                                                                                                                                                   ",
"                                                                                                                                                                                                                        [ { ( ( ) Y n n n l l k                         d r q 7 d k a e r r                                                                                                                                                                                                                                     ",
"                                                                                                                                                                                                                        { ( W R Y n l n l l l                           g i w w f l j a d d                                                                                                                                                                                                                                     ",
"                                                                                                                                                                                                                      ! ( W R D l l l l l l                             i i w r d j d d d r                                                                                                                                                                                                                                     ",
"                                                                                                                                                                                                                      ! E E D c j j j j l j                             i w e i d r r t d                                                                                                                                                                                                                                       ",
"                                                                                                                                                                                                                    J R R G A j t r e r p                             g i w w j d t d i d                                                                                                                                                                                                                                       ",
"                                                                                                                                                                                                                    F U A N j t e 8 t t                               i i q w i t r e e                                                                                                                                                                                                                                         ",
"                                                                                                                                                                                                                  J J S D b t e e 8 e                                 i w 0 r r e 6 6 w                                                                                                                                                                                                                                         ",
"                                                                                                                                                                                                                i C S F S z r e e r 8                                 q 6 6 r w 8 5 7 q                                                                                                                                                                                                                                         ",
"                                                                                                                                                                                                                - 3 w z x r e e r 8                                 - 1 - 3 w 7 < 6 8                                                                                                                                                                                                                                           ",
"                                                                                                                                                                                                                  & & 1 7 7 8 8 8                                     + & 1 7 < 3 6 2                                                                                                                                                                                                                                           ",
"                                                                                                                                                                                                                    & & ; > 5 8                                         o & * = : - *                                                                                                                                                                                                                                           ",
"                                                                                                                                                                                                                      o # * ; ;                                             o O O O                                                                                                                                                                                                                                             ",
"                                                                                                                                                                                                                          O $                                                                                                                                                                                                                                                                                                   ",
"                                                                                                                                                                                                                                                                                                                                                                                                                                                                                                                                ",
"                                                                                                                                                                                                                                                                                                                                                                                                                                                                                                                                ",
"                                                                                                                                                                                                                                                                                                                                                                                                                                                                                                                                "
};
