/* XPM */
static char *out[] = {
/* columns rows colors chars-per-pixel */
"256 256 148 2 ",
"   c None",
".  c #1C130E",
"X  c #1D1512",
"o  c #201611",
"O  c #241A14",
"+  c #2A1E16",
"@  c #261D19",
"#  c #2A1E18",
"$  c #2E2017",
"%  c #2E221A",
"&  c #302117",
"*  c #33251C",
"=  c #39271C",
"-  c #36281E",
";  c #3B2A1E",
":  c #362921",
">  c #3D2C21",
",  c #3F3126",
"<  c #3D302B",
"1  c #402D1F",
"2  c #412F21",
"3  c #453224",
"4  c #4A3525",
"5  c #4F3827",
"6  c #443429",
"7  c #4A3629",
"8  c #4D392B",
"9  c #513927",
"0  c #533D2C",
"q  c #583F2D",
"w  c #423530",
"e  c #4C3C31",
"r  c #523E32",
"t  c #57402E",
"y  c #5A412E",
"u  c #564132",
"i  c #5C4533",
"p  c #5E4836",
"a  c #55443A",
"s  c #594539",
"d  c #5E493A",
"f  c #614733",
"g  c #634A35",
"h  c #694D37",
"j  c #654C3A",
"k  c #694F3A",
"l  c #67503D",
"z  c #6C523D",
"x  c #71553E",
"c  c #5E4E46",
"v  c #654F41",
"b  c #665042",
"n  c #6D5542",
"m  c #6A5349",
"M  c #6F594A",
"N  c #715641",
"B  c #755A44",
"V  c #7A5D46",
"C  c #755D4A",
"Z  c #7A5E49",
"A  c #785F51",
"S  c #7D6047",
"D  c #7D624B",
"F  c #766150",
"G  c #7C6452",
"H  c #82654D",
"J  c #86684F",
"K  c #826651",
"L  c #856952",
"P  c #8B6D54",
"I  c #856D5A",
"U  c #8A6E5A",
"Y  c #8E7057",
"T  c #8E715A",
"R  c #917156",
"E  c #93755B",
"W  c #96785E",
"Q  c #997A5E",
"!  c #8D7462",
"~  c #917661",
"^  c #967962",
"/  c #9B7D63",
"(  c #957C6A",
")  c #9A7E69",
"_  c #A07F62",
"`  c #9E8066",
"'  c #9E826A",
"]  c #9D8472",
"[  c #A28266",
"{  c #A4856A",
"}  c #A8876A",
"|  c #A6886D",
" . c #AA8A6D",
".. c #A28671",
"X. c #A68972",
"o. c #AC8D72",
"O. c #A28679",
"+. c #A68C79",
"@. c #AA8E78",
"#. c #B08F71",
"$. c #AE9076",
"%. c #AD917A",
"&. c #B29275",
"*. c #B4957A",
"=. c #B8977A",
"-. c #B6987E",
";. c #BA9A7D",
":. c #AD9382",
">. c #B19681",
",. c #B69A81",
"<. c #BB9D83",
"1. c #B69D8C",
"2. c #BA9F89",
"3. c #BEA186",
"4. c #BDA289",
"5. c #C09F81",
"6. c #C3A385",
"7. c #C3A68A",
"8. c #C8A788",
"9. c #C6A98C",
"0. c #CAAB8C",
"q. c #C0A792",
"w. c #C5AA92",
"e. c #CCAE91",
"r. c #C3AD99",
"t. c #CEB192",
"y. c #CCB39A",
"u. c #D2B495",
"i. c #D3B699",
"p. c #D5BA9A",
"a. c #D9BE9D",
"s. c #D3BCA2",
"d. c #DABFA0",
"f. c #DAC09F",
"g. c #D6C2A5",
"h. c #DDC3A3",
"j. c #DFC8A7",
"k. c #D5C1AD",
"l. c #DBC6AA",
"z. c #DDC9AC",
"x. c #DBCAB0",
"c. c #E0C7A6",
"v. c #E1C8A7",
"b. c #E0C7A8",
"n. c #E3CCAC",
"m. c #E4CFB0",
"M. c #E6D1B1",
"N. c #E8D4B4",
/* pixels */
"                                                                                                                                                                                                                                                                                                                                                                                                                                                                                                                                ",
"                                                                                                                                                                                                                                                                                                                                                                                                                                                                                                                                ",
"                                                                                                                                                                                                                                                                                                                                                                                                                                                                                                                                ",
"                                                                                                                                                                                                                                                                                                                                                                                                                                                                                                                                ",
"                                                                                                                                                                                                                                                                                                                                                                                                                                                                                                                                ",
"                                                                                                                                                                                                                                                                                                                                                                                                                                                                                                                                ",
"                                                                                                                                                                                                                                                                                                                                                                                                                                                                                                                                ",
"                                                                                                                                                                                                                                                                                                                                                                                                                                                                                                                                ",
"                                                                                                                                                                                                                                                                                                                                                                                                                                                                                                                                ",
"                                                                                                                                                                                                                                                                                                                                                                                                                                                                                                                                ",
"                                                                                                                                                                                                                                                                                                                                                                                                                                                                                                                                ",
"                                                                                                                                                                                                                                                                                                                                                                                                                                                                                                                                ",
"                                                                                                                                                                                                                                                                                                                                                                                                                                                                                                                                ",
"                                                                                                                                                                                                                                                                                                                                                                                                                                                                                                                                ",
"                                                                                                                                                                                                                                                                                                                                                                                                                                                                                                                                ",
"                                                                                                                                                                                                                                                                                                                                                                                                                                                                                                                                ",
"                                                                                                                                                                                                                                                                                                                                                                                                                                                                                                                                ",
"                                                                                                                                                                                                                                                                                                                                                                                                                                                                                                                                ",
"                                                                                                                                                                                                                                                                                                                                                                                                                                                                                                                                ",
"                                                                                                                                                                                                                                                                                                                                                                                                                                                                                                                                ",
"                                                                                                                                                                                                                                                                                                                                                                                                                                                                                                                                ",
"                                                                                                                                                                                                                                                                                                                                                                                                                                                                                                                                ",
"                                                                                                                                                                                                                                                                                                                                                                                                                                                                                                                                ",
"                                                                                                                                                                                                                                                                                                                                                                                                                                                                                                                                ",
"                                                                                                                                                                                                                                                                                                                                                                                                                                                                                                                                ",
"                                                                                                                                                                                                                                                                                                                                                                                                                                                                                                                                ",
"                                                                                                                                                                                                                                                                                                                                                                                                                                                                                                                                ",
"                                                                                                                                                                                                                                                                                                                                                                                                                                                                                                                                ",
"                                                                                                                                                                                                                                                                                                                                                                                                                                                                                                                                ",
"                                                                                                                                                                                                                                                                                                                                                                                                                                                                                                                                ",
"                                                                                                                                                                                                                                                                                                                                                                                                                                                                                                                                ",
"                                                                                                                                                                                                                                                                                                                                                                                                                                                                                                                                ",
"                                                                                                                                                                                                                                                                                                                                                                                                                                                                                                                                ",
"                                                                                                                                                                                                                                                                                                                                                                                                                                                                                                                                ",
"                                                                                                                                                                                                                                                                                                                                                                                                                                                                                                                                ",
"                                                                                                                                                                                                                                                                                                                                                                                                                                                                                                                                ",
"                                                                                                                                                                                                                                                                                                                                                                                                                                                                                                                                ",
"                                                                                                                                                                                                                                                                                                                                                                                                                                                                                                                                ",
"                                                                                                                                                                                                                                                                                                                                                                                                                                                                                                                                ",
"                                                                                                                                                                                                                                                                                                                                                                                                                                                                                                                                ",
"                                                                                                                                                                                                                                                                                                                                                                                                                                                                                                                                ",
"                                                                                                                                                                                                                                                                                                                                                                                                                                                                                                                                ",
"                                                                                                                                                                                                                                                                                                                                                                                                                                                                                                                                ",
"                                                                                                                                                                                                                                                                                                                                                                                                                                                                                                                                ",
"                                                                                                                                                                                                                                                                                                                                                                                                                                                                                                                                ",
"                                                                                                                                                                                                                                                                                                                                                                                                                                                                                                                                ",
"                                                                                                                                                                                                                                                                                                                                                                                                                                                                                                                                ",
"                                                                                                                                                                                                                                                                                                                                                                                                                                                                                                                                ",
"                                                                                                                                                                                                                                                                                                                                                                                                                                                                                                                                ",
"                                                                                                                                                                                                                                                                                                                                                                                                                                                                                                                                ",
"                                                                                                                                                                                                                                                                                                                                                                                                                                                                                                                                ",
"                                                                                                                                                                                                                                                                            x.m.j.                                                                                                                                                                                                                                              ",
"                                                                                                                                                                                                                                                                            m.j.n.m.j.g.                                                                                                                                                                                                                                        ",
"                                                                                                                                                                                                                                                                          x.j.d.f.j.j.n.n.g.                                                                                                                                                                                                                                    ",
"                                                                                                                                                                                                                                                                          z.h.d.f.f.f.j.j.n.n.f.                                                                                                                                                                                                                                ",
"                                                                                                                                                                                                                                                                        k.j.f.d.f.f.f.f.f.f.f.f.n.g.                                                                                                                                                                                                                            ",
"                                                                                                                                                                                                                                                                        j.f.f.f.f.f.f.f.f.f.f.f.h.j.z.h.y.                                                                                                                                                                                                                      ",
"                                                                                                                                                                                                                                                                      k.f.f.f.p.p.p.p.p.u.f.f.f.f.f.f.j.v.j.f.                                                                                                                                                                                                                  ",
"                                                                                                                                                                                                                                                                      z.f.p.p.p.p.u.u.u.u.f.f.u.p.a.a.a.f.f.j.j.g.                                                                                                                                                                                                              ",
"                                                                                                                                                                                                                                                                    s.j.p.p.u.u.u.t.t.t.t.t.t.f.p.p.p.a.p.p.f.f.h.h.p.                                                                                                                                                                                                          ",
"                                                                                                                                                                                                                                                                    h.p.u.u.u.t.t.0.t.0.e.e.t.u.u.u.u.p.f.p.f.p.f.p.u.p.y.                                                                                                                                                                                                      ",
"                                                                                                                                                                                                                                                                    g.u.t.t.e.0.0.0.0.0.0.e.0.t.u.t.u.u.u.u.p.p.p.i.u.u.u.u.w.7.                                                                                                                                                                                                ",
"                                                                                                                                                                                                                                                                  k.p.t.0.e.8.8.0.0.0.t.e.e.e.e.e.u.u.u.u.t.u.u.i.u.p.t.0.6.8.0.w.4.                                                                                                                                                                                            ",
"                                                                                                                                                                                                                                                                  s.0.u.e.8.0.9.0.0.0.0.0.0.0.t.0.e.t.t.u.u.u.u.t.u.u.0.8.6.6.<.<.6.7.                                                                                                                                                                                          ",
"                                                                                                                                                                                                                                                                g.u.0.8.0.0.0.6.0.8.6.0.8.8.0.0.0.0.0.t.t.u.u.u.t.0.8.7.7.7.7.7.<.,.<.                                                                                                                                                                                          ",
"                                                                                                                                                                                                                                                                u.6.5.6.8.6.6.5.6.6.6.0.0.0.0.0.0.0.0.0.0.e.0.u.e.8.0.0.0.0.0.9.9.5.-.                                                                                                                                                                                          ",
"                                                                                                                                                                                                                                                              y.6.5.5.5.5.6.6.6.6.6.6.6.6.0.8.0.0.0.0.0.8.0.8.0.0.0.e.0.e.0.8.0.0.7.                                                                                                                                                                                            ",
"                                                                                                                                                                                                                                                              r.&.&.;.;.;.5.6.6.;.;.6.6.8.8.8.0.0.8.8.8.8.8.8.8.8.8.8.8.7.8.7.9.8.<.                                                                                                                                                                                            ",
"                                                                                                                                                                                                                                                            r.5.&.&.;.&.=.&.=.;.;.;.;.6.8.6.8.0.8.8.8.8.0.8.8.8.6.6.5.6.6.6.8.9.6.>.                                                                                                                                                                                            ",
"                                                                                                                                                                                                                                                            w.;.&.=.=.&.&.#.#.&.=.=.;.;.;.6.;.0.8.8.8.8.8.0.0.0.8.8.6.7.6.6.6.7.<.                                                                                                                                                                                              ",
"                                                                                                                                                                                                                                                            5.#.#.#.#.#.#.#.#.=.=.#.=.=.;.8.;.0.6.8.6.8.6.8.0.0.e.8.8.8.8.8.9.6.-.                                                                                                                                                                                              ",
"                                                                                                                                                                                                                                                          4.#.o.#.#. .#.#.#.#.#.#.=.#.=.;.;.;.;.6.6.8.6.6.8.8.0.0.0.8.7.9.9.0.3.                                                                                                                                                                                                ",
"                                                                                                                                                                                                                                                          2. .#.#.#. .#.#.&.=.#.&. .#.&.=.;.;.;.;.8.8.8.8.6.6.8.0.0.0.8.9.8.8.;.                                                                                                                                                                                                ",
"                                                                                                                                                                                                                                                        4.#.{ } #. . . .#.#.=.&.#.#. . .#.&.=.=.;.;.6.8.6.6.6.6.8.8.8.6.8.8.8.                                                                                                                                                                                                  ",
"                                                                                                                                                                                                                                                        =._ _ _ }  . .} } #.#.#.#.#. .} } #.&.=.;.=.5.6.6.6.6.6.8.6.6.6.3.6.;.                                                                                                                                                                                                  ",
"                                                                                                                                                                                                                                                      :._ Q _ Q ` [ } [ } #. .}  . . .} }  .&.=.;.;.;.6.6.6.5.6.6.6.6.6.6.6.                                                                                                                                                                                                    ",
"                                                                                                                                                                                                                                                      :.W L P R Q _ } } }  . .} #.#.#.#.#.} #.#.=.=.=.5.5.5.5.5.5.6.6.6.8.5.                                                                                                                                                                                                    ",
"                                                                                                                                                                                                                                                    :._ E R R P R Q _  .#. . . .}  .} #. .#.#.#.#.&.&.5.;.;.5.;.6.6.6.6.5.=.                                                                                                                                                                                                    ",
"                                                                                                                                                                                                                                                    ] L R R R R J R R Q }  . . .} }  . .} #.#.#.#.#.&.=.=.=.;.5.5.5.6.6.;.                                                                                                                                                                                                      ",
"                                                                                                                                                                                                                                                    m n H J P P J J J R [ [ } } } [ } }  .} #.#.#.#.#.=.=.=.=.;.5.;.5.;.#.                                                                                                                                                                                                      ",
"                                                                                                                                                                                                                                                        r k Z R R J R R ` ` ` ` ` [ [ } } #.} #.#.#.#.#.#.#.=.=.=.=.=.#.                                                                                                                                                                                                        ",
"                                                                                                                                                                                                                                                            r v S R R R ` ` ` ` ` ` [ } } } #.#.#.} #.} #.#.#.#.#.=.#.#.                                                                                                                                                                                                        ",
"                                                                                                                                                                                                                                                                0 x S R ` ` ` ` [ [ [ [ } } } #.#.#.#.} #.#.&.&.#.=.#.                                                                                                                                                                                                          ",
"                                                                                                                                                                                                                                                                    t h S ` ` ` [ [ [ [ } } } } #.#.} } } #.#.=.=.=.#.                                                                                                                                                                                                          ",
"                                                                                                                                                                                                                                                                        u u D ` [ [ [ [ } } #.} #.#.} #.} } #.&.=.}                                                                                                                                                                                                             ",
"                                                                                                                                                                                                                                                                        @ X % t x ` [ [ } } } } } } } } } }  .#.#.[                                                                                                                                                                                                             ",
"                                                                                                                                                                                                                                                                      e O . . X & 9 x ` [ } } } } _ _ [ [ } [ } } Q                                                                                                                                                                                                             ",
"                                                                                                                                                                                                                                                                      e O X X X o o & 4 h R [ #.} _ Q _ [ _ _ _ Q                                                                                                                                                                                                               ",
"                                                                                                                                                                                                                                                                      : O o o X o o . . O   B Y Q Q Q _ Q Q _ Q P                                                                                                                                                                                                               ",
"                                                                                                                                                                                                                                                                    c : + O O o o o o .         d B P Q E R E R                                                                                                                                                                                                                 ",
"                                                                                                                                                                                                                                                                    m 8 = $ + O o o O o             i N P R E L                                                                                                                                                                                                                 ",
"                                                                                                                                                                                                                                                                    n u 8 ; - % & O + $                 u z C                                                                                                                                                                                                                   ",
"                                                                                                                                                                                                                                                                  G m j s 8 7 , > - -                                                                                                                                                                                                                                           ",
"                                                                                                                                                                                                                                                                  G N l j j s t 8 7 u                                                                                                                                                                                                                                           ",
"                                                                                                                                                                                                                                          4.7.w.r.                G S n l p p p p p M                                                                                                                                                                                                                                           ",
"                                                                                                                                                                                                                                          <.o.=.5.e.r.4.          F D N N l g l l M                                                                                                                                                                                                                                             ",
"                                                                                                                                                                                                                                        1.,.#.&.&.=.;.8.e.7.    F V D D Z B n n B A                                                                                                                                                                                                                                             ",
"                                                                                                                                                                                                                                        4.=.@.&.&.=.=.;.5.5.9.5.%./ R P I D B V L ~                                                                                                                                                                                                                                             ",
"                                                                                                                                                                                                                                        3.&.&.-.=.=.=.;.5.5.8.e.7.6.<.@._ E K V L ^                                                                                                                                                                                                                                             ",
"                                                                                                                                                                                                                                      4.<.;.=.=.5.8.e.u.d.d.h.d.w.<.8.8.7.,.| I U                                                                                                                                                                                                                                               ",
"                                                                                                                                                                                                                                      4.;.;.6.t.d.n.n.n.n.n.n.c.d.0.5.5.5.8.8.5.:.+.                                                                                                                                                                                                                                            ",
"                                                                                                                                                                                                                                    ,.4.6.f.v.M.m.m.n.n.v.c.c.c.h.p.7.;.5.5.5.5.5.5.5.:.                                                                                                                                                                                                                                        ",
"                                                                                                                                                                                                                                    r.f.n.N.N.N.m.n.n.v.c.c.h.h.h.a.u.5.;.;.5.,.5.=.5.5.5.1.)                                                                                                                                                                                                                                   ",
"                                                                                                                                                                                                                                  z.n.N.N.N.N.M.m.n.v.v.c.h.d.d.p.p.i.9.;.*.=.=.*.5.,.,.5.5.*.:.+.                                                                                                                                                                                                                              ",
"                                                                                                                                                                                                                              n.N.N.N.M.M.M.N.M.n.v.v.h.f.f.f.f.u.0.>.o.@.=.$.&.=.,.;.=.=.&.&.:.*.>.+.                                                                                                                                                                                                                          ",
"                                                                                                                                                                                                                          x.m.N.N.N.M.n.n.n.n.n.n.v.v.j.f.f.u.8.&._ _ _ _ =.*.&.*.=.;.,.>.&.&.$.@.*.@.                                                                                                                                                                                                                          ",
"                                                                                                                                                                                                                    l.m.N.M.M.M.n.n.n.n.n.n.v.v.v.v.f.f.f.5.} [ _ Q W W _ =.;.=.&.*.=.&.%.&.&.$.%.*.X.                                                                                                                                                                                                                          ",
"                                                                                                                                                                                                                x.m.M.M.n.m.M.n.n.n.n.n.v.v.v.v.v.f.f.6.#.[ ` ` W W Q W / #.5.;.5.=.=.*.*.*.%.%.%.o.                                                                                                                                                                                                                            ",
"                                                                                                                                                                                                            n.m.N.m.m.m.n.n.n.n.n.v.v.n.f.f.f.f.t.;.#.} [ [ ` ` E Q Q Q R } >.;.=.,.,.=.=.>.%.#.#.X.                                                                                                                                                                                                                            ",
"                                                                                                                                                                                                        n.m.m.M.m.n.n.m.n.n.b.b.v.f.f.f.f.f.8.&. .[ ` ` [ [ R R E Q Q E R _ =.=.=.=.=.&.=.*.%.&.$...                                                                                                                                                                                                                            ",
"                                                                                                                                                                                                    l.n.m.M.m.m.m.m.n.n.v.c.c.a.f.f.f.t.6.=.[ [ ` ` [ ` [ [ ` R R R R R R / #.*.&.=.*.*.&.&.) &.o.                                                                                                                                                                                                                              ",
"                                                                                                                                                                                                  z.m.n.m.m.m.n.n.n.n.v.c.c.h.a.u.6.=.#.[ [ ` ` ` ` ` ` R R J R P P P J Y _ &.&.&.*.*.*.&.$.&.) _                                                                                                                                                                                                                               ",
"                                                                                                                                                                                              s.j.b.b.b.n.n.m.n.n.v.v.v.c.a.u.8.=. .{ [ ` ` ` Q ` R ` ` R R J R P P P P _ o.&.&.&.=.*.*.&.%.o.{ (                                                                                                                                                                                                                               ",
"                                                                                                                                                                                            s.h.h.h.h.h.j.b.b.b.j.h.c.h.a.6. ._ Q ^ Q ` Q E E Q R ` J R J ` ` J P P E _  .o.o.$.%.&.&.*.*.=.%.X.                                                                                                                                                                                                                                ",
"                                                                                                                                                                                          p.p.d.d.h.a.d.d.d.h.d.f.a.u.6.#.[ Q Q R W Q ` Q Q E E ` J R R R R J J R _ o. .o.o.#.&.#.#.#.=.*.=.*...                                                                                                                                                                                                                                ",
"                                                                                                                                                                                      w.u.t.e.e.t.y.u.e.e.u.i.t.6.&.Q R P R R R E Q Q Q Q Q E R R J J S J J ` [  .#.&.#.*._ &.%.#.&.#.%.&.%.@.                                                                                                                                                                                                                                  ",
"                                                                                                                                                                                    w.7.7.6.6.<.=.=.;.;.<.<.o.W J S x x H R Y J P R R R R Y Y J J S S S ` [ | #.#.#.&.#.#. . ._ o.*.&.&.*.#.o.                                                                                                                                                                                                                                  ",
"                                                                                                                                                                                +.-.=.o.| | &.@.X.| | _ P Z B B x x k h S J J Y P P P P P J J J J S ` ` [  . .#.#.#.#.#.o.o. . .o.&.&.$.#.%.X.                                                                                                                                                                                                                                  ",
"                                                                                                                                                                              :.2.2.>.( ! ! T ! ) E P H x x x x x h z x x x B J P J J J P J P P ` ` [ } } } #. .#.&.&.o. . .o.o.o.#.$.o.#.o.                                                                                                                                                                                                                                    ",
"                                                                                                                                                                              2.e.s.s.i.y.y.w.2.( N x H B x h x h x x z h h z S J J J J J P R ` [ [ [ [ }  . . .#.&.*._ o. . ._ } o.o.o.#.X.                                                                                                                                                                                                                                    ",
"                                                                                                                                                                                -.<.6.6.<.,.<.7.<.! k N x g y g f h k z h h h x S S S J E ` [ [ [ [ } } |  .#.#.#.#.#.o.o. ._ #.} |  .#.o._                                                                                                                                                                                                                                     ",
"                                                                                                                                                                                ' @.#.*.;.=.=.6.9.<.! s i y 9 i q 0 f f i g z k x J R ` ` ` [ [ } } } } | o.#. .#.#.&.&.o.o.o.@. . .o. .X.                                                                                                                                                                                                                                      ",
"                                                                                                                                                                                  ` @.#.&.;.-.=.5.9.<.I 8 4 4 5 0 3 3 9 8 t l S J ` [ ` ` } } ` } } }  . . .#.#._ o.#.%.&.>.#._ o. .o. .{                                                                                                                                                                                                                                       ",
"                                                                                                                                                                                  U { o.| | =.&.#.*.8.5.I j g u i y 3 4 t z H R ` [ [ [ } ` } } } } } }  . .o.o.#.@._ &._ _ #.&.o.o. .|                                                                                                                                                                                                                                         ",
"                                                                                                                                                                                    E / / / [ [ _ { &.8.;.&.,.=.o.` M d C L Y Q ` [ } } | | | } { } |  . . . . .%._ $._ #._ #._  .|  .o.                                                                                                                                                                                                                                        ",
"                                                                                                                                                                                    C L P P R R R ^ _ =.5.*.=.<.<.&.G S L T W Q ` [ ` [ | } | ` } | |  . . .o. .#.$._ &.) #._ %.| | | |                                                                                                                                                                                                                                         ",
"                                                                                                                                                                                      b N n z B H J L Q <.=.#.&.$.) G L E W W ^ ` W ` ` | | ` } ` } |  . .o.o. ._ &._ _ $._ #._ | } |                                                                                                                                                                                                                                           ",
"                                                                                                                                                                                      r j j u i n Z J J } <.=.*.o.I G E E ^ Q ^ ` ` ` ` ` | | | | | |  . . .#. .>._ $.$._ _ $._ { } {                                                                                                                                                                                                                                           ",
"                                                                                                                                                                                        u p i 0 h S S S ` ;.;.;.-.' I Y ` Y P ` ` ^ ` ` ` { ` { { { { o. . . .o.&._ >._ _ _ _ :.{ { `                                                                                                                                                                                                                                           ",
"                                                                                                                                                                                          i g u f x S S S ` ;.;.;.-.| ` ` ` ` ` ` ` ` { ` { { { { { }  .X.{  . .&._ _ _ $._ _ _ { {                                                                                                                                                                                                                                             ",
"                                                                                                                                                                                          p n z z S S S x S } 8.;.;.-.` P ` ` ` ` ` ` ` ' { ` { { [ { |  .| |  ._ #._ &._ _ _ &.{ {                                                                                                                                                                                                                                             ",
"                                                                                                                                                                                            l n x B J S S S ` ;.t.t.-.| ` P I ` ` Q ` ` ' ` ` { [ | | { {  . .| &._ _ ) _ _ ) _ {                                                                                                                                                                                                                                               ",
"                                                                                                                                                                                            8 u p l D J D J S ` ;.0.9.-.` ` ` ` W ` ` ` ` ` [ ` _ { | | _ ..{  .:._ _ _ &.) _ _ [                                                                                                                                                                                                                                               ",
"                                                                                                                                                                                              6 8 t l D S D J J *.0.9.9.| ` G ` T W W ` ` / ` ` ) [ ) / _ _ _ { _ _ &._ ) _ ) &.[                                                                                                                                                                                                                                               ",
"                                                                                                                                                                                              , , t p B S S J S ` ;.9.9.;.` G D Y Y T ` / ` ` / / [ / Q / / / _ _ _ &.) _ _ _ &.|                                                                                                                                                                                                                                               ",
"                                                                                                                                                                                                , e t l S S ` J J | 9.9.;.' ` ` T Y Y T ^ ^ / / / / / ^ _ ~ / _ _ _ _ >._ ) _ _ X.                                                                                                                                                                                                                                              ",
"                                                                                                                                                                                                  t t u l F D ` P ` =.f.;.;.` D Y T P T E ` E ` ^ / Q / ^ Q _ _ ) _ _ :._ _ @._ :.                                                                                                                                                                                                                                              ",
"                                                                                                                                                                                                  , , u j j z D ` D | ;.f.4.' S G Y T Y Y E E E ^ ^ W Q Q / Q _ _ _ _ _ _ _ _ _ _                                                                                                                                                                                                                                               ",
"                                                                                                                                                                                                    6 t u t t x ` ` ` &.;.4.;.` L P Y Y P T E ` ^ ~ E E E E Q ^ / _ _ _ ) _ _ / #.                                                                                                                                                                                                                                              ",
"                                                                                                                                                                                                      t t t t u B ` D ` ;.f.0.| P G P Y P P T I E ^ E R P R R E Q Q E ) / / _ _ )                                                                                                                                                                                                                                               ",
"                                                                                                                                                                                                        , t t 3 l P Y P #.e.t.4.T P P T Y T T T E E E R Y P T E ~ E E T R Q / Q _                                                                                                                                                                                                                                               ",
"                                                                                                                                                                                                          3 t 3 i D P D ` ;.0.4.| D D P T E E T P T T P P Y Y Y E E E T T R E / _                                                                                                                                                                                                                                               ",
"                                                                                                                                                                                                          ; , 3 t N Y J S | 0.0.;.I D D J T T E R T P P P P P Y R T R E R R Q / )                                                                                                                                                                                                                                               ",
"                                                                                                                                                                                                            , 3 , l J D S R ;.0.0.' D D D G P Y T E T T P P P Y R T T R T ~ Q / /                                                                                                                                                                                                                                               ",
"                                                                                                                                                                                                              , ; t G L J J ` 8.0.,.K Z H H L P T R E E Y T T P R Y Y Y U R W W ^                                                                                                                                                                                                                                               ",
"                                                                                                                                                                                                                - > l Y P J R -.7.<.^ N C D L L L P T T T T P T T T T Y Y Y E W ^                                                                                                                                                                                                                                               ",
"                                                                                                                                                                                                                - : 8 N P P J ` 5.<.@.Z B V H H L L U T Y Y L P P P P Y U R W W ^                                                                                                                                                                                                                                               ",
"                                                                                                                                                                                                                  7 > 7 B P D J X.<.<.~ B B V S H K L P Y P P P L K L L P P U E ~                                                                                                                                                                                                                                               ",
"                                                                                                                                                                                                                u p 3 - t z B l H %.<.o.K V B C V H K K L P L L L L L H L P R R                                                                                                                                                                                                                                                 ",
"                                                                                                                                                                                                                a l i , > t p t h ^ ,.,.~ H Z V B V S K L K H H H H L L K P U R                                                                                                                                                                                                                                                 ",
"                                                                                                                                                                                                                a l z t ; 4 i g h H o.<.+.H Z K S D D H L L K K H V H H H H L P                                                                                                                                                                                                                                                 ",
"                                                                                                                                                                                                                a z x j 4 = t p z N ~ >.<.U C V S D D H J H H H H H H H D H H L                                                                                                                                                                                                                                                 ",
"                                                                                                                                                                                                                a l z z g 6 ; 4 i k V | ,.O.V B V Z V H H K K H H Z H H Z H H H                                                                                                                                                                                                                                                 ",
"                                                                                                                                                                                                                a p l l j p 1 % 1 q f H @.@.F k B V C V V H H A H Z Z H H B C H                                                                                                                                                                                                                                                 ",
"                                                                                                                                                                                                                u t i l i g i - + ; 5 u Z I n g n N B V Z Z Z K Z B H H C H C H                                                                                                                                                                                                                                                 ",
"                                                                                                                                                                                                                e t y p j j l t * + = 4 s j f f j h n B B V V H H C B Z H C C H                                                                                                                                                                                                                                                 ",
"                                                                                                                                                                                                                e 8 9 t g j j j 0 * : e i f j d f j j k n N B V H H B H B H C H                                                                                                                                                                                                                                                 ",
"                                                                                                                                                                                                                : ; 3 2 5 t u 0 s r 0 r f d j g g n Z n k k N B B B B B N N m H                                                                                                                                                                                                                                                 ",
"                                                                                                                                                                                                                      @ @ # * * : 2 6 > 2 7 r g A ( ) P f f j k v N N n n v n N                                                                                                                                                                                                                                                 ",
"                                                                                                                                                                                                                                          8 i i B ) ) _ K n m n k v d g q 8 q i                                                                                                                                                                                                                                                 ",
"                                                                                                                                                                                                                                        g h g 7 u E ......| { { _ ) ) ) ..                                                                                                                                                                                                                                                      ",
"                                                                                                                                                                                                                                    8 6 > 6 9 7 8 N { X.X...X. ._ >.) 5.5.2.                                                                                                                                                                                                                                                    ",
"                                                                                                                                                                                                                                  - * % % - 5 7 4 u ^ @.o.o.o.%.$.:.5.:.2.6.1.                                                                                                                                                                                                                                                  ",
"                                                                                                                                                                                                                                  o O % * > 5 5 9 i C X.#.%.*.*.>.5.1.5.5.5.5.5.                                                                                                                                                                                                                                                ",
"                                                                                                                                                                                                                                    % % $ - 3 9 y i z ^ @.*.-.,.5.5.1.2.5.5.q.q.                                                                                                                                                                                                                                                ",
"                                                                                                                                                                                                                                    % % % % > 5 8 0 i H @.&.-.<.q.5.5.1.2.2.5.5.w.                                                                                                                                                                                                                                              ",
"                                                                                                                                                                                                                                      % % $ * 7 3 8 q j ) -.*.<.5.q.5.5.2.,.5.q.9.9.                                                                                                                                                                                                                                            ",
"                                                                                                                                                                                                                                      % % % $ , 4 3 0 q H @.*.&.5.q.q.5.5.2.2.5.9.w.q.                                                                                                                                                                                                                                          ",
"                                                                                                                                                                                                                                        * % % * 6 3 0 f z / -.-.;.3.3.3.4.<.4.4.4.9.w.4.                                                                                                                                                                                                                                        ",
"                                                                                                                                                                                                                                        % % % % : 4 9 r y L &.,.,.<.7.3.<.2.,.,.4.7.9.w.4.                                                                                                                                                                                                                                      ",
"                                                                                                                                                                                                                                          : % * * 3 6 8 8 k ` ;.=.;.<.3.2.<.4.,.4.4.4.9.w.4.                                                                                                                                                                                                                                    ",
"                                                                                                                                                                                                                                          * % * * 2 3 7 8 g J #.-.=.<.3.3.,.,.4.,.3.4.9.9.9.9.                                                                                                                                                                                                                                  ",
"                                                                                                                                                                                                                                            % % * > 3 3 3 9 h Q =.=.;.<.3.3.<.,.-.3.3.3.4.e.4.4.                                                                                                                                                                                                                                ",
"                                                                                                                                                                                                                                            * * : > 3 3 ; 6 y H @.=.-.;.-.3.<.4.3.3.-.3.4.4.9.7.4.                                                                                                                                                                                                                              ",
"                                                                                                                                                                                                                                              - - : > 3 ; 1 0 h / *.=.-.-.3.3.4.,.,.3.3.4.4.4.9.4.<.                                                                                                                                                                                                                            ",
"                                                                                                                                                                                                                                              * * : * ; 3 ; 3 y H o.=.=.,.,.3.3.4.3.-.3.4.4.4.9.7.6.,.                                                                                                                                                                                                                          ",
"                                                                                                                                                                                                                                                - - % = 2 1 1 4 h Q #.=.,.<.7.7.2.2.-.-.,.<.4.7.q.6.<.>.                                                                                                                                                                                                                        ",
"                                                                                                                                                                                                                                                : - * * ; 3 1 3 q H #.=.=.,.5.7.7.2.,.#.&.,.<.4.7.4.<.,.                                                                                                                                                                                                                        ",
"                                                                                                                                                                                                                                                  : = * ; ; 2 2 4 h _ &.=.=.2.6.7.q.2.*.*.*.,.2.7.9.<.<.,.                                                                                                                                                                                                                      ",
"                                                                                                                                                                                                                                                  - * * - ; 2 ; 3 q H #.*.*.,.2.6.q.7.,.@.*.*.,.4.7.7.,.;.<.                                                                                                                                                                                                                    ",
"                                                                                                                                                                                                                                                    - * * = 2 2 1 9 h / *.&.=.<.3.6.7.4.*.&.*.*.<.3.w.4.<.<.<.                                                                                                                                                                                                                  ",
"                                                                                                                                                                                                                                                    - - * ; ; 2 ; 2 q H #.*.=.,.3.4.4.q.>.@.%.%.%.<.4.4.7.<.<.<.                                                                                                                                                                                                                ",
"                                                                                                                                                                                                                                                      - * * * 2 1 1 5 h _ #.*.=.<.3.7.4.<...&.*.%.-.<.3.4.<.<.<.2.                                                                                                                                                                                                              ",
"                                                                                                                                                                                                                                                      : * * * ; 1 = 2 0 H #.*.*.,.<.4.7.7.@.` %.%.*.-.,.-.,.<.4.4.2.                                                                                                                                                                                                            ",
"                                                                                                                                                                                                                                                        ; * - ; ; ; 1 5 h Q &.&.=.<.7.6.q.<./ ` $.*.$.%.>.,.<.3.4.3.2.                                                                                                                                                                                                          ",
"                                                                                                                                                                                                                                                        : - * * ; ; = 3 9 H #.&.*.,.2.7.7.7.] T ' $.X.$.%.%.%.<.<.4.9.,.                                                                                                                                                                                                        ",
"                                                                                                                                                                                                                                                          : ; : ; = 1 1 9 g _ &.&.-.<.6.4.7.*.C I / | | X.%.%.*.-.3.4.q.4.                                                                                                                                                                                                      ",
"                                                                                                                                                                                                                                                          : - * ; = 1 = 3 9 H #.&.=.,.<.6.q.7.I d T ' X.X.X.%.%.%.,.<.4.7.2.                                                                                                                                                                                                    ",
"                                                                                                                                                                                                                                                            : * * ; = ; 2 4 f Q &.*.-.,.5.7.7.@.8 j T ' X.X.X.%.*.>.>.<.4.4.4.                                                                                                                                                                                                  ",
"                                                                                                                                                                                                                                                            : * * = ; ; 1 3 9 V @.&.*.;.<.7.w.6.G * l U ] X...X.%.>.-.<.<.4.4.2.                                                                                                                                                                                                ",
"                                                                                                                                                                                                                                                              : : ; ; ; 1 2 4 y / *.&.&.;.<.7.w.%.6 - n ! ' ..' %.-.>.,.<.<.,.4.,.                                                                                                                                                                                              ",
"                                                                                                                                                                                                                                                              6 > : ; ; 1 1 4 5 V #.*.*.-.,.<.7.4.G + ; m T ' ] ] %.-.>.>.<.,.3.4.,.                                                                                                                                                                                            ",
"                                                                                                                                                                                                                                                                , - > ; ; 2 1 3 y ` *.*.*.-.;.4.9.%.6 o > M T ....O.%.>.,.,.<.<.<.2.                                                                                                                                                                                            ",
"                                                                                                                                                                                                                                                                : - - - > 2 1 1 4 S $.*.-.*.3.;.4.7.F o @ 6 B T { _ ..+.%.*.>.,.,.2.4.                                                                                                                                                                                          ",
"                                                                                                                                                                                                                                                                  : - - ; > 3 > 1 t ` *.=.=.;.3.3.7.%.6 o + 8 C U ( _ ....o.*.>.,.<.<.,.                                                                                                                                                                                        ",
"                                                                                                                                                                                                                                                                  , - - ; 2 4 4 ; 1 S $.-.-.-.;.<.<.4.D O O * 8 m L ~ ) ..X.@.>.,.,.,.<.,.                                                                                                                                                                                      ",
"                                                                                                                                                                                                                                                                    : * * - , 1 > > t ` -.;.3.-.;.<.<.@.6 O @ + : i C I ^ ..o.%.*.,.,.,.,.,.                                                                                                                                                                                    ",
"                                                                                                                                                                                                                                                                    : - * * * ; 1 1 , S %.-.-.-.;.,.<.<.C # @ O + # 2 j A U _ @.%.*.-.-.*.,.                                                                                                                                                                                    ",
"                                                                                                                                                                                                                                                                      * * * * * - ; ; 8 ` -.-.-.;.;.;.<.( % O O O O + # 6 i A _ | o.%.@.%.%.%.                                                                                                                                                                                  ",
"                                                                                                                                                                                                                                                                      * * * * * * * = ; N $.-.-.;.;.;.<.*.      % + O + @ * j P W W ^ / { X.]                                                                                                                                                                                   ",
"                                                                                                                                                                                                                                                                        * * % * % * * * 3 E *.-.-.-.;.;.-.      w * @ @ @ + 0 V L L L E ^ _ {                                                                                                                                                                                   ",
"                                                                                                                                                                                                                                                                        : % * % $ * * & * j $.=.&.=.-.-.-.      r > * & $ + 3 n J P R U W W (                                                                                                                                                                                   ",
"                                                                                                                                                                                                                                                                          % % * * * * * % , P $.%.*.*.*.-.%.  j r w : 2 2 1 2 h S Y R R U E E                                                                                                                                                                                   ",
"                                                                                                                                                                                                                                                                          * % % % % % % * ; s [ %.$.&.*.&.%.  v f 8 2 5 9 q y z N H J J L L P                                                                                                                                                                                   ",
"                                                                                                                                                                                                                                                                            * % % % % % $ = > D o.o.&.&.&.@.G m v q q i h h h V H x B V H H K K                                                                                                                                                                                 ",
"                                                                                                                                                                                                                                                                              % # $ + $ % * ; 8 T | @.o.@.o.L m m j j j h h x H H x H H H H H H                                                                                                                                                                                 ",
"                                                                                                                                                                                                                                                                                    @ + $ $ ; 1 k / o.o.o.o.E C B n h h x x S H H S J H C S V                                                                                                                                                                                   ",
"                                                                                                                                                                                                                                                                                      * * * = 2 7 K { | o.o.^ C B N z x x H S V V H K H J V k                                                                                                                                                                                   ",
"                                                                                                                                                                                                                                                                                    e e 8 0 3 2 3 i Y [ | | / D B m z N S S x x x x x V H z                                                                                                                                                                                     ",
"                                                                                                                                                                                                                                                                                    v s j j j f u 0 B E [ { ` H B B x B H x g h x x h h j                                                                                                                                                                                       ",
"                                                                                                                                                                                                                                                                                  M v s f x N Z D V D L E [ / P H V x V S h f x x g f g s                                                                                                                                                                                       ",
"                                                                                                                                                                                                                                                                                F C n j n H J H Y ^ ( T L E ^ Y C V N V x f h h y q q f                                                                                                                                                                                         ",
"                                                                                                                                                                                                                                                                              ! I L Z V K L L E ^ ' ' / Y Y E Y V x H V h h h f q q f                                                                                                                                                                                           ",
"                                                                                                                                                                                                                                                                            ( ( ~ P I U E E T T T T ^ ` ^ T Y Y V V J x h x f f q f s                                                                                                                                                                                           ",
"                                                                                                                                                                                                                                                                          ] ] ` ) ^ ^ E ^ ^ E U P P T ^ ^ E T Y H Z H x h f f f i q                                                                                                                                                                                             ",
"                                                                                                                                                                                                                                                                        O.X.X.| _ / / ) _ ^ E L L L P E ^ ^ ^ T J J B h h g g f r 8                                                                                                                                                                                             ",
"                                                                                                                                                                                                                                                                        +.$.X.| .._ ^ { { E L L L L L T ^ ` ^ W J H x h f g k j i                                                                                                                                                                                               ",
"                                                                                                                                                                                                                                                                      +.o.| X.o.o.X.| [ T U P U P P L T T ~ ` ` J x h f g k f 0                                                                                                                                                                                                 ",
"                                                                                                                                                                                                                                                                    ] o.X.| X.X.o.o...~ P I P I Y Y T T P T T L H h g h z B u 7                                                                                                                                                                                                 ",
"                                                                                                                                                                                                                                                                  ..X.X.| ..| | .._ E D S D D D G H G L G G J H x f g f k z u                                                                                                                                                                                                   ",
"                                                                                                                                                                                                                                                                X.@.X.X.| o.| o.{ T C x N C C B S S F G D B H V h f f q 8 8                                                                                                                                                                                                     ",
"                                                                                                                                                                                                                                                              ..X.X.X.X.| | o.' P B l z z N N B N C S D B S H x g h f f u r                                                                                                                                                                                                     ",
"                                                                                                                                                                                                                                                            ..+.@.X.o.X.X.$.' L B x x x z l l l n C S C B J V h g h f f p                                                                                                                                                                                                       ",
"                                                                                                                                                                                                                                                            @.@.$.X.X.o.@.| L N N N x l h g g l n C C N D H x g h j f i                                                                                                                                                                                                         ",
"                                                                                                                                                                                                                                                          +.@.@.X.@.o.@.' G x B x x z l g i i l M S n S J B h g g p i u                                                                                                                                                                                                         ",
"                                                                                                                                                                                                                                                        %.%.@.+.X.$.$.' G S S x z z z h h g l S D M x D S z g g p i p                                                                                                                                                                                                           ",
"                                                                                                                                                                                                                                                      @.%.%.o.o.X.@.` G x S x z z j g l l n G G F x S G z g h l p i d                                                                                                                                                                                                           ",
"                                                                                                                                                                                                                                                    +.%.%.+.+.o.X.' D N B x z l j g l j n G G G x n D S h g z z p p                                                                                                                                                                                                             ",
"                                                                                                                                                                                                                                                  ] %.%.@.@.@.o.` G S x x z l h j z g b I G G B x F D x g j z l p                                                                                                                                                                                                               ",
"                                                                                                                                                                                                                                                X.%.%.%.@.@.o.' G x x x z l h l l p u G I D n j x D S h h l l p i                                                                                                                                                                                                               ",
"                                                                                                                                                                                                                                                %.%.%.+.o.X.' D x x x l l l l j u     U D N j j C D l h l l u u                                                                                                                                                                                                                 ",
"                                                                                                                                                                                                                                              +.o.+.o.X.X.` G N x x l h k l j t     I I S n z N D S h l l g i                                                                                                                                                                                                                   ",
"                                                                                                                                                                                                                                            X.$.X.X.X.X.' D x x z l j k z i t       L G N n z V D z j b j i u                                                                                                                                                                                                                   ",
"                                                                                                                                                                                                                                          | X.X.X...| ) D n x z l j k l s u       G D N z z N D B h z j i r                                                                                                                                                                                                                     ",
"                                                                                                                                                                                                                                        ..X.X.X.X.{ ^ D x z l k g j j i 0         B m z z z V V z h j d r                                                                                                                                                                                                                       ",
"                                                                                                                                                                                                                                      | o.$.X.{ { { H z z l h i i j u             n z z n n S N g j j i r                                                                                                                                                                                                                       ",
"                                                                                                                                                                                                                                    / o.o.| | { ` G z z k k g i y t             C N n z z B V g i i u 8                                                                                                                                                                                                                         ",
"                                                                                                                                                                                                                                    X.@.| { { / S z z z g i y 0 t               C n n j z C j 8 6 3 ,                                                                                                                                                                                                                           ",
"                                                                                                                                                                                                                                  X.o.| { { ( S z z h y q 0 0 9               N n n j j B N 8 3 3 > >                                                                                                                                                                                                                           ",
"                                                                                                                                                                                                                                | @.| { { ^ S z g h y y 0 9 7                 d j j g j V g 0 9 7 7                                                                                                                                                                                                                             ",
"                                                                                                                                                                                                                              { o..._ | _ H h f f f q q 0 5                 v f f u u x z q 0 5 8 6                                                                                                                                                                                                                             ",
"                                                                                                                                                                                                                            ..X.{ _ | / V j h f f q 9 4                     v k s 5 f b 0 2 ; > ;                                                                                                                                                                                                                               ",
"                                                                                                                                                                                                                          ' { ` Q / Q x g f g f q 0 9                     b j s q i j f 3 > ; >                                                                                                                                                                                                                                 ",
"                                                                                                                                                                                                                        ~ ' ) ^ E J h f f f y q 9 4                       j g i r f f 8 4 4 3 >                                                                                                                                                                                                                                 ",
"                                                                                                                                                                                                                      I ( ^ ^ E H f y f y y 0 9 3                         j s i i f r 2 2 2 :                                                                                                                                                                                                                                   ",
"                                                                                                                                                                                                                      ! T U L Z g 5 9 1 4 9 9 7                         v j q r f i 9 3 3 2                                                                                                                                                                                                                                     ",
"                                                                                                                                                                                                                    I ! I K C f 5 1 1 3 1 4 3                           r r 8 0 q 5 ; ; ; :                                                                                                                                                                                                                                     ",
"                                                                                                                                                                                                                  v K U U K j 4 1 1 ; 1 2                             w 8 8 5 r r > $ $ *                                                                                                                                                                                                                                       ",
"                                                                                                                                                                                                                  < r m A g 7 2 2 2 1 1                               : : : 7 0 2 % $ *                                                                                                                                                                                                                                         ",
"                                                                                                                                                                                                                  : : e 7 2 1 2 1 1 ;                                 X @ : 6 2 & # * *                                                                                                                                                                                                                                         ",
"                                                                                                                                                                                                                    % % # & = ; ; *                                     X @ * * + % #                                                                                                                                                                                                                                           ",
"                                                                                                                                                                                                                      X o + & = :                                           X X X O                                                                                                                                                                                                                                             ",
"                                                                                                                                                                                                                        o o +                                                                                                                                                                                                                                                                                                   ",
"                                                                                                                                                                                                                                                                                                                                                                                                                                                                                                                                ",
"                                                                                                                                                                                                                                                                                                                                                                                                                                                                                                                                ",
"                                                                                                                                                                                                                                                                                                                                                                                                                                                                                                                                "
};
