/* XPM */
static char *out[] = {
/* columns rows colors chars-per-pixel */
"256 256 153 2 ",
"   c None",
".  c #160E09",
"X  c #1A130D",
"o  c #1E1613",
"O  c #1F1B19",
"+  c #261B15",
"@  c #2A1E16",
"#  c #251D18",
"$  c #2A1F19",
"%  c #2F2016",
"&  c #2E221A",
"*  c #302117",
"=  c #33241B",
"-  c #38271B",
";  c #36281E",
":  c #3A2A1E",
">  c #332620",
",  c #372922",
"<  c #3D2D22",
"1  c #3F3025",
"2  c #3E3028",
"3  c #402D1F",
"4  c #412F22",
"5  c #443224",
"6  c #4A3526",
"7  c #4F3927",
"8  c #44342B",
"9  c #4A3729",
"0  c #4D392B",
"q  c #513926",
"w  c #533D2C",
"e  c #4E3C31",
"r  c #523E32",
"t  c #56402F",
"y  c #59412F",
"u  c #564133",
"i  c #5B4433",
"p  c #5F4837",
"a  c #544238",
"s  c #5B4639",
"d  c #5B493B",
"f  c #624A36",
"g  c #644C3B",
"h  c #694F3A",
"j  c #6C523D",
"k  c #71553E",
"l  c #5E4B41",
"z  c #644F41",
"x  c #644F48",
"c  c #655144",
"v  c #6D5443",
"b  c #6F5845",
"n  c #6A5549",
"m  c #6F594A",
"M  c #715642",
"N  c #745944",
"B  c #795D46",
"V  c #745C4A",
"C  c #795E49",
"Z  c #765F51",
"A  c #795F50",
"S  c #7D6047",
"D  c #7D614C",
"F  c #766051",
"G  c #7B6352",
"H  c #7B6758",
"J  c #82654D",
"K  c #86684F",
"L  c #896A4F",
"P  c #826651",
"I  c #866953",
"U  c #8B6D54",
"Y  c #846B5B",
"T  c #8A6E58",
"R  c #906F53",
"E  c #8D7056",
"W  c #87705F",
"Q  c #8E715A",
"!  c #917155",
"~  c #93755C",
"^  c #98775B",
"/  c #96785E",
"(  c #9A7A5E",
")  c #8E7462",
"_  c #937761",
"`  c #967962",
"'  c #9B7D63",
"]  c #967C6A",
"[  c #9B7E69",
"{  c #A07F63",
"}  c #9F8066",
"|  c #978169",
" . c #9E816A",
".. c #9B8373",
"X. c #998478",
"o. c #A28266",
"O. c #A4856A",
"+. c #A8876A",
"@. c #A6886D",
"#. c #AA8A6D",
"$. c #A38672",
"%. c #A58A72",
"&. c #AC8D72",
"*. c #A58C7B",
"=. c #AB8E79",
"-. c #B08F72",
";. c #AF9076",
":. c #AE917A",
">. c #B39275",
",. c #B4957A",
"<. c #B89779",
"1. c #B6987E",
"2. c #BA9A7D",
"3. c #928680",
"4. c #AE9380",
"5. c #B39681",
"6. c #B69981",
"7. c #BC9D82",
"8. c #BA9F8B",
"9. c #BEA186",
"0. c #BEA38A",
"q. c #B7A396",
"w. c #C09F81",
"e. c #C2A285",
"r. c #C3A589",
"t. c #C8A788",
"y. c #C6A98D",
"u. c #CAAB8C",
"i. c #CFB08F",
"p. c #C1A792",
"a. c #C6AB92",
"s. c #CBAE91",
"d. c #C6AE9A",
"f. c #CEB193",
"g. c #CCB39B",
"h. c #D1B394",
"j. c #D5B897",
"k. c #D3B699",
"l. c #D5B99B",
"z. c #D9BD9C",
"x. c #D5BCA1",
"c. c #D9BEA1",
"v. c #DBC09F",
"b. c #D7C0A5",
"n. c #DCC3A3",
"m. c #DDC5A8",
"M. c #DFC8AA",
"N. c #DBCBB7",
"B. c #E3CDAC",
"V. c #E4D1B4",
"C. c #E6D5BB",
"Z. c #E6D8BF",
"A. c #E7D9C1",
/* pixels */
"                                                                                                                                                                                                                                                                                                                                                                                                                                                                                                                                ",
"                                                                                                                                                                                                                                                                                                                                                                                                                                                                                                                                ",
"                                                                                                                                                                                                                                                                                                                                                                                                                                                                                                                                ",
"                                                                                                                                                                                                                                                                                                                                                                                                                                                                                                                                ",
"                                                                                                                                                                                                                                                                                                                                                                                                                                                                                                                                ",
"                                                                                                                                                                                                                                                                                                                                                                                                                                                                                                                                ",
"                                                                                                                                                                                                                                                                                                                                                                                                                                                                                                                                ",
"                                                                                                                                                                                                                                                                                                                                                                                                                                                                                                                                ",
"                                                                                                                                                                                                                                                                                                                                                                                                                                                                                                                                ",
"                                                                                                                                                                                                                                                                                                                                                                                                                                                                                                                                ",
"                                                                                                                                                                                                                                                                                                                                                                                                                                                                                                                                ",
"                                                                                                                                                                                                                                                                                                                                                                                                                                                                                                                                ",
"                                                                                                                                                                                                                                                                                                                                                                                                                                                                                                                                ",
"                                                                                                                                                                                                                                                                                                                                                                                                                                                                                                                                ",
"                                                                                                                                                                                                                                                                                                                                                                                                                                                                                                                                ",
"                                                                                                                                                                                                                                                                                                                                                                                                                                                                                                                                ",
"                                                                                                                                                                                                                                                                                                                                                                                                                                                                                                                                ",
"                                                                                                                                                                                                                                                                                                                                                                                                                                                                                                                                ",
"                                                                                                                                                                                                                                                                                                                                                                                                                                                                                                                                ",
"                                                                                                                                                                                                                                                                                                                                                                                                                                                                                                                                ",
"                                                                                                                                                                                                                N.Z.Z.A.Z.Z.Z.Z.Z.Z.Z.Z.A.Z.Z.Z.V.Z.V.V.V.V.v.v.M.m.b.b.v.g.l.g.                                                                                                                                                                                                                                                ",
"                                                                                                                                                                                                                b.B.B.B.B.B.B.B.B.B.B.B.V.B.B.B.B.B.B.B.B.v.v.v.v.j.f.i.t.y.y.y.                                                                                                                                                                                                                                                ",
"                                                                                                                                                                                                                v.v.n.n.n.n.v.v.n.n.n.n.n.v.v.v.v.v.v.v.v.v.v.v.j.u.y.y.y.y.y.0.                                                                                                                                                                                                                                                ",
"                                                                                                                                                                                                                v.v.v.v.n.n.v.v.v.v.v.v.v.v.v.v.v.v.v.v.v.v.v.v.h.h.f.i.i.i.i.i.                                                                                                                                                                                                                                                ",
"                                                                                                                                                                                                                n.v.v.v.v.v.v.v.v.v.v.v.v.v.v.v.v.v.i.v.i.v.v.v.h.f.h.h.h.h.h.i.                                                                                                                                                                                                                                                ",
"                                                                                                                                                                                                                b.v.v.v.v.v.v.u.v.v.v.i.v.v.u.v.i.v.u.v.v.v.u.u.i.h.j.h.i.h.i.u.                                                                                                                                                                                                                                                ",
"                                                                                                                                                                                                                g.v.v.v.v.v.u.v.i.i.u.i.i.i.2.v.i.v.v.i.i.v.v.i.h.h.i.h.s.s.i.t.                                                                                                                                                                                                                                                ",
"                                                                                                                                                                                                                f.f.v.y.2.v.u.u.i.u.i.u.v.2.v.v.v.t.v.i.v.i.i.i.i.u.t.t.u.u.u.t.                                                                                                                                                                                                                                                ",
"                                                                                                                                                                                                                0.v.v.0.i.u.u.u.u.u.v.t.u.u.i.u.2.u.u.u.i.u.i.i.t.t.u.t.t.u.u.t.                                                                                                                                                                                                                                                ",
"                                                                                                                                                                                                                0.f.i.u.u.0.t.u.t.t.u.u.t.u.i.u.u.t.i.t.u.u.t.t.u.t.t.u.u.s.f.s.                                                                                                                                                                                                                                                ",
"                                                                                                                                                                                                                g.0.f.u.t.0.u.u.t.u.t.2.t.t.u.t.u.u.t.u.u.i.i.u.i.s.u.u.s.i.s.s.                                                                                                                                                                                                                                                ",
"                                                                                                                                                                                                                0.v.0.u.2.2.2.u.t.2.t.u.t.t.u.u.t.u.u.u.i.t.i.i.h.i.u.u.u.s.i.s.                                                                                                                                                                                                                                                ",
"                                                                                                                                                                                                                e.i.i.e.e.e.w.e.t.e.w.t.t.t.t.t.t.t.t.i.t.t.t.i.i.i.i.s.t.u.s.s.                                                                                                                                                                                                                                                ",
"                                                                                                                                                                                                                e.i.e.t.e.2.w.w.w.w.t.t.t.t.t.t.t.t.t.t.t.i.t.t.u.i.i.s.u.u.u.s.                                                                                                                                                                                                                                                ",
"                                                                                                                                                                                                                9.e.e.w.e.2.w.w.2.w.2.t.2.t.t.t.t.t.t.t.i.t.i.i.t.u.u.u.u.u.s.s.                                                                                                                                                                                                                                                ",
"                                                                                                                                                                                                                9.e.w.2.2.w.w.w.2.<.2.2.2.2.2.t.t.t.t.t.i.t.t.t.t.u.u.u.u.u.i.s.                                                                                                                                                                                                                                                ",
"                                                                                                                                                                                                                1.2.2.2.>.>.<.<.<.<.<.<.<.2.w.w.2.w.t.t.t.t.t.t.t.u.i.t.i.u.u.u.                                                                                                                                                                                                                                                ",
"                                                                                                                                                                                                                ;.;.>.1.>.>.-.>.>.>.>.<.<.<.<.2.2.w.2.<.w.t.t.t.i.w.w.t.u.u.s.t.                                                                                                                                                                                                                                                ",
"                                                                                                                                                                                                                @.#.#.;.>.#.#.#.-.>.>.>.>.>.>.<.<.2.w.2.w.w.w.t.w.t.t.t.t.t.u.t.                                                                                                                                                                                                                                                ",
"                                                                                                                                                                                                                @.#.#.#.-.#.-.-.-.>.>.>.+.-.-.-.>.<.2.2.w.w.w.t.w.t.w.t.t.t.t.w.                                                                                                                                                                                                                                                ",
"                                                                                                                                                                                                                #.#.#.#.#.#.#.-.>.>.>.>.>.#.-.#.-.-.>.<.<.w.<.w.w.w.e.w.w.t.e.e.                                                                                                                                                                                                                                                ",
"                                                                                                                                                                                                                o.o.#.#.+.+.#.-.>.>.<.-.>.#.-.-.-.-.>.<.<.<.<.w.e.2.2.w.w.w.w.e.                                                                                                                                                                                                                                                ",
"                                                                                                                                                                                                                o.o.+.+.#.o.+.#.#.>.-.-.#.>.>.>.-.>.-.>.<.<.<.<.w.2.2.w.w.w.w.w.                                                                                                                                                                                                                                                ",
"                                                                                                                                                                                                                | o.o.o.+.+.+.o.#.-.#.#.-.#.>.#.-.-.-.>.<.>.<.<.<.<.2.2.w.w.w.w.                                                                                                                                                                                                                                                ",
"                                                                                                                                                                                                                | ^ o.o.o.+.o.{ +.-.#.#.#.#.>.#.-.-.-.-.<.<.<.<.<.-.<.<.2.w.e.2.                                                                                                                                                                                                                                                ",
"                                                                                                                                                                                                                | | ^ ^ ^ { o.+.+.-.>.>.#.#.#.#.#.#.-.-.>.>.<.<.<.-.>.>.<.w.w.2.                                                                                                                                                                                                                                                ",
"                                                                                                                                                                                                                ! ^ ^ R R ^ { o.o.#.#.#.#.#.#.#.#.-.#.-.-.>.<.<.<.<.>.>.>.<.,.<.                                                                                                                                                                                                                                                ",
"                                                                                                                                                                                                                K L R R R R R R ^ o.+.+.#.#.#.#.#.#.-.-.>.>.-.<.<.>.>.-.>.-.-.,.                                                                                                                                                                                                                                                ",
"                                                                                                                                                                                                                | | K L L L | L U ^ o.o.#.o.+.+.+.#.-.-.-.-.<.<.>.-.-.-.-.-.-.-.                                                                                                                                                                                                                                                ",
"                                                                                                                                                                                                                S | | E L L L L R ~ ( o.#.o.+.+.#.#.#.-.-.>.>.<.>.+.#.-.@.+.@.%.                                                                                                                                                                                                                                                ",
"                                                                                                                                                                                                                b S L K S | L L ! ! ^ { o.+.#.+.#.#.#.-.-.-.>.,.>.#.+.#.#.O.@.%.                                                                                                                                                                                                                                                ",
"                                                                                                                                                                                                                d i f h y h h k j M N V S C C S S J J J U T Q ` ^ L I U T T T T                                                                                                                                                                                                                                                 ",
"                                                                                                                                                                                                                                      $ @ + @ & * = > > 8                                                                                                                                                                                                                                                                       ",
"                                                                                                                                                                                                                                      # = ; ; : < 5 9 0 l                                                                                                                                                                                                                                                                       ",
"                                                                                                                                                                                                                                      , 0 r u i i d h c A                                                                                                                                                                                                                                                                       ",
"                                                                                                                                                                                                                                      , i h j v M M V G )                                                                                                                                                                                                                                                                       ",
"                                                                                                                                                                                                                                      8 g N C D P G C T $.                                                                                                                                                                                                                                                                      ",
"                                                                                                                                                                                                                                      a N J T T T I P ` :.                                                                                                                                                                                                                                                                      ",
"                                                                                                                                                                                                                                      c P ~ Q Q ~ _ ` %.6.                                                                                                                                                                                                                                                                      ",
"                                                                                                                                                                                                                                      V Q [ ` ` '  .O.,.8.                                                                                                                                                                                                                                                                      ",
"                                                                                                                                                                                                                                      G `  .} } O.@.=.1.0.                                                                                                                                                                                                                                                                      ",
"                                                                                                                                                                                                                                      E O.} } } ' @.;.2.0.                                                                                                                                                                                                                                                                      ",
"                                                                                                                                                                                                                                      I @.} O.} ' } &.2.0.                                                                                                                                                                                                                                                                      ",
"                                                                                                                                                                                                                                      F ' ' } O.} } +.7.0.                                                                                                                                                                                                                                                                      ",
"                                                                                                                                                                                                                                      n T ` { %.{ { { &.7.                                                                                                                                                                                                                                                                      ",
"                                                                                                                                                                                                                8.r.y.a.y.p.a.p.g.g.d.4.$.%.=.,.=.=.$.$.:.                                                                                                                                                                                                                                                                      ",
"                                                                                                                                                                                                                =.#.&.-.>.<.<.y.x.x.c.m.x.x.g.s.s.s.t.e.r.0.0.8.6.4.4.                                                                                                                                                                                                                                                          ",
"                                                                                                                                                                                                                ;.&.#.-.-.-.<.s.l.x.c.m.m.m.c.x.x.f.r.t.r.t.r.t.y.y.w.8.7.7.7.=.                                                                                                                                                                                                                                                ",
"                                                                                                                                                                                                                :.-.-.-.-.>.w.s.h.g.h.f.f.k.j.k.h.w.8.w.w.w.e.e.w.r.8.7.6.7.7.5.                                                                                                                                                                                                                                                ",
"                                                                                                                                                                                                                5.-.-.-.<.2.t.h.h.h.h.s.s.s.f.f.t.7.2.1.w.w.e.e.e.w.7.7.2.7.7.5.                                                                                                                                                                                                                                                ",
"                                                                                                                                                                                                                2.<.<.<.<.w.k.c.k.k.k.k.f.s.u.u.7.1.,.>.,.2.w.w.w.8.7.7.6.7.7.5.                                                                                                                                                                                                                                                ",
"                                                                                                                                                                                                              *.7.2.w.<.<.t.j.z.x.x.k.g.h.h.f.r.2.,.,.<.;.,.7.w.w.w.7.7.7.6.1.1.                                                                                                                                                                                                                                                ",
"                                                                                                                                                                                                              *.<.<.<.<.2.s.h.k.k.k.k.h.h.h.f.w.7.<.>.<.,.2.w.w.w.w.w.8.8.6.w.5.                                                                                                                                                                                                                                                ",
"                                                                                                                                                                                                              *.>.>.>.>.e.k.j.k.h.h.h.s.s.s.u.w.6.<.1.>.,.w.e.e.w.w.w.w.7.6.7.                                                                                                                                                                                                                                                  ",
"                                                                                                                                                                                                              *.>.>.-.>.u.h.k.z.l.j.h.h.k.h.w.6.<.<.-.<.2.w.w.w.w.w.w.w.6.,.>.                                                                                                                                                                                                                                                  ",
"                                                                                                                                                                                                              4.<.-.#.2.l.h.k.j.l.l.l.k.k.k.w.7.1.<.-.-.2.w.w.7.w.p.w.8.7.,.,.                                                                                                                                                                                                                                                  ",
"                                                                                                                                                                                                              =.>.-.+.t.j.j.j.k.k.h.k.k.i.i.w.w.2.<.>.>.<.w.2.7.8.w.w.7.7.7.4.                                                                                                                                                                                                                                                  ",
"                                                                                                                                                                                                              %.#.+.#.t.s.h.f.f.i.i.h.s.s.w.w.w.2.>.>.<.<.<.2.2.w.w.w.8.w.w.6.                                                                                                                                                                                                                                                  ",
"                                                                                                                                                                                                              &.-.#.w.i.s.u.u.i.h.i.s.h.u.w.w.w.<.<.<.<.<.<.<.2.7.7.w.w.e.e.7.                                                                                                                                                                                                                                                  ",
"                                                                                                                                                                                                              +.+.-.h.z.z.h.i.u.u.u.t.t.w.w.w.w.2.<.<.<.<.,.,.<.2.2.7.w.7.8.7.                                                                                                                                                                                                                                                  ",
"                                                                                                                                                                                                              #.@.2.j.v.l.j.h.u.u.t.t.t.w.w.w.2.2.2.<.>.>.<.,.,.2.2.2.7.7.7.7.                                                                                                                                                                                                                                                  ",
"                                                                                                                                                                                                              &.&.y.f.h.h.s.u.h.i.i.t.t.2.2.w.2.<.<.>.,.,.>.,.,.,.7.7.w.7.7.7.                                                                                                                                                                                                                                                  ",
"                                                                                                                                                                                                              &.2.h.i.i.i.u.u.u.i.u.t.2.w.2.w.<.<.>.>.<.,.,.>.>.>.7.w.2.2.7.7.                                                                                                                                                                                                                                                  ",
"                                                                                                                                                                                                              >.t.h.h.h.j.j.j.u.i.2.w.w.2.w.2.<.<.>.<.<.<.,.,.,.-.<.7.2.7.7.,.                                                                                                                                                                                                                                                  ",
"                                                                                                                                                                                                              1.j.f.f.f.u.f.j.h.i.2.2.2.2.2.<.<.>.>.2.2.,.<.<.>.-.<.<.2.2.7.,.                                                                                                                                                                                                                                                  ",
"                                                                                                                                                                                                            ..0.j.j.f.i.r.r.u.t.2.2.2.2.2.2.2.<.>.>.2.2.,.>.>.>.,.-.,.1.1.2.6.                                                                                                                                                                                                                                                  ",
"                                                                                                                                                                                                            *.s.f.h.f.i.u.i.r.2.2.2.2.t.w.2.<.<.>.<.<.<.,.<.<.,.,.-.,.<.<.<.                                                                                                                                                                                                                                                    ",
"                                                                                                                                                                                                            0.f.j.f.f.h.h.i.i.t.2.2.2.2.2.<.>.<.>.>.>.2.2.,.,.<.<.,.2.2.2.1.                                                                                                                                                                                                                                                    ",
"                                                                                                                                                                                                            s.v.i.i.j.i.i.t.i.i.t.2.<.<.<.<.<.>.>.<.<.<.2.<.,.2.2.,.2.<.,.7.                                                                                                                                                                                                                                                    ",
"                                                                                                                                                                                                            i.v.i.j.j.i.i.i.i.e.2.2.<.<.<.<.>.>.<.<.,.,.,.2.2.<.<.,.2.<.,.7.                                                                                                                                                                                                                                                    ",
"                                                                                                                                                                                                          v.v.i.v.i.j.i.i.i.i.t.2.<.>.<.<.<.>.-.<.,.>.>.,.>.<.<.,.>.<.,.,.2.                                                                                                                                                                                                                                                    ",
"                                                                                                                                                                                                          v.0.v.v.i.i.i.i.i.i.t.2.<.>.<.<.>.-.>.,.,.>.>.>.>.>.>.>.,.,.,.,.<.                                                                                                                                                                                                                                                    ",
"                                                                                                                                                                                                        a.j.i.i.i.i.i.i.i.e.e.2.<.<.>.>.>.-.-.>.<.<.>.>.>.,.>.>.-.,.>.,.,.,.                                                                                                                                                                                                                                                    ",
"                                                                                                                                                                                                        j.f.j.i.i.i.s.i.t.e.<.>.-.>.#.#.-.-.>.>.>.,.>.<.>.>.>.>.>.-.>.>.,.1.                                                                                                                                                                                                                                                    ",
"                                                                                                                                                                                                        g.i.i.v.i.y.i.y.e.2.>.#.#.#.+.+.#.#.>.>.<.,.,.>.>.,.,.-.;.-.-.,.>.,.                                                                                                                                                                                                                                                    ",
"                                                                                                                                                                                                      a.f.f.a.a.i.i.i.y.w.>.#.#.o.+.+.#.#.-.>.>.>.,.<.<.,.2.1.-.-.-.,.-.,.1.                                                                                                                                                                                                                                                    ",
"                                                                                                                                                                                                      f.s.u.r.y.u.r.e.e.2.&.#.#.+.+.o.o.+.-.>.>.>.>.>.1.>.,.>.>.>.;.;.;.>.:.                                                                                                                                                                                                                                                    ",
"                                                                                                                                                                                                    0.u.u.u.u.u.r.e.<.2.,.#.+.+.+.o.o.o.#.#.;.>.>.>.>.,.,.>.>.>.-.-.;.-.>.5.                                                                                                                                                                                                                                                    ",
"                                                                                                                                                                                                    r.r.r.u.f.r.e.,.#.%.#.#.O.o.o.o.} O.#.&.-.;.>.>.>.>.>.>.>.>.-.-.-.-.-.;.                                                                                                                                                                                                                                                    ",
"                                                                                                                                                                                                    9.7.1.7.r.r.2.>.@.o.' +.o.o.} ( ( @.-.&.&.>.>.>.>.>.>.>.>.-.&.&.;.,.,.,.                                                                                                                                                                                                                                                    ",
"                                                                                                                                                                                                  7.7.1.>.O.O.>.-.@.O.[ o.o.o.' ( ( o.@.#.;.>.;.;.>.-.>.-.-.>.;.-.&.-.>.,.,.                                                                                                                                                                                                                                                    ",
"                                                                                                                                                                                                  2.,.&.%.@.@.O.{ ' O.O.{ ' { ( ( ( o.#.+.#.&.;.&.&.#.-.;.-.;.>.-.&.&.>.,.,.                                                                                                                                                                                                                                                    ",
"                                                                                                                                                                                                *.,.,.$./ ` O.O.O.%.O.' ' ( ^ ( ^ } +.@.@.#.#.@.@.@.@.#.#.;.-.>.1.>.=.-.>.,.                                                                                                                                                                                                                                                    ",
"                                                                                                                                                                                                g.l.x.a.5.%. . .[ %.} o.{ ( ~ ! ~  .@.#.@.%.%.O.@.+.} &.&.#.&.-.-.,.>.-.-.,.                                                                                                                                                                                                                                                    ",
"                                                                                                                                                                                                t.t.s.u.a.s.a.r.7.=.~ ~ ' ' ~ U ~ O.O.O.@.+.@.+.+.+.+.@.#.#.&.-.-.,.>.&.&.>.                                                                                                                                                                                                                                                    ",
"                                                                                                                                                                                                w.7.w.2.>.;.-.;.=.=.$.T U ! ~ R ` o.O.O.O. .O.O.O.O.+.@.+.$.#.&.@.#.-.&.&.&.                                                                                                                                                                                                                                                    ",
"                                                                                                                                                                                                7.7.1.2.6.-.6.e.2.O.O.O.Y D U R / ' O.O.O.O.O.o.{ { { { { @.+.{ o.O.@.#.#.&.                                                                                                                                                                                                                                                    ",
"                                                                                                                                                                                                7.7.2.7.2.6.e.t.,.' ' O.O.) P ! ` / ` '  .O.} O.{ [ ` ' { O.$.#.{ ' { O.#.%.                                                                                                                                                                                                                                                    ",
"                                                                                                                                                                                                7.7.2.7.w.e.w.w.1.{ { o.{ { ` _ ( ` / ' ' [ O.{ { ' ' ' ' { { [ O.O.{ O.O.=.=.                                                                                                                                                                                                                                                  ",
"                                                                                                                                                                                              ,.,.,.2.2.7.2.<.7.<.@.@.O.O.' / ~ / ` ( ` ' ' ' ' [ ' ` ' ' ' { { { { { O.@.&.,.5.                                                                                                                                                                                                                                                ",
"                                                                                                                                                                                              :.&.&.,.,.<.,.<.1.>.&.@.O.O.O.! Q / ` ' ' { [ ' ' { ` ` ` ' [ [ { [ { O.O.O.@.;.,.                                                                                                                                                                                                                                                ",
"                                                                                                                                                                                              %.@.O.%.-.-.-.<.1.-.#.+.O.O.{ ! T ! T ` [ ' { { ' ' ' ` ' ' ` { { ' ' ' [ O.+.-.6.7.                                                                                                                                                                                                                                              ",
"                                                                                                                                                                                              ;.%.#.=.>.>.-.#.>.#.@.+.O.+.} T U E E Q / | | } } { { ] ' ' ' { { ' { ' { O.O.-.5.7.6.                                                                                                                                                                                                                                            ",
"                                                                                                                                                                                              0.7.2.,.;.>.#.#.;.#.+.O.+.O.! U U U E E Q E ^ ^ ^ [ { { [ ' ` ` { ` ` ' ' ' o.=.1.6.7.7.                                                                                                                                                                                                                                          ",
"                                                                                                                                                                                              0.y.r.,.#.#.#.#.#.+.+.o.+.o.E L U H L U E Q ~ ~ / ^ ' ' ' ' _ ` ` ` ` ` ` ' { @.1.7.7.7.5.                                                                                                                                                                                                                                        ",
"                                                                                                                                                                                              :.6.9.2.#.o.+.#.#.#.+.+.+.} K L U L I G L E Q ~ Q ~ _ ' { ` ` ` ~ / ^ / ` { [ $.,.6.6.7.7.6.                                                                                                                                                                                                                                      ",
"                                                                                                                                                                                              :.;.:.1.#.+.+.-.#.#.#.#.+.~ D I T E T I J J I E E ~ _ _ _ _ ~ _ ! ~ ` / ~ ` ` O.,.1.6.6.8.7.,.                                                                                                                                                                                                                                    ",
"                                                                                                                                                                                              %.%.%.&.&.#.+.-.-.>.>.-.+.K S D I I T E E E K K I T ! ^ _ _ ~ _ Q T ! ~ ! ~ / ` ,.,.,.1.2.7.6.,.                                                                                                                                                                                                                                  ",
"                                                                                                                                                                                              ;.%.&.+.#.#.#.>.>.,.-.#.} D D S D J J I I E E E I U U Q _ _ ^ _ ! T ~ Q T ~ ~ ` &.,.:.1.6.9.7.6.:.                                                                                                                                                                                                                                ",
"                                                                                                                                                                                            ..%.%.%.#.#.#.#.<.2.<.-.#.E S D D D J D D D I T E Q U Q ! Q ~ ! Q Q Q T ~ ! Q Q ~ $.;.,.:.,.1.5.1.5.                                                                                                                                                                                                                                ",
"                                                                                                                                                                                            %.%.@.%.;.@.o.&.>.<.<.>.#.D b S S S D D D D J K I I T U T ! ~ _ Q Q ! T T Q T T Q _ O.;.:.:.,.5.,.,.5.                                                                                                                                                                                                                              ",
"                                                                                                                                                                                            $.$. .@.#.@.o.#.>.>.2.<.O.B j b b S S S N N N C J K U T U T E ! ! Q T T ! T ! T T T D  .;.,.,.5.,.:.,.5.                                                                                                                                                                                                                            ",
"                                                                                                                                                                                             .) E | &.#.+.&.>.>.,.1.| k k S N b N N N N M k N J J K I T U T Q Q T I T I T T E T b I O.;.:.6.6.:.,.,.,.                                                                                                                                                                                                                          ",
"                                                                                                                                                                                            E E Q  .;.;.@.>.>.>.,.;.U k k S S k k N k N N k k N C J P P I I E E ! T U T I T T A u V T  .&.,.6.6.,.:.,.,.                                                                                                                                                                                                                        ",
"                                                                                                                                                                                            `  . .@.;.;.&.>.>.,.,.@.S b j b S b N k M N N N v M N B C J J J K I T T T I K J I V = 8 N I ( O.;.1.:.,.5.5.,.                                                                                                                                                                                                                      ",
"                                                                                                                                                                                             .O.@.&.&.@.-.,.>.>.&.| k k k k b S N k j j k M C P J J C C B C J P K I P J J C J V , $ < v J [ %.,.5.,.,.,.7.6.                                                                                                                                                                                                                    ",
"                                                                                                                                                                                             . .@.@. .} #.>.>.,.&.S f j b b k b N b j j j g J  .[ [ _ N k M N N N N N v v v v z   & $ - g G ` =.,.,.:.5.1.7.7.                                                                                                                                                                                                                  ",
"                                                                                                                                                                                            } O.%.| / / @.>.>.,.@.j p i f j j h j v f p f y C O.%.&.#.T M N V V e r J [ #.;.>.%.    = $ & i C _ =.,.,.5.8.7.7.                                                                                                                                                                                                                  ",
"                                                                                                                                                                                            ] @.+.} ! o.@.;.,.>.Q 9 5 < < 5 5 < = = = 4 w w C %.&.=.=.&.%.&.&.%.z f ] <.w.w.e.y.0.      & & w V Q :.1.1.6.9.0.e.                                                                                                                                                                                                                ",
"                                                                                                                                                                                            [ @. .! } o.&.;.,.;.I               . + - 9 w w N #.:.:.&.=.;.;.-.=.n r _ ;.7.7.e.e.y.t.y.    & & 9 N Q ;.,.1.9.0.r.r.                                                                                                                                                                                                              ",
"                                                                                                                                                                                            %.%.} | } o.-.-.,.;.                . + - q y f N %.5.>.;.;.:.<.,.5.A f T &.7.7.w.r.r.t.a.y.    & & 5 v W ;.1.6.2.9.9.9.                                                                                                                                                                                                            ",
"                                                                                                                                                                                          $.&.%.} o.} #.&.,.;.%.                X + - 6 i M J %.6.<.<.1.1.5.7.7.Y n _ =.7.7.7.8.0.y.s.i.f.y.    & < g T ;.1.1.9.9.9.9.                                                                                                                                                                                                          ",
"                                                                                                                                                                                           . .%.O.o.} #.;.,.;.                  o + * 9 w j J -.w.w.5.w.7.7.7.e.] A ' %.1.7.7.7.0.y.y.a.u.f.a.9.  & = d I  .,.:.1.6.1.8.                                                                                                                                                                                                        ",
"                                                                                                                                                                                          _ ] O.o.+.+.-.;.>.;.                  @ % = 9 w f C $.5.6.w.w.e.e.8.w.$.Y ` %.=.1.7.7.0.0.y.y.a.a.f.u.y.] , & u D Q  .&.;.;.1.                                                                                                                                                                                                        ",
"                                                                                                                                                                                          ) _ [ } } #.-.;.;.%.                  > 2 , 0 w h N %.8.8.w.w.e.e.e.w.O.V I ' O.,.7.8.9.9.0.y.y.y.s.s.y.y.6.c & 8 m G [ O.} [                                                                                                                                                                                                         ",
"                                                                                                                                                                                          Q T Q | } +.#.@.%.                    8 8 4 0 w g J { 6.w.w.p.y.e.8.e.O.v V P _ { =.,.1.9.r.0.y.y.a.y.f.y.u.y.| 8 2 g D Q )                                                                                                                                                                                                           ",
"                                                                                                                                                                                          G M g k K } o.} |                     r a 8 r g h C O.7.7.7.y.a.e.8.e.$.i i V T T { %.;.6.w.w.r.p.y.a.y.a.i.y.i.6.V 5 e z                                                                                                                                                                                                             ",
"                                                                                                                                                                                          v f p t k ^ ^ ^ E                     l l a s g g M O.8.7.7.e.a.e.w.8.O.4 < 4 g C T ] $.&.6.8.e.r.r.r.y.y.a.f.u.u.0. .d                                                                                                                                                                                                               ",
"                                                                                                                                                                                          M C S B D | ^ / Q                     x x l z g g C O.w.w.r.e.e.0.8.w.%.4 = = : 7 v I _ { #.6.7.e.r.r.y.y.a.a.f.y.r.t.0.                                                                                                                                                                                                              ",
"                                                                                                                                                                                          V C I L E | ^ ~                         n n x g h D ' 2.7.8.e.e.w.e.w.=.9 = = = = 4 w V _ ' #.1.8.w.w.0.0.y.a.f.f.y.y.r.r.r.                                                                                                                                                                                                          ",
"                                                                                                                                                                                          M C P I ~ ( ^ E                         Z Z n g f N ` 2.7.7.7.e.e.7.7.=.e * = = ; : : 5 g P ` O.,.7.7.9.9.0.r.a.s.f.y.r.r.y.y.0.                                                                                                                                                                                                      ",
"                                                                                                                                                                                          z M J U / ` ~ I                         Z G n s g N ^ 2.w.w.7.7.7.7.7.,.r $ = = = = ; , 4 q M Q ' -.6.2.9.9.9.r.y.a.f.u.u.y.r.u.y.                                                                                                                                                                                                    ",
"                                                                                                                                                                                          g h M I ` / Q                           F Z d g h N ^ <.7.7.w.e.7.7.7.1.d $ = $ = * = = - 4 6 f C ' &.2.2.2.9.9.0.r.s.s.f.s.y.y.u.s.y.                                                                                                                                                                                                ",
"                                                                                                                                                                                          8 8 p D ^ Q U                           H V z z v B ! ,.7.7.7.7.0.7.7.6.  @ $ * $ & = = = > , < 6 h ! O.;.2.9.7.9.0.r.u.y.r.y.y.u.s.s.f.0.                                                                                                                                                                                            ",
"                                                                                                                                                                                          # # = g I U S                           H Z m v v B ! <.7.7.7.7.w.7.7.7.      & & & & & = = = ; < 5 w N ` #.1.7.9.9.9.y.r.r.0.r.y.u.f.h.s.s.                                                                                                                                                                                          ",
"                                                                                                                                                                                          O O + = 9 p                             G V V v v N T -.7.2.7.7.w.e.8.7.          & & & & = = = = : 5 6 f I } ;.7.7.9.7.9.r.9.9.r.r.y.s.s.g.s.a.                                                                                                                                                                                      ",
"                                                                                                                                                                                                  o                               G Z V v M C R -.2.7.w.8.e.w.7.6.            & & & & = = = = , 5 5 7 v ~ @.,.9.7.6.8.8.8.9.0.r.a.y.s.f.f.f.0.                                                                                                                                                                                  ",
"                                                                                                                                                                                                                                  G Z b v M C T -.7.7.7.e.r.r.7.8.                & & & = & = = = : 5 6 i D [ @.,.,.,.6.1.7.0.0.y.t.a.a.f.f.g.a.                                                                                                                                                                                ",
"                                                                                                                                                                                                                                  G Z m N V J I -.2.7.w.w.p.p.7.7.4.                & & = = = = = = ; 5 5 9 j Q O.=.,.1.,.5.6.0.r.p.y.y.a.s.s.i.f.a.                                                                                                                                                                            ",
"                                                                                                                                                                                                                                  A Z V v V C K #.7.<.7.w.w.r.w.7.,.                    & & & & = = = > : 5 5 u V _ $.=.6.,.;.1.r.y.r.a.a.s.s.s.f.f.a.y.                                                                                                                                                                        ",
"                                                                                                                                                                                                                                  G A V N V C K #.2.7.7.w.r.r.p.0.5.                        & = & = = & = ; 1 5 6 g I [ %.,.,.:.5.w.p.t.t.a.y.a.a.f.s.s.a.0.                                                                                                                                                                    ",
"                                                                                                                                                                                                                                  A A V N V J K +.2.2.w.8.r.w.p.7.6.                          & > & = > = = = ; ; < w v )  .=.5.,.5.7.8.e.r.y.a.s.u.f.a.s.s.0.                                                                                                                                                                  ",
"                                                                                                                                                                                                                                  G G V M V C P { 2.2.7.9.0.9.0.0.5.                              & = = = & = = = = , 5 i D ` O.=.5.,.5.5.7.e.y.u.a.s.s.a.a.s.                                                                                                                                                                  ",
"                                                                                                                                                                                                                                  G H V N C J K { 2.2.7.7.9.e.r.9.7.                                  = & = = = = = = = ; 9 c I ` [ %.=.,.7.8.w.r.u.a.a.t.r.a.0.                                                                                                                                                                ",
"                                                                                                                                                                                                                                  G H Z V A J P { 6.2.2.7.0.0.9.e.6.                                    = & = & = = = = = ; 5 t h C Y Q ` [ =.7.8.e.e.e.e.7.8.w.                                                                                                                                                                ",
"                                                                                                                                                                                                                                    G V V C C P { 2.2.7.7.r.r.r.0.9.                                        & = & & & = & & = ; = : 5 r z C A T =.1.>.=.,.,.,.7.5.                                                                                                                                                              ",
"                                                                                                                                                                                                                                    H Z N C A J ' 1.<.7.0.0.e.e.0.0.                                          & & & = & & & & & $ + + @ $ - 4 r ! O.O.O.@.-.-.>.,.                                                                                                                                                              ",
"                                                                                                                                                                                                                                    P Z V J A J ^ 1.<.2.9.e.0.e.e.0.                                              & & & = & $ % + # # + @ @ $ : M / O.%.&.#.&.&.&.:.                                                                                                                                                            ",
"                                                                                                                                                                                                                                    P J A J J J ~ >.7.7.9.9.0.r.r.9.                                                  & & & #       > $ @ + @ @ 7 J ' @.&.@.@.@.%.=.                                                                                                                                                            ",
"                                                                                                                                                                                                                                    W Y A C A J ! <.<.1.7.7.9.0.e.9.                                                                4 > = = : , 4 M K ( { o.{ O.O.@.$.                                                                                                                                                          ",
"                                                                                                                                                                                                                                    ) G F D D J Q >.2.2.6.7.e.r.r.2.                                                                u 2 = : 5 w f h K ! ^ ( { { O.O.[                                                                                                                                                           ",
"                                                                                                                                                                                                                                    H G D G D C I -.2.1.2.7.0.r.9.1.                                                                s e 4 4 w f h N R ^ ` { +.{ O.O.                                                                                                                                                            ",
"                                                                                                                                                                                                                                    H G G G C C U >.2.1.2.7.7.e.9.2.                                                                z s w q y h k J R { { +.#.+.%.'                                                                                                                                                             ",
"                                                                                                                                                                                                                                    G G G G S V K =.7.2.1.6.7.7.7.2.                                                                n z f w i f k K ! ( ' { +.{ O.[                                                                                                                                                             ",
"                                                                                                                                                                                                                                    V V D G G N D &.2.7.1.1.2.1.7.2.=.                                                              m v s i f h B K R ! ^ { { ` /                                                                                                                                                               ",
"                                                                                                                                                                                                                                    m V V V V M V &.2.1.2.1.2.1.2.2.;.                                                            m v v g f f j J K R R ! ` ( ( `                                                                                                                                                               ",
"                                                                                                                                                                                                                                    c n v n M V V @.7.2.1.1.1.<.2.2.=.                                                            m v v h d f h J J L L ^ ' ! ~ ~                                                                                                                                                               ",
"                                                                                                                                                                                                                                    a d z g m M N  .7.2.2.1.1.1.1.1.&.                                                            m n v h h h k J J K R ! ! ! ! ~                                                                                                                                                               ",
"                                                                                                                                                                                                                                    u u a d h z z [ 7.6.1.1.>.,.,.1.&.                                                            V N v k B k k J J L R ! R ! ^                                                                                                                                                                 ",
"                                                                                                                                                                                                                                    e e r a s a i Q 1.7.1.,.>.,.>.>.&.                                                            V m V N k J k J L R R ^ ! ! !                                                                                                                                                                 ",
"                                                                                                                                                                                                                                    2 8 e e e e r I 1.1.,.,.>.>.>.;.&.                                                            V M v M N k J L L R R ! ! ! !                                                                                                                                                                 ",
"                                                                                                                                          3.q.d.g.g.g.g.g.k.                                                                          2 8 8 8 8 8 F ,.,.,.,.>.>.>.#.#.                                                            V v j j j N K L R R R ! _ Q T                                                                                                                                                                 ",
"                                                                                                                                          X.5.0.p.a.f.k.x.x.c.c.c.c.c.c.x.l.l.                                                        2 , , , , < v &.:.;.,.>.>.>.-.+.                                                            C b v j j N L U R R R ^ ` ^                                                                                                                                                                   ",
"                                                                                                                                          e u j G ) O.,.8.y.k.z.n.n.n.n.n.n.n.n.m.m.m.m.m.c.c.x.                                      > $ + # & & e O.;.&.;.;.&.#.#.                                                            A V M V N B B L ! ! ! R ` ^ T                                                                                                                                                                   ",
"                                                                                                                                        < + @ - : 3 6 w M J J ` &.7.a.j.z.n.n.m.n.m.m.M.M.m.N.m.m.n.b.b.l.k.d.a.a.                        O & , & 5 ] &.&.&.&.#.#.O.                                                            V b b V B B J R R R R ! ' / P                                                                                                                                                                   ",
"                                                                                                                                        > + @ $ = * - - 4 q q q y f N P Q  .;.9.y.h.l.c.n.n.m.n.n.b.v.l.l.l.k.k.k.h.h.f.a.f.y.0.0.            5 < 2 I &.&.%.#.#.+.(                                                             V V C N k k J L R L ! ! O.'                                                                                                                                                                     ",
"                                                                                                                                        @ + @ $ - - * * - : 6 q q q q q w y f h k D T ` @.1.0.a.g.j.v.l.l.l.j.h.g.h.h.f.f.f.f.s.u.r.8.6.*.*.X.] Y V E O.#.#.#.o.o.                                                              C V D S b N J L R L R E E E                                                                                                                                                                     ",
"                                                                                                                                        + + @ $ @ * @ @ * - 3 5 6 q 7 q 7 q w y y y i i p p j S D E | %.1.0.a.f.h.h.g.f.f.s.s.s.a.u.r.8.5.,.=.%. .` T / +.o.o.o.(                                                               V Z V N N N L U L R R L I E                                                                                                                                                                     ",
"                                                                                                                                              @ + @ * - - * - - : 3 4 5 6 5 6 6 q w w w y y y i i i i f g b D U | %.1.0.y.f.f.f.s.u.a.e.e.8.6.;.%.[ U I o.} o.(                                                                 G D V V B B U L R E E E / Q                                                                                                                                                                     ",
"                                                                                                                                                    * * * * - = - - - - - : : 3 5 6 7 6 0 t t t y i i i i i f p f f j S U | %.>.8.e.0.e.w.7.7.5.;.%.Q J ' ' ( ~                                                                 C G m V B S U L E ! ~ E /                                                                                                                                                                       ",
"                                                                                                                                                            & ; = = * - = - - - : < 5 5 5 6 7 7 0 t t t y y y p i i i t t t i j D T Q ~ ' O.%.;.5.,.O.T ( ( ( U                                                                 S F b S N D U E E ! ^ ~ ~                                                                                                                                                                       ",
"                                                                                                                                                                    = = * - - = - - - : < 1 5 5 6 6 5 7 7 q t t t y t t y t 6 t g k D D J J I Q ` O.[ ` ^ ^ !                                                                 V F F b N N J L R E E ~ ~ W                                                                                                                                                                       ",
"                                                                                                                                                                            = = - - ; : : 1 5 6 9 6 6 5 6 6 6 6 t t 7 t t t t t p j N D B C S I T ~ ! Q ! ! I                                                                 F F F b b N I E L E E Q /                                                                                                                                                                         ",
"                                                                                                                                                                                    ; = - : < 1 5 6 6 0 6 5 5 5 5 5 5 6 7 7 6 t y h N D J C C S L T T T U K                                                                   F D b b k N K L R E Q Q ~                                                                                                                                                                         ",
"                                                                                                                                                                                            = = ; , < 5 5 5 5 5 5 3 5 5 5 5 5 7 t i g N D S S D K E I K J S                                                                   G F m b j S H L L ~ ^ ~ Q                                                                                                                                                                         ",
"                                                                                                                                                                                                  = = ; ; : 1 5 5 5 3 < 5 < 5 6 0 u p j D S S D J I U S S                                                                     G S b b j S U L L ~ | / Q                                                                                                                                                                         ",
"                                                                                                                                                                                                          = = , ; : < < : : < < 6 t t s j D S D S S J S N                                                                     D F b b h D L L L / ` /                                                                                                                                                                           ",
"                                                                                                                                                                                                                  = ; ; : : : : 1 5 6 t i j b S K S B k j                                                                     D b b b j K L L E / / /                                                                                                                                                                           ",
"                                                                                                                                                                                                                          ; ; , < 5 5 9 u t p b S S B j                                                                       F b j h b K L U E ~ Q Q                                                                                                                                                                           ",
"                                                                                                                                                                                                                                  ; 1 5 9 t i j B S N f                                                                     D V c g p b K L E ~ _ ~                                                                                                                                                                             ",
"                                                                                                                                                                                                                                          6 t t g N j                                                                       F m g p p S K L E Q _ ~                                                                                                                                                                             ",
"                                                                                                                                                                                                                                                  i f                                                                       D v g f h S K L E Q ~ Q                                                                                                                                                                             ",
"                                                                                                                                                                                                                                                                                                                            V n f f j S J I Q ~ Q E                                                                                                                                                                             ",
"                                                                                                                                                                                                                                                                                                                            V g p f k J K U Q Q Q                                                                                                                                                                               ",
"                                                                                                                                                                                                                                                                                                                            z p i p N J K U Q / Q                                                                                                                                                                               ",
"                                                                                                                                                                                                                                                                                                                            g i i f k D J J T I G                                                                                                                                                                               ",
"                                                                                                                                                                                                                                                                                                                            i r p h S S S S N N                                                                                                                                                                                 ",
"                                                                                                                                                                                                                                                                                                                            s p i f N D N k N N                                                                                                                                                                                 ",
"                                                                                                                                                                                                                                                                                                                          c i p i f S N N k D G                                                                                                                                                                                 ",
"                                                                                                                                                                                                                                                                                                                          g i i y f N S S S D D                                                                                                                                                                                 ",
"                                                                                                                                                                                                                                                                                                                          a r r t j N B k k N                                                                                                                                                                                   ",
"                                                                                                                                                                                                                                                                                                                          r e 9 7 h k h h h N                                                                                                                                                                                   ",
"                                                                                                                                                                                                                                                                                                                          a 0 8 7 g j h h k j                                                                                                                                                                                   ",
"                                                                                                                                                                                                                                                                                                                          i 0 7 t h j k k M                                                                                                                                                                                     ",
"                                                                                                                                                                                                                                                                                                                          r 9 9 f f f h j j                                                                                                                                                                                     ",
"                                                                                                                                                                                                                                                                                                                          r 0 7 f f f k j j                                                                                                                                                                                     ",
"                                                                                                                                                                                                                                                                                                                        r r 9 w f f h f h h                                                                                                                                                                                     ",
"                                                                                                                                                                                                                                                                                                                        r r 8 7 i y i w i                                                                                                                                                                                       ",
"                                                                                                                                                                                                                                                                                                                        e 9 5 0 y y w w i                                                                                                                                                                                       ",
"                                                                                                                                                                                                                                                                                                                        2 2 < w w w q i i                                                                                                                                                                                       ",
"                                                                                                                                                                                                                                                                                                                        > & > 9 0 6 q w                                                                                                                                                                                         ",
"                                                                                                                                                                                                                                                                                                                        o + & < 4 5 9 5                                                                                                                                                                                         ",
"                                                                                                                                                                                                                                                                                                                            o & @ $ & $                                                                                                                                                                                         ",
"                                                                                                                                                                                                                                                                                                                                                                                                                                                                                                                                ",
"                                                                                                                                                                                                                                                                                                                                                                                                                                                                                                                                ",
"                                                                                                                                                                                                                                                                                                                                                                                                                                                                                                                                ",
"                                                                                                                                                                                                                                                                                                                                                                                                                                                                                                                                ",
"                                                                                                                                                                                                                                                                                                                                                                                                                                                                                                                                ",
"                                                                                                                                                                                                                                                                                                                                                                                                                                                                                                                                ",
"                                                                                                                                                                                                                                                                                                                                                                                                                                                                                                                                ",
"                                                                                                                                                                                                                                                                                                                                                                                                                                                                                                                                ",
"                                                                                                                                                                                                                                                                                                                                                                                                                                                                                                                                ",
"                                                                                                                                                                                                                                                                                                                                                                                                                                                                                                                                ",
"                                                                                                                                                                                                                                                                                                                                                                                                                                                                                                                                ",
"                                                                                                                                                                                                                                                                                                                                                                                                                                                                                                                                ",
"                                                                                                                                                                                                                                                                                                                                                                                                                                                                                                                                ",
"                                                                                                                                                                                                                                                                                                                                                                                                                                                                                                                                ",
"                                                                                                                                                                                                                                                                                                                                                                                                                                                                                                                                ",
"                                                                                                                                                                                                                                                                                                                                                                                                                                                                                                                                ",
"                                                                                                                                                                                                                                                                                                                                                                                                                                                                                                                                ",
"                                                                                                                                                                                                                                                                                                                                                                                                                                                                                                                                ",
"                                                                                                                                                                                                                                                                                                                                                                                                                                                                                                                                ",
"                                                                                                                                                                                                                                                                                                                                                                                                                                                                                                                                ",
"                                                                                                                                                                                                                                                                                                                                                                                                                                                                                                                                ",
"                                                                                                                                                                                                                                                                                                                                                                                                                                                                                                                                ",
"                                                                                                                                                                                                                                                                                                                                                                                                                                                                                                                                ",
"                                                                                                                                                                                                                                                                                                                                                                                                                                                                                                                                ",
"                                                                                                                                                                                                                                                                                                                                                                                                                                                                                                                                ",
"                                                                                                                                                                                                                                                                                                                                                                                                                                                                                                                                ",
"                                                                                                                                                                                                                                                                                                                                                                                                                                                                                                                                ",
"                                                                                                                                                                                                                                                                                                                                                                                                                                                                                                                                ",
"                                                                                                                                                                                                                                                                                                                                                                                                                                                                                                                                ",
"                                                                                                                                                                                                                                                                                                                                                                                                                                                                                                                                ",
"                                                                                                                                                                                                                                                                                                                                                                                                                                                                                                                                ",
"                                                                                                                                                                                                                                                                                                                                                                                                                                                                                                                                ",
"                                                                                                                                                                                                                                                                                                                                                                                                                                                                                                                                ",
"                                                                                                                                                                                                                                                                                                                                                                                                                                                                                                                                ",
"                                                                                                                                                                                                                                                                                                                                                                                                                                                                                                                                ",
"                                                                                                                                                                                                                                                                                                                                                                                                                                                                                                                                ",
"                                                                                                                                                                                                                                                                                                                                                                                                                                                                                                                                ",
"                                                                                                                                                                                                                                                                                                                                                                                                                                                                                                                                ",
"                                                                                                                                                                                                                                                                                                                                                                                                                                                                                                                                ",
"                                                                                                                                                                                                                                                                                                                                                                                                                                                                                                                                ",
"                                                                                                                                                                                                                                                                                                                                                                                                                                                                                                                                ",
"                                                                                                                                                                                                                                                                                                                                                                                                                                                                                                                                ",
"                                                                                                                                                                                                                                                                                                                                                                                                                                                                                                                                "
};
