/* XPM */
static char *out[] = {
/* columns rows colors chars-per-pixel */
"256 256 159 2 ",
"   c None",
".  c #1B130E",
"X  c #171411",
"o  c #1D1511",
"O  c #201712",
"+  c #241A14",
"@  c #2A1E16",
"#  c #241D19",
"$  c #2B1F19",
"%  c #2E2017",
"&  c #2E221A",
"*  c #302217",
"=  c #32241B",
"-  c #38271B",
";  c #36281E",
":  c #3A2A1E",
">  c #322521",
",  c #362921",
"<  c #3C2C21",
"1  c #3F3025",
"2  c #3E3129",
"3  c #412D1F",
"4  c #412F22",
"5  c #443224",
"6  c #4A3626",
"7  c #45342A",
"8  c #4A3629",
"9  c #4D392C",
"0  c #513927",
"q  c #533D2D",
"w  c #4D3B31",
"e  c #523E32",
"r  c #57402F",
"t  c #59412F",
"y  c #554134",
"u  c #5B4433",
"i  c #5E4836",
"p  c #564439",
"a  c #5B4639",
"s  c #5D493B",
"d  c #604733",
"f  c #634936",
"g  c #684D37",
"h  c #644C3B",
"j  c #694F3A",
"k  c #67503E",
"l  c #6C523D",
"z  c #71553E",
"x  c #74583F",
"c  c #5E4B42",
"v  c #644F41",
"b  c #675244",
"n  c #6D5442",
"m  c #6C574B",
"M  c #6F594A",
"N  c #715642",
"B  c #755A45",
"V  c #795D46",
"C  c #755C49",
"Z  c #7A5E49",
"A  c #6A5A54",
"S  c #685C5C",
"D  c #775F51",
"F  c #7E6147",
"G  c #77614D",
"H  c #7D614B",
"J  c #766053",
"K  c #7D6451",
"L  c #816247",
"P  c #82654C",
"I  c #86684F",
"U  c #88694E",
"Y  c #826651",
"T  c #856952",
"R  c #8A6D54",
"E  c #846D5B",
"W  c #8A6E59",
"Q  c #8E7056",
"!  c #8E715A",
"~  c #917156",
"^  c #93755C",
"/  c #96785F",
"(  c #997A5E",
")  c #8D7563",
"_  c #937761",
"`  c #967A62",
"'  c #9B7D63",
"]  c #947D6C",
"[  c #9A7E69",
"{  c #A07F62",
"}  c #9E8066",
"|  c #9E816A",
" . c #99857A",
".. c #A28266",
"X. c #A4856A",
"o. c #A8876A",
"O. c #A7886D",
"+. c #AA8A6D",
"@. c #A28671",
"#. c #A68973",
"$. c #AD8D72",
"%. c #A48B7A",
"&. c #AA8E79",
"*. c #B08F71",
"=. c #AF9075",
"-. c #AE917A",
";. c #B29275",
":. c #B4957A",
">. c #B8977B",
",. c #B7987D",
"<. c #BA9A7D",
"1. c #9B8980",
"2. c #AC9481",
"3. c #B39681",
"4. c #B69982",
"5. c #BB9D82",
"6. c #B49F8D",
"7. c #BA9E8A",
"8. c #BEA185",
"9. c #BEA289",
"0. c #BDA391",
"q. c #BFA995",
"w. c #C09F81",
"e. c #C2A385",
"r. c #C9A787",
"t. c #C3A58A",
"y. c #C6A98D",
"u. c #CAAB8C",
"i. c #C2A691",
"p. c #C5AB92",
"a. c #CBAD91",
"s. c #C4AC99",
"d. c #CEB193",
"f. c #CEB49A",
"g. c #CDB89C",
"h. c #D2B495",
"j. c #D5B897",
"k. c #D2B599",
"l. c #D6B99A",
"z. c #D9BD9D",
"x. c #CCB5A0",
"c. c #D5BDA3",
"v. c #D9BEA1",
"b. c #DBC09F",
"n. c #DDC3A3",
"m. c #D5C2AD",
"M. c #D9C2A8",
"N. c #DCC9AD",
"B. c #DCCAB3",
"V. c #E0C7A6",
"C. c #E1C8A7",
"Z. c #E0C7A8",
"A. c #E2CBAA",
"S. c #E6D0AF",
"D. c #E0CFB3",
"F. c #E0CFB9",
"G. c #E6D2B3",
"H. c #E6D5BA",
"J. c #E7D8BC",
/* pixels */
"                                                                                                                                                                                                                                                                                                                                                                                                                                                                                                                                ",
"                                                                                                                                                                                                                                                                                                                                                                                                                                                                                                                                ",
"                                                                                                                                                                                                                                                                                                                                                                                                                                                                                                                                ",
"                                                                                                                                                                                                                                                                                                                                                                                                                                                                                                                                ",
"                                                                                                                                                                                                                                                                                                                                                                                                                                                                                                                                ",
"                                                                                                                                                                                                                                                                                                                                                                                                                                                                                                                                ",
"                                                                                                                                                                                                                                                                                                                                                                                                                                                                                                                                ",
"                                                                                                                                                                                                                                                                                                                                                                                                                                                                                                                                ",
"                                                                                                                                                                                                                                                                                                                                                                                                                                                                                                                                ",
"                                                                                                                                                                                                                                                                                                                                                                                                                                                                                                                                ",
"                                                                                                                                                                                                                                                                                                                                                                                                                                                                                                                                ",
"                                                                                                                                                                                                                                                                                                                                                                                                                                                                                                                                ",
"                                                                                                                                                                                                                                                                                                                                                                                                                                                                                                                                ",
"                                                                                                                                                                                                                                                                                                                                                                                                                                                                                                                                ",
"                                                                                                                                                                                                                                                                                                                                                                                                                                                                                                                                ",
"                                                                                                                                                                                                                                                                                                                                                                                                                                                                                                                                ",
"                                                                                                                                                                                                                                                                                                                                                                                                                                                                                                                                ",
"                                                                                                                                                                                                                                                                                                                                                                                                                                                                                                                                ",
"                                                                                                                                                                                                                                                                                                                                                                                                                                                                                                                                ",
"                                                                                                                                                                                                                                                                                                                                                                                                                                                                                                                                ",
"                                                                                                                                                                                                                                                                                                                                                                                                                                                                                                                                ",
"                                                                                                                                                                                                                                                                                                                                                                                                                                                                                                                                ",
"                                                                                                                                                                                                                                                                                                                                                                                                                                                                                                                                ",
"                                                                                                                                                                                                                                                                                                                                                                                                                                                                                                                                ",
"                                                                                                                                                                                                                                                                                                                                                                                                                                                                                                                                ",
"                                                                                                                                                                                                                                                                                                                                                                                                                                                                                                                                ",
"                                                                                                                                                                                                                                                                                                                                                                                                                                                                                                                                ",
"                                                                                                                                                                                                                                                                                                                                                                                                                                                                                                                                ",
"                                                                                                                                                                                                                                                                                                                                                                                                                                                                                                                                ",
"                                                                                                                                                                                                                                  m.H.J.J.J.F.G.B.B.                                                                                                                                                                                                                                                                            ",
"                                                                                                                                                                                                                                  c.N.n.A.A.A.S.H.G.H.G.J.H.G.B.N.                                                                                                                                                                                                                                                              ",
"                                                                                                                                                                                                                                  M.n.n.n.b.n.n.b.n.C.C.C.C.A.S.G.G.G.G.G.B.B.n.c.                                                                                                                                                                                                                                              ",
"                                                                                                                                                                                                                                  b.b.b.b.b.b.b.b.b.b.b.b.b.b.b.z.b.n.n.C.C.C.n.b.C.b.z.j.h.a.s.                                                                                                                                                                                                                                ",
"                                                                                                                                                                                                                                  C.b.b.b.b.b.b.b.b.b.b.b.b.b.b.b.b.z.b.b.b.z.j.j.j.h.u.u.u.u.a.a.                                                                                                                                                                                                                              ",
"                                                                                                                                                                                                                                  S.b.b.b.b.j.j.j.b.b.b.b.b.b.b.b.b.z.z.z.z.z.z.j.h.r.u.r.t.w.t.8.                                                                                                                                                                                                                              ",
"                                                                                                                                                                                                                                g.C.j.j.j.g.j.j.j.u.d.j.j.u.j.j.j.l.j.j.j.z.j.z.j.h.u.u.a.a.u.y.8.                                                                                                                                                                                                                              ",
"                                                                                                                                                                                                                                g.b.b.p.d.d.u.j.u.u.h.u.d.d.j.j.j.j.j.j.j.j.j.h.d.u.d.h.d.h.d.d.t.                                                                                                                                                                                                                              ",
"                                                                                                                                                                                                                                g.b.b.d.g.u.u.u.u.u.h.u.d.u.u.j.d.h.j.j.j.j.j.u.h.u.h.d.d.a.d.u.t.                                                                                                                                                                                                                              ",
"                                                                                                                                                                                                                                g.d.y.d.u.u.u.u.u.u.u.u.u.d.d.d.u.h.d.d.d.h.h.h.u.h.d.a.a.a.u.r.                                                                                                                                                                                                                                ",
"                                                                                                                                                                                                                                g.b.u.u.r.e.r.r.u.u.r.r.u.u.u.u.u.u.u.u.u.u.u.u.u.r.r.r.r.u.a.r.                                                                                                                                                                                                                                ",
"                                                                                                                                                                                                                                g.u.u.u.<.<.r.u.u.r.r.u.r.u.u.u.u.u.u.u.u.r.r.u.r.r.u.r.r.r.u.u.                                                                                                                                                                                                                                ",
"                                                                                                                                                                                                                                b.u.d.u.r.r.<.r.<.r.r.r.u.r.u.u.r.u.u.u.u.d.u.u.u.u.u.u.u.d.a.u.                                                                                                                                                                                                                                ",
"                                                                                                                                                                                                                                9.u.u.h.r.e.<.u.r.r.r.r.r.r.r.r.u.r.u.u.u.u.u.h.h.u.u.u.u.a.a.u.                                                                                                                                                                                                                                ",
"                                                                                                                                                                                                                              g.q.<.<.<.<.r.<.<.<.r.<.r.r.r.r.u.u.r.r.r.u.u.u.d.d.u.u.u.u.a.a.r.                                                                                                                                                                                                                                ",
"                                                                                                                                                                                                                              q.r.w.w.<.<.<.e.<.<.<.w.w.<.r.r.r.r.r.r.r.u.r.r.a.u.h.h.u.u.u.a.r.                                                                                                                                                                                                                                ",
"                                                                                                                                                                                                                              q.<.<.<.<.<.<.<.<.<.>.<.<.<.w.<.r.r.r.r.u.r.u.u.r.u.u.u.u.r.r.u.i.                                                                                                                                                                                                                                ",
"                                                                                                                                                                                                                              <.*.;.;.;.*.*.;.<.;.>.>.<.<.<.w.w.w.r.r.u.u.r.u.r.r.u.u.u.u.u.u.                                                                                                                                                                                                                                  ",
"                                                                                                                                                                                                                              =.*.*.*.*.*.*.*.*.;.;.;.<.<.<.<.<.w.w.r.r.r.r.r.r.u.r.u.u.u.u.d.                                                                                                                                                                                                                                  ",
"                                                                                                                                                                                                                              <.*.*.*.*.*.*.*.*.>.*.*.*.;.;.<.<.<.w.>.w.r.r.r.r.r.r.r.r.u.u.u.                                                                                                                                                                                                                                  ",
"                                                                                                                                                                                                                              ,.*.*.o.o.o.o.*.*.*.>.;.o.*.+.*.>.>.<.>.w.w.r.r.r.r.w.r.r.u.r.u.                                                                                                                                                                                                                                  ",
"                                                                                                                                                                                                                              =.o.*.o.o.o.*.*.>.>.*.;.;.+.+.+.*.;.>.>.w.<.w.w.w.w.r.r.r.r.r.8.                                                                                                                                                                                                                                  ",
"                                                                                                                                                                                                                            %.O.o.o.o.o.o.o.*.*.*.;.*.*.*.*.+.*.*.>.>.>.<.<.w.w.r.w.w.r.r.e.<.                                                                                                                                                                                                                                  ",
"                                                                                                                                                                                                                            %.X.o.o.o.o.o.o.o.+.*.+.*.*.*.*.*.*.*.*.>.;.<.<.w.<.w.w.w.w.e.w.5.                                                                                                                                                                                                                                  ",
"                                                                                                                                                                                                                            $.} ( { { o...{ o.*.*.+.+.*.+.*.*.*.*.*.*.>.>.>.w.<.>.>.>.>.w.w.                                                                                                                                                                                                                                    ",
"                                                                                                                                                                                                                            | } ( ( ( ..o...o.*.*.+.+.+.+.*.+.*.*.*.>.;.;.>.*.>.>.>.<.<.w.<.                                                                                                                                                                                                                                    ",
"                                                                                                                                                                                                                            ! R ~ ~ ~ ~ { ..o.+.*.+.+.+.+.+.+.+.*.*.;.;.>.;.;.*.>.>.w.w.w.<.                                                                                                                                                                                                                                    ",
"                                                                                                                                                                                                                            ` Q U R U ~ ~ ~ ( ..+.+.+.+.+.o.o.*.*.*.*.*.;.>.;.*.*.;.>.w.<.>.                                                                                                                                                                                                                                    ",
"                                                                                                                                                                                                                            ^ ! ~ R R U U U ~ { { { o.o.o.o.+.+.*.*.*.*.;.>.;.;.*.;.>.>.>.:.                                                                                                                                                                                                                                    ",
"                                                                                                                                                                                                                          K P R R R R R ~ U ~ ( { #.o.{ o.o.o.+.*.*.*.;.;.;.;.;.*.*.;.*.;.;.                                                                                                                                                                                                                                    ",
"                                                                                                                                                                                                                          m k x V V I R U ~ ~ ~ { { { o.o.{ o.o.*.*.*.;.;.;.*.*.*.*.*.*.+.#.                                                                                                                                                                                                                                    ",
"                                                                                                                                                                                                                              w 9 y u f k N L U ^ { { o.{ +.+.+.*.*.*.*.;.;.+.X.o.o.+.+.+.X.                                                                                                                                                                                                                                    ",
"                                                                                                                                                                                                                                              y e a j B P R ` { ..o.*.;.;.;.+.X.+.o.....X.                                                                                                                                                                                                                                      ",
"                                                                                                                                                                                                                                                + o o + $ , 4 0 d g L Q } } / / ........X.                                                                                                                                                                                                                                      ",
"                                                                                                                                                                                                                                                > O o o o o o . + +         f k x L I T W                                                                                                                                                                                                                                       ",
"                                                                                                                                                                                                                                                > & $ # + # + O o >                                                                                                                                                                                                                                                             ",
"                                                                                                                                                                                                                                                2 4 5 4 4 4 < , , w                                                                                                                                                                                                                                                             ",
"                                                                                                                                                                                                                                                e e e a e e e e h J                                                                                                                                                                                                                                                             ",
"                                                                                                                                                                                                                                                v j B N B n n j K                                                                                                                                                                                                                                                               ",
"                                                                                                                                                                                                                                                m Z Y Z Z D Z Z _                                                                                                                                                                                                                                                               ",
"                                                                                                                                                                                                                                                P W ! T T R W W |                                                                                                                                                                                                                                                               ",
"                                                                                                                                                                                                                                                R ! _ ! ! _ [ [ &.                                                                                                                                                                                                                                                              ",
"                                                                                                                                                                                                                                                ^ _ ^ ! ~ _ { { ,.                                                                                                                                                                                                                                                              ",
"                                                                                                                                                                                                                                                ` ' ^ ^ W ! { #.3.                                                                                                                                                                                                                                                              ",
"                                                                                                                                                                                                                        0.s.                  M W ` _ ` ` ^ ' =.7.                                                                                                                                                                                                                                                              ",
"                                                                                                                                                                                                                        9.4.w.a.a.p.0.7.s.c.d.%.^ _ ' X.{ [ _ #.4.                                                                                                                                                                                                                                                              ",
"                                                                                                                                                                                                                        ,.&.$.;.:.>.w.k.v.v.v.v.9.&.&.;.&.{ ' { &.                                                                                                                                                                                                                                                              ",
"                                                                                                                                                                                                                        3.*.*.*.*.:.a.v.v.v.Z.Z.n.c.p.r.r.t.w.3.3.                                                                                                                                                                                                                                                              ",
"                                                                                                                                                                                                                      2.<.*.*.;.:.a.n.n.n.n.v.v.V.v.z.d.r.r.r.u.y.y.i.w.4.3.&.                                                                                                                                                                                                                                                  ",
"                                                                                                                                                                                                                      3.<.;.;.>.a.A.A.A.M.n.v.v.z.z.z.v.f.w.w.w.w.e.e.t.e.e.5.4.3.3.-.                                                                                                                                                                                                                                          ",
"                                                                                                                                                                                                                      4.5.<.<.u.A.A.A.A.Z.v.v.v.k.l.k.a.5.3.w.w.w.w.e.w.5.5.5.5.4.4.4.-.                                                                                                                                                                                                                                        ",
"                                                                                                                                                                                                                      7.<.w.h.Z.S.A.N.C.b.b.b.b.b.b.d.<.=.=.;.<.<.5.w.e.w.4.4.>.w.3.4.                                                                                                                                                                                                                                          ",
"                                                                                                                                                                                                                      5.>.a.V.A.A.A.N.n.b.b.b.b.d.d.,.+.+.+.+.;.<.<.w.w.w.4.4.3.>.3.5.                                                                                                                                                                                                                                          ",
"                                                                                                                                                                                                                      5.r.Z.S.A.A.S.N.b.b.b.b.b.u.<.=.+.+.+.o.+.>.5.<.5.4.w.w.4.3.:.:.                                                                                                                                                                                                                                          ",
"                                                                                                                                                                                                                    2.t.n.A.A.A.A.C.N.b.b.b.b.b.<.=.+.+.+.+.+.o.<.w.w.w.w.5.w.>.>.w.3.                                                                                                                                                                                                                                          ",
"                                                                                                                                                                                                                    t.Z.A.V.V.V.N.C.C.C.C.b.b.<.=.+.O.+.o.o.o.*.5.w.w.w.5.w.5.4.<.<.:.                                                                                                                                                                                                                                          ",
"                                                                                                                                                                                                                    N.G.G.A.n.V.b.b.b.b.C.b.<.;.:.=.O.O.o.o.o.;.w.5.5.w.5.5.w.4.-.;.&.                                                                                                                                                                                                                                          ",
"                                                                                                                                                                                                                  n.A.G.A.A.V.n.n.n.b.b.b.<.<.;.;.*.O...o...*.<.<.<.<.w.5.5.>.>.-.$.                                                                                                                                                                                                                                            ",
"                                                                                                                                                                                                                n.A.n.A.V.V.V.z.b.j.b.j.<.;.*.;.*.+.+...o.+.;.<.<.>.<.5.w.5.5.3.>.&.                                                                                                                                                                                                                                            ",
"                                                                                                                                                                                                              n.C.A.C.n.b.b.b.b.b.j.h.w.;.;.;.;.+.o.o.o.o.*.<.;.>.>.>.5.w.5.5.5.5.-.                                                                                                                                                                                                                                            ",
"                                                                                                                                                                                                            n.A.C.C.C.C.C.b.b.b.z.j.e.;.;.;.*.*.*.+.*.o.+.;.;.<.:.>.>.<.5.5.5.w.w.3.                                                                                                                                                                                                                                            ",
"                                                                                                                                                                                                          n.N.Z.C.n.b.b.C.n.b.h.d.e.:.;.;.*.+.+.+.+.o.*.;.;.;.;.;.:.>.>.>.<.<.5.5.3.                                                                                                                                                                                                                                            ",
"                                                                                                                                                                                                        M.A.V.n.n.n.b.l.b.b.b.d.w.;.*.;.*.*.+.+.o.o.o.;.<.;.;.;.:.;.;.:.<.<.5.>.5.-.                                                                                                                                                                                                                                            ",
"                                                                                                                                                                                                      n.V.V.V.V.C.V.V.z.d.u.r.<.;.*.+.*.+.+.+.o.....*.;.;.;.:.*.*.*.;.>.5.<.<.5.5.                                                                                                                                                                                                                                              ",
"                                                                                                                                                                                                    v.A.V.V.n.V.n.b.z.z.b.d.<.=.=.;.+.+.+.o.o.....+.*.*.;.>.:.:.;.*.*.:.<.<.>.>.<.                                                                                                                                                                                                                                              ",
"                                                                                                                                                                                                  v.n.V.V.V.V.b.b.b.z.j.b.<.*.+.*.*.+.+.+.o.....+.*.;.;.<.>.;.;.:.;.$.*.>.>.:.>.>.                                                                                                                                                                                                                                              ",
"                                                                                                                                                                                                v.V.V.V.V.V.V.b.V.b.z.h.<.*.o.+.*.*.*.+.o.......*.*.;.;.;.>.:.;.*.;.&.*.;.:.>.,.:.                                                                                                                                                                                                                                              ",
"                                                                                                                                                                                                n.Z.Z.V.V.v.V.z.z.z.z.u.;.*.o.+.+.+.o.o...o.o.o.*.*.*.;.>.>.;.:.;.;.*.*.*.:.:.:.;.                                                                                                                                                                                                                                              ",
"                                                                                                                                                                                              n.n.n.n.n.V.n.l.z.j.j.u.>.+.o.o.o.o.o.X.......o.+.*.*.*.;.;.>.>.;.:.:.:.*.;.:.:.:.:.                                                                                                                                                                                                                                              ",
"                                                                                                                                                                                            z.n.v.v.v.v.z.z.l.j.h.r.*.o.o.o.o.o.o.o.o.....o.+.+.*.*.;.;.:.;.<.;.:.:.:.:.:.:.:.:.                                                                                                                                                                                                                                                ",
"                                                                                                                                                                                          k.z.j.l.j.l.l.l.l.h.d.w.+.( { ......o.o...} ..o.+.+.+.*.;.;.>.;.:.:.<.:.:.:.*.;.:.;.>.                                                                                                                                                                                                                                                ",
"                                                                                                                                                                                        d.k.j.j.l.l.j.h.a.u.u.>...} ~ ( } ( { ..} ......+.+.*.+.*.*.;.;.;.;.;.;.:.;.:.*.:.:.;.>.                                                                                                                                                                                                                                                ",
"                                                                                                                                                                                      f.a.y.a.j.j.h.u.r.w.t.>.{ ( ( ~ ~ ~ ~ ~ ( } } o.o.+.+.+.+.*.*.;.;.;.;.;.=.*.*.*.-.*.;.*.:.                                                                                                                                                                                                                                                ",
"                                                                                                                                                                                    t.y.u.e.8.e.y.y.5.:.*.$.' ( ~ ~ ( ~ ~ ~ ~ ( } X.+.+.+.+.+.*.*.;.;.;.;.*.;.*.$.&.*.*.-.*.-.*.                                                                                                                                                                                                                                                ",
"                                                                                                                                                                                    e.5.5.>.:.$.*.;.&.$.X.W ~ / ( ~ ~ ( ~ ~ ~ ..O.+.+.+.+.+.+.$.*.;.;.;.;.*.=.*.*.*.$.*.*.*.:.-.                                                                                                                                                                                                                                                ",
"                                                                                                                                                                                  ,.,.=.+.#.=.:.O.} } } ^ ~ ~ ~ ~ ~ ~ Q U U ( o.O.$.+.+.+.+.$.$.;.+.;.:.;.*.;.:.$.*.*.+.$.*.*.                                                                                                                                                                                                                                                  ",
"                                                                                                                                                                                9.9.5.#._ ! / | } #.| / ^ ~ Q R ~ U P L I ~ } X.O.$.$.O.O.+.$.=.=.;.;.;.:.;.;.;.*.#.$.$.*.$.-.                                                                                                                                                                                                                                                  ",
"                                                                                                                                                                                f.c.l.f.i.7.-.| | | / ^ ^ ~ U I U U L I ~ } } } O.+.+.O.+.$.$.#.;.=.;.;.;.;.;.;.*.*.*.+.$.*.;.                                                                                                                                                                                                                                                  ",
"                                                                                                                                                                                5.e.r.y.8.8.y.t.9.,.! I Q ~ R F L L U ~ } } } ..| +.+.O.O.#.+.+.=.=.&.*.;.;.*.*.$.+.+.$.$.&.;.                                                                                                                                                                                                                                                  ",
"                                                                                                                                                                                &.,.:.,.:.+.*.:.:.-.-.` M K I F B F U } } } } X.X.O.O.O.+.+.+.+.+.;.;.=.;.;.$.*.$.+.+.+.$.+.-.                                                                                                                                                                                                                                                  ",
"                                                                                                                                                                                  ;.;.;.<.:.=.<.y.,.#.-.} M F F H Q } } } } } } O.O.O.O.O.+.#.#.=.+.=.$.$.;.*.&.$.+.#.$.$.$.*.                                                                                                                                                                                                                                                  ",
"                                                                                                                                                                                  *.;.;.:.>.:.<.e.8.#.O.O.} G M } } } } } } X.X.O.| O.X.o.O.+.=.=.$.+.+.*.$.+.$.$.o.O.$.*.&.$.                                                                                                                                                                                                                                                  ",
"                                                                                                                                                                                  #.$.&.=.>.<.>.:.e.>.#.O.X.} G Q } } } } } } } O.} O.O.O.O.o.O.+.O.+.o.+.+.$.$.$.$.o.+.*.=.;.                                                                                                                                                                                                                                                  ",
"                                                                                                                                                                                  } | ..O.#.#.+.o.>.8.=.+.+.| T } } } } } } } } } } | | O.O.O.O...X.....X.o.#.+.*.*.$.+.$.*.;.                                                                                                                                                                                                                                                  ",
"                                                                                                                                                                                  ) ^ ` ........o.*.<.;.+.$.O.! ! } W } } W } } } } } } O.} X.O.| X.X.| X.+.+.+.$.&.*.$.#.$.;.                                                                                                                                                                                                                                                  ",
"                                                                                                                                                                                    T P Y ! ( ( ' o.>.;.=.+.#.` } } } ^ Q Q } K } } } } } X.} O.X...X...X.X.o.+.o.$.*.;.+.o.*.                                                                                                                                                                                                                                                  ",
"                                                                                                                                                                                    H C C P ^ ^ ~ ^ =.;.+.$.+.` ! } ! } W } Q } Q } } } } } } } ........X...X.o.o.o.+.+.#.+.#.                                                                                                                                                                                                                                                  ",
"                                                                                                                                                                                    H C G Y Q Q ~ ~ $.;.;.+.;.' ^ ^ ! ! Q ~ ^ ^ Q } ! } } } } } ' | ' ' ' ......X.' X.o.+.o.#.                                                                                                                                                                                                                                                  ",
"                                                                                                                                                                                    E ! T K T P R R o.;.=.*.;.| ^ ! T ! ^ Q ! ^ ! Q } ! } } } } ' ( ( ^ / ' | ..' ' ' ' ..X.o.                                                                                                                                                                                                                                                  ",
"                                                                                                                                                                                    E ` ` ^ Q P U U ..:.;.:.;...W R W ! Q ! ! ! ! } ! } } Q } } ' ' ( / ^ ( ' | { ' ' ' ..X.#.                                                                                                                                                                                                                                                  ",
"                                                                                                                                                                                      K T ! ^ T U U ' >.<.>.:.o.T R I T Q ! ! ! W Q ! } ! } } ! ' ' ^ / / ( ( ` ' ' ' ' ' X.#.                                                                                                                                                                                                                                                  ",
"                                                                                                                                                                                      b b G Q Q R U ( >.<.<.<.+.I H U R Q Q W Q W Q } } } } ^ ! ^ } ! ! / / ' ' ' ` { { { { #.                                                                                                                                                                                                                                                  ",
"                                                                                                                                                                                      h k n H Q R R ^ >.r.<.<.=.I K F K T T T T T T K T ! } } } } ^ } ^ ^ / / ' ' / ( ` ' { @.                                                                                                                                                                                                                                                  ",
"                                                                                                                                                                                      v h b G T U Q Q ;.8.8.8.:.! T I K T T T T U Q R Q ! ^ } ^ / } ^ } ^ ` ^ } ' ` ` ` ' X.X.                                                                                                                                                                                                                                                  ",
"                                                                                                                                                                                        h k B T U U U o.<.<.8.<.^ R Q F I T Q T K K U R T Q Q } ^ / } ^ ` / ^ ( ^ / ( / _ ' X.                                                                                                                                                                                                                                                  ",
"                                                                                                                                                                                        h v B Y Q R U } <.<.8.,.! K K H H I U I R K U U U Q Q ! ! ^ } ^ / ! ^ ! ! ^ ` _ / ` ' {                                                                                                                                                                                                                                                 ",
"                                                                                                                                                                                        s h n C T ! Q ' <.<.8.<.Q H F F G F K U R R K F K K Q Q ! ^ ^ / / / ^ ! ! Q Q ^ / ' ' [                                                                                                                                                                                                                                                 ",
"                                                                                                                                                                                        s h a f H ^ ^ ( <.<.8.<.K B G G G x F H U Q U K I F U R R ! ~ ^ ! ^ Q ! ~ ^ ~ Q ^ ` ' X.                                                                                                                                                                                                                                                ",
"                                                                                                                                                                                          e q u N ^ } } <.w.<.<.U l x B F G F G H K U T Q K K I K R Q ^ ! ! ! Q W Q Q W Q ^ ^ @.:.                                                                                                                                                                                                                                              ",
"                                                                                                                                                                                          9 u s l W ^ } <.<.<.8.W l l l B V Z V L L L L Y W R R U T R ! ! ^ W ~ R T R R R W ^ { -.-.                                                                                                                                                                                                                                            ",
"                                                                                                                                                                                          y u h l H ! Q =.<.8.<.! l l l n V V Z D B D L P Y Y R R R R R W ~ R W R W W R R W W [ -.-.2.                                                                                                                                                                                                                                          ",
"                                                                                                                                                                                          p u u k G T I O.<.8.<.^ N n l l z N B B B L N L L P P Y T R R R ~ W R R R R R W T Q { -.-.-.-.                                                                                                                                                                                                                                        ",
"                                                                                                                                                                                            p i k K I F } <.<.8._ N N j l N l z N N n n n n N L Y Y Y T R W W T T T T R T T T [ -.-.-.-.3.                                                                                                                                                                                                                                      ",
"                                                                                                                                                                                            a i k F F I } >.<.<.` B B z n B N n n n n z z g n L L L Y Y Y P W R T T T Y T T T [ ;.-.-.,.,.3.                                                                                                                                                                                                                                    ",
"                                                                                                                                                                                            w q h K F F ( >.<.8.` l N l j N B z n n z n N n g n B L L L P Y T W T T Y Y T T T ` -.:.-.-.-.,.5.                                                                                                                                                                                                                                  ",
"                                                                                                                                                                                              p k I K P ^ >.<.5.` h j l j l B N n n g n n N n g n n m B V P P P T T Y Y Y P T ! #.:.-.-.-.7.5.5.                                                                                                                                                                                                                                ",
"                                                                                                                                                                                              h h K U P ~ :.<.5.| f d k n z l N N j g g g j N n N B B B B C P P P Y P P V V V Y ! #.-.-.,.4.4.8.5.                                                                                                                                                                                                                              ",
"                                                                                                                                                                                              s u G R U ! ;.<.<.} i t u g k l k n n j f j n n P ^ ` ` Z j n n n B B N n n n n v n T [ :.:.,.4.8.8.8.3.                                                                                                                                                                                                                          ",
"                                                                                                                                                                                              y r k W I Q =.,.,.` 9 5 1 5 9 9 8 0 q 9 9 d n v P [ #.#._ n n C L a e B T ) _ ` P 8 e V [ =.>.,.3.5.8.8.7.                                                                                                                                                                                                                        ",
"                                                                                                                                                                                                2 r G I K } =.=.`                 : 8 0 d j q N [ &.$.$.[ [ *.{ ! h _ -.w.w.w.w.[ v w n W #.,.,.4.5.4.5.7.                                                                                                                                                                                                                      ",
"                                                                                                                                                                                                r 1 s x x } $.O.|               $ - - > 5 u e f ` &.&.$.:.-.:.-.[ M ! -.4.w.i.i.w.5.T w y G ] =.#.-.;.:.4.2.                                                                                                                                                                                                                    ",
"                                                                                                                                                                                                5 < 5 6 r F +.O.|               . O - - 6 t t d W -.;.-.*.-.:.:.3.W W [ w.w.w.w.w.p.y.#.h 9 h K ^ X.#.@.#.[                                                                                                                                                                                                                     ",
"                                                                                                                                                                                                  : 6 r r V } O.X.                O $ - 8 t d j T &.:.-.:.3.:.5.w.[ ! 3.4.w.4.w.w.p.a.a.5.E y y n T ' ` )                                                                                                                                                                                                                       ",
"                                                                                                                                                                                                  , 9 f f F | $.[                 @ $ > 5 d n n Z $.:.<.4.5.5.5.w.&._ [ 3.3.w.w.t.i.y.y.a.u.-.b 9 p M E                                                                                                                                                                                                                         ",
"                                                                                                                                                                                                  , 1 t l G } O.X.                $ & * 4 q t f B X.4.3.5.w.e.w.i.3.[ [ 3.3.3.w.w.0.t.i.p.y.p.8.E 9 <                                                                                                                                                                                                                           ",
"                                                                                                                                                                                                  , , 9 f V ' o.|                 > > & < q q d l ` 4.,.5.e.t.e.w.7.[ _ @.;.4.4.8.8.9.y.y.y.a.y.y.-.                                                                                                                                                                                                                            ",
"                                                                                                                                                                                                    & < t l ( X.|                   , ; , q q i g T ,.5.5.y.y.t.w.w.@.Y ^ X.&.;.,.4.8.9.9.9.y.p.u.y.t.8.                                                                                                                                                                                                                        ",
"                                                                                                                                                                                                    & & 5 q W | '                   5 , , 7 u u l H #.5.3.5.y.p.t.7.&.Y T W X.#.-.3.5.9.9.t.t.y.y.u.y.t.9.                                                                                                                                                                                                                      ",
"                                                                                                                                                                                                    & % @ = f W T                   7 7 < 7 q f h N o.5.5.4.e.t.w.e.:.n b Y W ' X.=.,.5.8.9.9.t.y.y.u.y.y.t.5.                                                                                                                                                                                                                  ",
"                                                                                                                                                                                                      O O + % 7 9                   7 7 7 7 q i u j ' 5.5.e.e.e.7.e.7.m % 9 B E ` X.&.4.5.5.9.9.9.y.i.p.u.t.8.8.                                                                                                                                                                                                                ",
"                                                                                                                                                                                                        o X                           7 7 9 e q u l R :.5.5.5.t.e.7.5.W & & < f T ) ' =.,.5.5.5.9.9.y.y.d.t.8.8.8.8.                                                                                                                                                                                                            ",
"                                                                                                                                                                                                                                      w 7 y e q q l L $.>.<.5.w.e.5.5.@.< % = ; 8 B ! ' #.<.,.5.5.5.9.t.y.a.y.8.5.e.e.                                                                                                                                                                                                          ",
"                                                                                                                                                                                                                                      e y p 9 q q q z ..<.5.5.w.8.7.5.3.y @ * = ; 4 i Y _ o.,.>.,.5.8.9.9.y.a.y.e.e.t.e.9.                                                                                                                                                                                                      ",
"                                                                                                                                                                                                                                      y y s e q 0 q j ^ >.5.5.w.5.8.5.5.C % % & = : 1 q N ! X.:.,.,.4.5.8.9.y.p.y.y.t.t.t.t.                                                                                                                                                                                                    ",
"                                                                                                                                                                                                                                        y a 5 7 0 q g P *.>.5.<.w.5.5.7.) > & & & = ; : 5 i U | $.,.5.<.5.5.9.t.y.y.t.9.t.t.t.9.                                                                                                                                                                                                ",
"                                                                                                                                                                                                                                        p p 7 9 q 0 d L $.<.<.5.5.e.5.9.#.5 & & & = = = : : 0 N ^ O.;.5.4.5.5.9.9.9.9.9.t.y.y.y.9.                                                                                                                                                                                              ",
"                                                                                                                                                                                                                                        a y 7 9 q q q N { >.<.5.5.e.e.9.3.p $ $ & = = = = = < 5 i T | =.,.<.5.5.8.8.5.5.8.t.t.y.d.p.y.                                                                                                                                                                                          ",
"                                                                                                                                                                                                                                        a a w w 9 q e g ^ >.<.<.5.e.t.5.7.] # % & & = = & = ; < 4 6 n ^ O.:.4.<.,.4.5.4.5.5.9.t.p.a.u.p.                                                                                                                                                                                        ",
"                                                                                                                                                                                                                                          e w 9 q q q d U *.<.4.5.t.p.9.9.7.    & & & & = = = = , 4 5 i Y | #.:.-.-.3.,.4.4.5.9.9.t.y.p.a.p.                                                                                                                                                                                    ",
"                                                                                                                                                                                                                                          a e 9 0 q q g V +.>.<.5.e.y.t.8.7.      & & & & = & = = ; < 5 6 N ! X.&.-.-.3.-.4.5.9.9.e.t.t.y.a.p.t.                                                                                                                                                                                ",
"                                                                                                                                                                                                                                          y e e q e q u z { >.<.5.8.9.t.t.9.          & = & = = = = ; : < 5 i K ' @.&.,.-.-.3.5.9.9.9.t.t.y.y.p.p.                                                                                                                                                                              ",
"                                                                                                                                                                                                                                          a e w 9 q q q l ~ >.>.,.5.5.t.i.t.              & = & > = = = , < 5 8 k ! | &.:.&.#.,.5.9.e.9.t.i.y.p.a.y.e.                                                                                                                                                                          ",
"                                                                                                                                                                                                                                            p e q e q e g U *.>.<.5.8.9.t.9.4.              & > = & = = = ; ; , 5 u H _ @.-.&.&.3.5.9.9.e.t.t.y.y.y.p.0.                                                                                                                                                                        ",
"                                                                                                                                                                                                                                            p e e 8 q q d V +.>.:.5.8.e.e.t.7.                  = = = = = = = = = : 8 n W [ #.-.&.:.,.3.4.7.e.y.y.y.p.y.p.9.                                                                                                                                                                    ",
"                                                                                                                                                                                                                                            s y e 8 q q d z { >.:.5.5.8.t.t.9.                    $ = = = = = = = = ; < u Z ) | #.&.&.;.:.4.5.t.t.y.y.y.t.p.                                                                                                                                                                    ",
"                                                                                                                                                                                                                                            a a e 9 q q u j ~ >.>.>.5.9.9.e.t.                        & = & & = & = = = , 9 k Y ) ` | #.:.3.5.7.t.t.t.y.t.t.0.                                                                                                                                                                  ",
"                                                                                                                                                                                                                                              p p e e q q g L *.:.<.5.e.9.t.9.7.                        & & = = = & & = & ; 5 9 a N K W _ [ #.5.5.5.8.8.5.5.8.                                                                                                                                                                  ",
"                                                                                                                                                                                                                                              s y e q q q d V o.>.:.5.e.t.e.9.9.                            = & & & & & & = = & $ = 4 9 h n C ` ;.-.;.=.;.:.,.3.                                                                                                                                                                ",
"                                                                                                                                                                                                                                              a e 9 q q q d l { :.<.>.5.9.t.t.t.                              $ = & = & & & % # + + + @ $ ; < C ' ..' | +.#.-.-.                                                                                                                                                                ",
"                                                                                                                                                                                                                                              s p w q q q u f R >.,.<.<.8.9.t.9.                                  & & & & $ # +   @ + O + @ * q T ` { { X.#.#.+.#.                                                                                                                                                              ",
"                                                                                                                                                                                                                                                a i e e t t d L *.,.,.<.8.8.y.8.4.                                  % @ @         > = @ @ @ @ 3 B ~ { X.X.X.X.X.@.                                                                                                                                                              ",
"                                                                                                                                                                                                                                                b h y e t t d z o.>.:.,.8.8.y.8.,.                                                7 , > - - 4 4 f K ~ ' { ` ' { X.                                                                                                                                                              ",
"                                                                                                                                                                                                                                                m h y q q t t f ( ;.:.:.,.8.t.t.5.                                                e 4 = 4 6 0 t j H R Q ~ ( ` [ ' [                                                                                                                                                             ",
"                                                                                                                                                                                                                                                c a y y y r q t T :.>.:.,.,.9.9.5.                                                a e 7 6 d f g B ~ ~ ~ ^ ` ` ` '                                                                                                                                                               ",
"                                                                                                                                                                                                                                                  p y y y 9 q q F =.,.>.>.,.,.8.5.:.                                            v v h e 0 d z z L ~ ^ ^ { { ^ { ^                                                                                                                                                               ",
"                                                                                                                                                                                                                                                  p y y r 9 q q k O.,.,.>.,.4.5.8.5.                                            b b v d d f j B P ~ ~ ^ { { { { T                                                                                                                                                               ",
"                                                                                                                                                                                                                                                  y 7 7 y y q 5 9 ( ,.,.>.,.,.>.5.>.                                            m m n h f j z L U U ~ R ^ ! ^ ^                                                                                                                                                                 ",
"                                                                                                                                                                                                                                                  w 7 7 9 7 7 7 6 K ,.,.,.>.,.,.4.5.                                            M n b g f j B P U L I U ~ U T T                                                                                                                                                                 ",
"                                                                                                                                                                                                                                                    7 7 7 5 5 8 5 l ;.,.<.,.:.>.>.,.=.                                          N n n j j l V P L x I ~ U I T                                                                                                                                                                   ",
"                                                                                                                                                                                                                                                    2 , , , < 7 5 y X.5.,.,.:.:.:.:.=.                                        C C N N N N l L L V L U I I Z L                                                                                                                                                                   ",
"                                                                                                                                                                                                                                                    , , , , , < < 5 ! 4.<.,.:.;.:.:.;.                                        K C C D C V N L P L L I L L I P                                                                                                                                                                   ",
"                                                                                                                                                                                                                                                    , > > > = , = = M -.,.,.:.:.:.;.;.                                        D C B V B B V P L L U I L P T                                                                                                                                                                     ",
"                                                                                                                                                                                                                                                      > & > = & & & y O.,.,.:.;.;.;.$.                                        Z B B B B V L R L I I L I P Z                                                                                                                                                                     ",
"                                                                                                                                                                                                                                                      % & & & & & & , / :.:.;.;.;.;.$.                                      K K B n l l V U R L L L L I Z Z                                                                                                                                                                     ",
"                                                                                                                                                                                                                                                      # # & % @ % % % l $.=.=.=.$.$.o.                                      K K Z D B B L U U U L L R R Y                                                                                                                                                                       ",
"                                                                                                                                                                                                                                                        % + + O O o o 7 } =.=.#.*.+.}                                       K Z D Z L L I R I I L I U I P                                                                                                                                                                       ",
"                                                                                                                                                                                                                                                              o o # o & T +.+.O.O.X.}                                       Z H L D B Z U U L L L U R V                                                                                                                                                                         ",
"                                                                                                                                                                                                                                                                  c u u C O.+.o.X...                                      D K K Y Z B Z T U L L I ~ ^ Z                                                                                                                                                                         ",
"                                                                                                                                                                                                                                  9.e.9.t.t.9.t.9.8.8.,.-.#.] ) ! W T K H ` O.....}                                       G K K D Z B L U I L L L Y D P                                                                                                                                                                         ",
"                                                                                                                                                                                              p.a.p.s.a.f.f.g.f.k.f.f.f.f.d.d.d.a.a.y.a.a.y.y.y.r.9.8.8.4.-.#.| | / ! T P T } ....(                                       K K K P Z V U U L L P Z B C                                                                                                                                                                           ",
"                                                                                                                                                              1.6.7.0.i.s.a.s.h.f.k.k.k.k.k.l.j.l.j.l.l.k.l.l.l.l.f.f.f.d.f.d.a.a.a.a.y.p.y.y.y.u.y.u.8.9.,.:.-.$.| } ^ Q H ^ } ( ^                                       K K K Z Z C T I L L L Z I Y                                                                                                                                                                           ",
"                                                                                                                                                            S  .0.i.i.i.a.s.s.a.d.h.h.k.k.k.k.k.k.k.k.f.f.k.f.f.f.d.d.d.d.d.f.a.a.a.a.p.u.u.u.y.y.y.y.9.8.8.,.,.-.#.O.} ^ T Q ( ( R                                     K K K C Z C L U I L I I Y T                                                                                                                                                                             ",
"                                                                                                                                                            S ] 3.4.3.3.4.4.w.e.y.a.a.a.a.a.a.a.a.a.a.a.p.a.p.y.y.p.y.p.p.i.t.t.t.e.t.t.y.t.t.t.y.8.y.9.8.8.,.=.$.#.O.#.@.' Q ^ ^                                       G Y K C Z C Y U L L I T P P                                                                                                                                                                             ",
"                                                                                                                                                            A b n M B B B B V L V L I I T W R R Q W T ! T T T T K T P K K I H H F H K I K U R ! ^ ^ ^ } } ^ ! ! ! ! ^ / | ' ~ ~ W                                       K E G C B B T U L P P U P                                                                                                                                                                               ",
"                                                                                                                                                            w % % - : - : 3 3 q 6 0 0 q q q 0 q t t t r r r y t t t u t t u u i u i i i u u r r r r y s l G G F H H P R Q ! ! R I                                       T K G C x G Q P L P K K Y                                                                                                                                                                               ",
"                                                                                                                                                            > + + % * * * * * : 3 0 6 0 0 0 0 0 9 0 9 q q 0 q r t t r r r r r u t u t t u r r r r 5 r y k x G G V F V H T W T U V                                       K K C B l K U F F P P K Y                                                                                                                                                                               ",
"                                                                                                                                                            & + @ @ * * * % * * - 3 3 3 3 5 3 3 3 3 3 5 6 6 6 6 8 8 9 9 9 9 6 r 9 r 9 r r r r 6 r r r r i l x F F C C F U W P F V                                     K K K C n z U P F F Q T T                                                                                                                                                                                 ",
"                                                                                                                                                            % o + @ @ @ * @ * * * - - - - : - - - - : : : 5 5 < < 5 5 5 6 5 6 6 6 6 6 6 6 5 6 0 1 5 6 r r u k x H V C P P U U V                                       K K J C n G U P F P Q T Y                                                                                                                                                                                 ",
"                                                                                                                                                                    @ @ @ * - * = = - * * = = = - - - = - - : : 3 1 6 6 6 6 6 5 5 5 1 3 5 1 5 5 1 5 5 6 r r i h B C B F H B V x                                       E K C B l F P F F T Q T                                                                                                                                                                                   ",
"                                                                                                                                                                                          = = * & = = - = ; ; ; < < 1 1 1 5 1 6 7 5 5 5 < 3 < < < : 1 5 5 r r r h B C B P P V l                                       Y K B l N P P F H T Y Y                                                                                                                                                                                   ",
"                                                                                                                                                                                                                = = = = = = ; = : : : < : < < < < : : : < 5 1 r r t g l C V B j                                     K K B k f B U P H U R K H                                                                                                                                                                                   ",
"                                                                                                                                                                                                                                      = = = ; ; ; : = < : 7 1 6 9 r y f N F x                                       K K n f h V P H F T T P                                                                                                                                                                                     ",
"                                                                                                                                                                                                                                                              1 1 7 9 r y f l                                       K C b h k P U L K T T H                                                                                                                                                                                     ",
"                                                                                                                                                                                                                                                                                                                    K B k j N P H H U T P                                                                                                                                                                                       ",
"                                                                                                                                                                                                                                                                                                                  G B k j j V L F H P Y H                                                                                                                                                                                       ",
"                                                                                                                                                                                                                                                                                                                  N b f f j Z L F K T H H                                                                                                                                                                                       ",
"                                                                                                                                                                                                                                                                                                                  b a f j l Z L F H H H                                                                                                                                                                                         ",
"                                                                                                                                                                                                                                                                                                                  h a h j N Z V N n k k                                                                                                                                                                                         ",
"                                                                                                                                                                                                                                                                                                                  b f d d V L j i i s                                                                                                                                                                                           ",
"                                                                                                                                                                                                                                                                                                                m h a d g B z g f h l                                                                                                                                                                                           ",
"                                                                                                                                                                                                                                                                                                                h d f u g V z l l x n                                                                                                                                                                                           ",
"                                                                                                                                                                                                                                                                                                                e a a u l B z z h j                                                                                                                                                                                             ",
"                                                                                                                                                                                                                                                                                                                e q 8 q l l t q u u                                                                                                                                                                                             ",
"                                                                                                                                                                                                                                                                                                              h d e 8 e l g e t i                                                                                                                                                                                               ",
"                                                                                                                                                                                                                                                                                                              h u q q f g g g d f                                                                                                                                                                                               ",
"                                                                                                                                                                                                                                                                                                              d e q q f d q d d u                                                                                                                                                                                               ",
"                                                                                                                                                                                                                                                                                                              e e q u d d u d d                                                                                                                                                                                                 ",
"                                                                                                                                                                                                                                                                                                            a p q q d f i t q u                                                                                                                                                                                                 ",
"                                                                                                                                                                                                                                                                                                            e e 8 8 d q 6 6 9                                                                                                                                                                                                   ",
"                                                                                                                                                                                                                                                                                                            w 7 5 q t q 5 5 9                                                                                                                                                                                                   ",
"                                                                                                                                                                                                                                                                                                            2 , 4 q q 6 3 6 9                                                                                                                                                                                                   ",
"                                                                                                                                                                                                                                                                                                            # & ; 8 5 4 5 5                                                                                                                                                                                                     ",
"                                                                                                                                                                                                                                                                                                              o $ < : : : >                                                                                                                                                                                                     ",
"                                                                                                                                                                                                                                                                                                                  + O O +                                                                                                                                                                                                       ",
"                                                                                                                                                                                                                                                                                                                                                                                                                                                                                                                                ",
"                                                                                                                                                                                                                                                                                                                                                                                                                                                                                                                                ",
"                                                                                                                                                                                                                                                                                                                                                                                                                                                                                                                                ",
"                                                                                                                                                                                                                                                                                                                                                                                                                                                                                                                                ",
"                                                                                                                                                                                                                                                                                                                                                                                                                                                                                                                                ",
"                                                                                                                                                                                                                                                                                                                                                                                                                                                                                                                                ",
"                                                                                                                                                                                                                                                                                                                                                                                                                                                                                                                                ",
"                                                                                                                                                                                                                                                                                                                                                                                                                                                                                                                                ",
"                                                                                                                                                                                                                                                                                                                                                                                                                                                                                                                                ",
"                                                                                                                                                                                                                                                                                                                                                                                                                                                                                                                                ",
"                                                                                                                                                                                                                                                                                                                                                                                                                                                                                                                                ",
"                                                                                                                                                                                                                                                                                                                                                                                                                                                                                                                                ",
"                                                                                                                                                                                                                                                                                                                                                                                                                                                                                                                                ",
"                                                                                                                                                                                                                                                                                                                                                                                                                                                                                                                                ",
"                                                                                                                                                                                                                                                                                                                                                                                                                                                                                                                                ",
"                                                                                                                                                                                                                                                                                                                                                                                                                                                                                                                                ",
"                                                                                                                                                                                                                                                                                                                                                                                                                                                                                                                                ",
"                                                                                                                                                                                                                                                                                                                                                                                                                                                                                                                                ",
"                                                                                                                                                                                                                                                                                                                                                                                                                                                                                                                                ",
"                                                                                                                                                                                                                                                                                                                                                                                                                                                                                                                                ",
"                                                                                                                                                                                                                                                                                                                                                                                                                                                                                                                                ",
"                                                                                                                                                                                                                                                                                                                                                                                                                                                                                                                                ",
"                                                                                                                                                                                                                                                                                                                                                                                                                                                                                                                                ",
"                                                                                                                                                                                                                                                                                                                                                                                                                                                                                                                                ",
"                                                                                                                                                                                                                                                                                                                                                                                                                                                                                                                                ",
"                                                                                                                                                                                                                                                                                                                                                                                                                                                                                                                                ",
"                                                                                                                                                                                                                                                                                                                                                                                                                                                                                                                                ",
"                                                                                                                                                                                                                                                                                                                                                                                                                                                                                                                                ",
"                                                                                                                                                                                                                                                                                                                                                                                                                                                                                                                                ",
"                                                                                                                                                                                                                                                                                                                                                                                                                                                                                                                                ",
"                                                                                                                                                                                                                                                                                                                                                                                                                                                                                                                                ",
"                                                                                                                                                                                                                                                                                                                                                                                                                                                                                                                                ",
"                                                                                                                                                                                                                                                                                                                                                                                                                                                                                                                                "
};
