/* XPM */
static char *out[] = {
/* columns rows colors chars-per-pixel */
"256 256 151 2 ",
"   c None",
".  c #110A06",
"X  c #130F0F",
"o  c #16110D",
"O  c #1B130D",
"+  c #161110",
"@  c #1D1612",
"#  c #1F1916",
"$  c #211712",
"%  c #251A14",
"&  c #2A1E16",
"*  c #271C18",
"=  c #2A1F18",
"-  c #2E221A",
";  c #34251C",
":  c #38271C",
">  c #37281D",
",  c #3B291E",
"<  c #3C2C22",
"1  c #3E3124",
"2  c #412E22",
"3  c #443225",
"4  c #4A3527",
"5  c #45342A",
"6  c #4A362A",
"7  c #47382E",
"8  c #4D392C",
"9  c #533D2D",
"0  c #4D3C31",
"q  c #4B3B38",
"w  c #523E31",
"e  c #57402F",
"r  c #59412F",
"t  c #564233",
"y  c #5B4433",
"u  c #5E4836",
"i  c #5B4639",
"p  c #5E493B",
"a  c #614733",
"s  c #634936",
"d  c #684C36",
"f  c #634C3B",
"g  c #694F3A",
"h  c #67503E",
"j  c #6C523D",
"k  c #72563F",
"l  c #544941",
"z  c #5D4C40",
"x  c #634E41",
"c  c #665142",
"v  c #6D5442",
"b  c #675648",
"n  c #6B5549",
"m  c #715641",
"M  c #745944",
"N  c #7A5D46",
"B  c #745C4A",
"V  c #7A5E49",
"C  c #775F52",
"Z  c #7E6047",
"A  c #7D624C",
"S  c #766151",
"D  c #7C6352",
"F  c #7F6857",
"G  c #806147",
"H  c #82654D",
"J  c #87684F",
"K  c #88694F",
"L  c #836651",
"P  c #866953",
"I  c #8A6D55",
"U  c #866D5A",
"Y  c #8B6F59",
"T  c #8E7057",
"R  c #8E715A",
"E  c #917256",
"W  c #93755C",
"Q  c #98775C",
"!  c #96785F",
"~  c #997A5E",
"^  c #846D61",
"/  c #8C7361",
"(  c #8D7669",
")  c #927661",
"_  c #967962",
"`  c #9B7C63",
"'  c #947B6C",
"]  c #9A7E69",
"[  c #A07F63",
"{  c #9E8066",
"}  c #9D816A",
"|  c #9A8171",
" . c #A28266",
".. c #A4856A",
"X. c #A8876A",
"o. c #A7886D",
"O. c #AB8A6E",
"+. c #A38671",
"@. c #A68972",
"#. c #AD8D72",
"$. c #A58C7A",
"%. c #AB8F7A",
"&. c #B08F72",
"*. c #AF9075",
"=. c #AF927A",
"-. c #B29275",
";. c #B4957A",
":. c #B89779",
">. c #B7987E",
",. c #BA9A7D",
"<. c #C09E7E",
"1. c #AD9380",
"2. c #B29782",
"3. c #B69A81",
"4. c #BB9D82",
"5. c #B69C89",
"6. c #BB9E88",
"7. c #BEA185",
"8. c #BEA289",
"9. c #BAA294",
"0. c #C09F81",
"q. c #C3A385",
"w. c #C4A689",
"e. c #C6A88B",
"r. c #CAAB8C",
"t. c #C5AB92",
"y. c #CCAE91",
"u. c #C7B197",
"i. c #CEB192",
"p. c #CCB39A",
"a. c #D1B495",
"s. c #D5B897",
"d. c #D3B699",
"f. c #D6BA9B",
"g. c #D9BE9D",
"h. c #D4BDA1",
"j. c #DABEA1",
"k. c #DBC09F",
"l. c #D5C1A5",
"z. c #DDC3A3",
"x. c #D3C1A9",
"c. c #DBC7AD",
"v. c #DCCDB4",
"b. c #DFD1B9",
"n. c #E2CBAA",
"m. c #E5D0AF",
"M. c #E0CEB3",
"N. c #E6D3B5",
"B. c #E5D4BA",
"V. c #E8D6BA",
"C. c #E6D8BC",
/* pixels */
"                                                                                                                                                                                                                                                                                                                                                                                                                                                                                                                                ",
"                                                                                                                                                                                                                                                                                                                                                                                                                                                                                                                                ",
"                                                                                                                                                                                                                                                                                                                                                                                                                                                                                                                                ",
"                                                                                                                                                                                                                                                                                                                                                                                                                                                                                                                                ",
"                                                                                                                                                                                                                                                                                                                                                                                                                                                                                                                                ",
"                                                                                                                                                                                                                                                                                                                                                                                                                                                                                                                                ",
"                                                                                                                                                                                                                                                                                                                                                                                                                                                                                                                                ",
"                                                                                                                                                                                                                                                                                                                                                                                                                                                                                                                                ",
"                                                                                                                                                                                                                                                                                                                                                                                                                                                                                                                                ",
"                                                                                                                                                                                                                                                                                                                                                                                                                                                                                                                                ",
"                                                                                                                                                                                                                                                                                                                                                                                                                                                                                                                                ",
"                                                                                                                                                                                                                                                                                                                                                                                                                                                                                                                                ",
"                                                                                                                                                                                                                                                                                                                                                                                                                                                                                                                                ",
"                                                                                                                                                                                                                                                                                                                                                                                                                                                                                                                                ",
"                                                                                                                                                                                                                                                                                                                                                                                                                                                                                                                                ",
"                                                                                                                                                                                                                                                                                                                                                                                                                                                                                                                                ",
"                                                                                                                                                                                                                                                                                                                                                                                                                                                                                                                                ",
"                                                                                                                                                                                                                                                                                                                                                                                                                                                                                                                                ",
"                                                                                                                                                                                                                                                                                                                                                                                                                                                                                                                                ",
"                                                                                                                                                                                                                                                                                                                                                                                                                                                                                                                                ",
"                                                                                                                                                                                                                                                                                                                                                                                                                                                                                                                                ",
"                                                                                                                                                                                                                                                                                                                                                                                                                                                                                                                                ",
"                                                                                                                                                                                                                                                                                                                                                                                                                                                                                                                                ",
"                                                                                                                                                                                                                                                                                                                                                                                                                                                                                                                                ",
"                                                                                                                                                                                                                                                                                                                                                                                                                                                                                                                                ",
"                                                                                                                                                                                                                                                                                                                                                                                                                                                                                                                                ",
"                                                                                                                                                                                                                                                                                                                                                                                                                                                                                                                                ",
"                                                                                                                                                                                                                                                                                                                                                                                                                                                                                                                                ",
"                                                                                                                                                                                                                                                                                                                                                                                                                                                                                                                                ",
"                                                                                                                                                                                                                                                                                                                                                                                                                                                                                                                                ",
"                                                                                                                                                                                                                    b.b.                                                                                                                                                                                                                                                                                                        ",
"                                                                                                                                                                                                                  x.N.N.V.V.V.C.C.B.b.v.v.v.                                                                                                                                                                                                                                                                                    ",
"                                                                                                                                                                                                                  l.k.k.z.k.k.n.n.n.n.l.m.m.m.n.N.C.m.v.v.n.l.l.                                                                                                                                                                                                                                                                ",
"                                                                                                                                                                                                                  l.k.k.k.k.k.k.k.k.k.k.z.z.l.k.z.z.z.k.n.m.n.k.z.z.z.j.h.d.h.u.                                                                                                                                                                                                                                                ",
"                                                                                                                                                                                                                  m.k.g.k.k.k.k.k.k.k.k.k.k.k.k.k.k.k.k.k.k.k.i.a.s.y.r.i.r.r.r.t.                                                                                                                                                                                                                                              ",
"                                                                                                                                                                                                                  l.s.g.g.g.g.s.k.k.k.k.k.k.k.k.k.k.k.k.k.k.k.k.f.y.y.e.0.0.0.0.6.                                                                                                                                                                                                                                              ",
"                                                                                                                                                                                                                  k.k.k.s.s.s.s.k.k.k.r.k.k.r.k.k.k.i.k.k.r.k.k.a.i.r.r.i.r.r.r.q.                                                                                                                                                                                                                                              ",
"                                                                                                                                                                                                                  n.k.k.s.i.i.i.<.r.k.r.k.<.k.<.r.k.k.r.k.r.k.<.i.r.i.i.i.i.a.a.w.                                                                                                                                                                                                                                              ",
"                                                                                                                                                                                                                8.k.8.k.u.i.r.r.<.k.<.8.r.k.<.k.k.k.e.k.k.k.k.r.r.i.i.i.i.r.r.r.8.                                                                                                                                                                                                                                              ",
"                                                                                                                                                                                                                u.r.k.<.r.e.e.e.<.<.<.k.r.r.i.e.<.<.k.<.<.k.r.k.i.i.r.r.r.r.r.r.8.                                                                                                                                                                                                                                              ",
"                                                                                                                                                                                                                u.r.r.r.e.q.q.q.r.8.u.e.r.r.r.r.<.<.r.<.<.k.k.<.r.r.w.w.e.w.r.r.                                                                                                                                                                                                                                                ",
"                                                                                                                                                                                                                u.u.e.e.q.<.q.q.<.r.<.e.<.r.e.r.k.<.8.k.8.<.<.r.e.0.e.q.w.w.e.w.                                                                                                                                                                                                                                                ",
"                                                                                                                                                                                                                u.e.e.q.q.<.7.q.<.<.e.e.e.e.e.e.k.<.k.<.k.k.<.<.r.0.q.r.r.r.r.e.                                                                                                                                                                                                                                                ",
"                                                                                                                                                                                                                u.r.e.q.<.q.<.7.r.<.<.e.<.<.e.e.8.<.<.<.<.<.<.k.r.r.e.w.r.r.r.r.                                                                                                                                                                                                                                                ",
"                                                                                                                                                                                                                u.q.7.q.7.,.,.,.7.q.<.q.e.e.e.e.<.<.<.k.<.k.<.k.i.r.r.r.e.r.r.r.                                                                                                                                                                                                                                                ",
"                                                                                                                                                                                                                q.7.,.,.<.<.<.,.,.,.<.<.<.<.e.<.k.<.r.<.<.<.r.<.r.r.r.r.w.r.r.r.                                                                                                                                                                                                                                                ",
"                                                                                                                                                                                                                7.,.:.:.-.,.7.,.,.:.,.,.,.<.<.<.8.r.<.<.<.k.8.r.q.r.r.r.w.w.e.e.                                                                                                                                                                                                                                                ",
"                                                                                                                                                                                                                :.-.:.-.*.*.-.-.-.*.-.:.:.,.<.<.<.<.<.k.<.<.<.<.q.r.r.r.e.w.e.w.                                                                                                                                                                                                                                                ",
"                                                                                                                                                                                                              $.*.O.&.&.O.X.O.&.&.&.-.-.:.:.,.,.,.<.<.<.k.<.<.k.r.q.r.r.r.r.r.<.                                                                                                                                                                                                                                                ",
"                                                                                                                                                                                                              %.O.O.O.O.&.O.O.O.#.&.-.-.-.-.-.:.,.,.<.<.8.8.<.<.q.q.<.r.q.r.r.q.                                                                                                                                                                                                                                                ",
"                                                                                                                                                                                                              $.O.X.O.O.X.X.O.&.#.&.&.X.O.O.&.-.:.:.,.,.<.<.<.<.q.q.q.r.e.e.q.                                                                                                                                                                                                                                                  ",
"                                                                                                                                                                                                              $.o.o.X.X. .X.O.&.&.&.&.*.O.O.X.O.&.-.:.,.<.<.<.<.<.<.<.q.q.r.q.                                                                                                                                                                                                                                                  ",
"                                                                                                                                                                                                              @. .X.X. . .X.O.&.*.-.O.&.O.O.X.O.O.&.-.:.:.:.<.<.,.q.0.q.<.q.<.                                                                                                                                                                                                                                                  ",
"                                                                                                                                                                                                              +. . .X. . . .X.O.&.O.O.O.O.O.O.O.O.&.-.-.:.:.:.<.:.,.<.<.<.0.<.                                                                                                                                                                                                                                                  ",
"                                                                                                                                                                                                              }  . . . . . . .X.O.X.X.O.O.O.O.O.O.O.&.-.-.-.:.<.:.:.:.:.,.,.<.                                                                                                                                                                                                                                                  ",
"                                                                                                                                                                                                              o.{ E E {  .{ {  .O.X.o.#.O.O.O.X.O.&.&.-.-.-.-.-.:.:.:.:.:.<.,.                                                                                                                                                                                                                                                  ",
"                                                                                                                                                                                                              _ E E { E  . . .X.O.O.O.X.X.X.X.X.O.O.&.&.-.-.-.&.&.-.:.:.0.<.:.                                                                                                                                                                                                                                                  ",
"                                                                                                                                                                                                            ^ L K K K K K E  . .O.X.X.X.X.X.X.X.X.O.O.&.-.-.-.&.&.&.:.:.,.:.;.                                                                                                                                                                                                                                                  ",
"                                                                                                                                                                                                            ( Y K K K K K K K  . . . . . ... .O.X.X.&.&.-.-.-.&.&.O.&.:.:.:.-.                                                                                                                                                                                                                                                  ",
"                                                                                                                                                                                                            U I K K K K K K G K Q  . . . . . .X.X.O.O.&.&.&.-.&.&.O.&.&.&.&.%.                                                                                                                                                                                                                                                  ",
"                                                                                                                                                                                                            S Z J J H J K K E K Q {  . . . . .X.X.O.O.O.&.&.&.O.O.O.O.O.X.O.                                                                                                                                                                                                                                                    ",
"                                                                                                                                                                                                            z u g j k Z G G K E E ~  . . . .X.X.X.O.&.O.&.&.O.X.X.O.X.O.O.O.                                                                                                                                                                                                                                                    ",
"                                                                                                                                                                                                                    8 e r u a d M Z K E Q [  . .X.X.O.O.&.&.O.X. .X. .[  ...                                                                                                                                                                                                                                                    ",
"                                                                                                                                                                                                                                  : ; , 2 9 a d k G K Q `  ...` [  .X. . . .                                                                                                                                                                                                                                                    ",
"                                                                                                                                                                                                                                    O O O O $ % * & ;     c m c m B A P I Y                                                                                                                                                                                                                                                     ",
"                                                                                                                                                                                                                                    * $ @ @ $ $ $ O @                                                                                                                                                                                                                                                                           ",
"                                                                                                                                                                                                                                  5 < > > ; ; ; - & <                                                                                                                                                                                                                                                                           ",
"                                                                                                                                                                                                                                  q < 7 8 8 8 6 6 7 n                                                                                                                                                                                                                                                                           ",
"                                                                                                                                                                                                                                  l 0 i f f g g i g /                                                                                                                                                                                                                                                                           ",
"                                                                                                                                                                                                                                    f M B M M M M A }                                                                                                                                                                                                                                                                           ",
"                                                                                                                                                                                                                                    M L P A D L P Y @.                                                                                                                                                                                                                                                                          ",
"                                                                                                                                                                                                                                    A Y R I I Y W _ %.                                                                                                                                                                                                                                                                          ",
"                                                                                                                                                                                                                                    P W Y Y Y W ` ..=.                                                                                                                                                                                                                                                                          ",
"                                                                                                                                                                                                                                    R ! W W I E W ..>.                                                                                                                                                                                                                                                                          ",
"                                                                                                                                                                                                                                    P _ R _ ) W W ..5.                                                                                                                                                                                                                                                                          ",
"                                                                                                                                                                                                                                    m R W ` ` ` ! ` *.                                                                                                                                                                                                                                                                          ",
"                                                                                                                                                                                                              9.t.9.                ^ _ ] @.o.o...] @.                                                                                                                                                                                                                                                                          ",
"                                                                                                                                                                                                              3.2.5.0.6.0.0.q.0.q.8.0.q.w.w.e.r.w.q.q.q.q.8.6.5.5.2.1.$.$.$.                                                                                                                                                                                                                                                    ",
"                                                                                                                                                                                                              o.[ ..o.O.&.&.-.3.,.:.,.<.0.0.0.<.w.q.q.q.q.q.w.w.q.6.4.4.3.5.=.                                                                                                                                                                                                                                                  ",
"                                                                                                                                                                                                              o.X.X.O.O.X.&.:.0.8.6.<.<.,.<.<.<.q.q.<.<.4.0.0.0.4.3.3.3.:.3.;.                                                                                                                                                                                                                                                  ",
"                                                                                                                                                                                                            ' #.@.X.#.#.&.-.0.d.h.f.p.8.<.<.,.:.<.,.,.,.<.<.8.8.0.4.;.3.3.4.;.                                                                                                                                                                                                                                                  ",
"                                                                                                                                                                                                            ' #.&.#.#.&.-.4.r.f.h.z.z.l.l.i.8.<.,.>.>.>.>.,.<.<.4.3.;.4.3.;.1.                                                                                                                                                                                                                                                  ",
"                                                                                                                                                                                                            | *.:.-.&.&.:.0.i.i.d.f.k.f.k.k.l.u.8.<.,.>.>.,.>.<.4.4.4.:.:.3.                                                                                                                                                                                                                                                    ",
"                                                                                                                                                                                                            | ;.:.:.:.-.;.0.y.i.d.t.t.y.a.a.k.u.,.,.,.8.<.<.8.<.0.0.4.4.4.4.                                                                                                                                                                                                                                                    ",
"                                                                                                                                                                                                            } -.&.O.&.&.:.a.d.a.a.p.y.r.7.i.i.<.;.*.>.,.<.<.<.<.0.4.0.3.-.1.                                                                                                                                                                                                                                                    ",
"                                                                                                                                                                                                            ] @.O.O.&.&.e.g.j.f.d.d.a.p.k.8.<.>.-.*.*.*.,.<.<.8.0.3.0.2.-.&.                                                                                                                                                                                                                                                    ",
"                                                                                                                                                                                                            } #.O.X.X.-.a.s.s.f.s.d.a.a.r.e.<.-.*.-.*.O.*.,.,.<.0.3.0.3.1.&.                                                                                                                                                                                                                                                    ",
"                                                                                                                                                                                                            | -.O.X.[ q.a.a.a.a.y.y.y.r.k.8.,.-.*.*.*.#.*.,.,.,.3.0.3.0.0.1.                                                                                                                                                                                                                                                    ",
"                                                                                                                                                                                                            ] o.X.` #.a.d.f.s.a.a.y.y.y.r.0.;.-.&.-.#.O.-.,.,.,.0.4.4.4.0.3.                                                                                                                                                                                                                                                    ",
"                                                                                                                                                                                                            ` .. .[ w.a.a.d.s.s.s.d.i.i.w.3.;.&.&.#.O.O.-.,.>.>.4.4.0.0.q.6.                                                                                                                                                                                                                                                    ",
"                                                                                                                                                                                                            _ .. .-.a.f.d.a.a.s.d.s.d.i.q.:.:.&.&.O.O.#.:.:.:.:.:.:.,.4.4.3.                                                                                                                                                                                                                                                    ",
"                                                                                                                                                                                                            '  ...0.i.a.a.p.i.a.i.i.i.r.0.4.:.;.#.&.O.-.:.:.:.:.,.3.,.4.4.4.                                                                                                                                                                                                                                                    ",
"                                                                                                                                                                                                            _ [ &.y.y.r.r.i.i.i.i.i.r.q.:.:.:.-.&.-.O.-.-.-.:.-.,.4.,.,.4.4.                                                                                                                                                                                                                                                    ",
"                                                                                                                                                                                                            ' ..w.g.f.a.i.r.r.r.r.r.w.,.3.:.:.-.-.-.#.-.-.-.*.-.:.4.,.,.:.,.                                                                                                                                                                                                                                                    ",
"                                                                                                                                                                                                            _ ;.a.z.g.a.a.r.e.w.q.q.,.,.:.:.;.-.-.-.-.-.-.-.-.*.-.,.4.;.,.3.                                                                                                                                                                                                                                                    ",
"                                                                                                                                                                                                            } q.a.a.a.y.i.i.r.e.e.7.:.:.:.;.;.-.*.*.>.;.-.-.-.*.&.-.:.;.:.,.                                                                                                                                                                                                                                                    ",
"                                                                                                                                                                                                            %.i.i.r.i.r.r.y.r.r.<.<.,.>.:.-.-.&.O.-.:.:.-.;.-.-.&.&.;.;.:.4.                                                                                                                                                                                                                                                    ",
"                                                                                                                                                                                                            w.p.a.a.s.a.a.r.e.w.,.,.,.>.:.-.-.O.O.:.-.:.-.-.;.-.-.-.-.:.:.;.                                                                                                                                                                                                                                                    ",
"                                                                                                                                                                                                            a.a.a.a.i.a.a.y.r.0.:.:.:.:.-.-.*.O.*.:.:.-.-.;.:.-.;.:.;.;.:.>.                                                                                                                                                                                                                                                    ",
"                                                                                                                                                                                                          y.a.y.r.i.q.e.y.r.q.:.:.:.-.-.-.-.O.*.&.-.-.:.;.:.:.:.;.;.;.:.;.3.                                                                                                                                                                                                                                                    ",
"                                                                                                                                                                                                          i.a.i.r.r.r.r.0.,.;.-.:.:.:.-.-.&.&.&.-.-.-.-.:.:.:.-.-.;.;.;.;.>.                                                                                                                                                                                                                                                    ",
"                                                                                                                                                                                                        u.d.a.i.a.a.a.i.r.q.:.:.-.:.:.-.&.&.O.O.-.:.&.*.-.*.-.-.-.-.-.;.;.;.                                                                                                                                                                                                                                                    ",
"                                                                                                                                                                                                        a.a.i.i.a.i.r.r.a.r.:.&.-.:.-.&.&.&.O.*.-.-.-.-.-.*.&.&.&.-.;.&.;.;.                                                                                                                                                                                                                                                    ",
"                                                                                                                                                                                                      p.a.i.i.a.a.r.i.e.e.4.;.&.-.-.-.&.&.O.&.*.-.-.-.*.&.-.&.*.&.&.-.#.;.;.                                                                                                                                                                                                                                                    ",
"                                                                                                                                                                                                      i.a.a.d.i.i.a.i.i.r.<.&.&.&.&.&.&.O.O.*.*.-.-.-.-.-.-.-.*.&.&.&.%.&.;.                                                                                                                                                                                                                                                    ",
"                                                                                                                                                                                                    p.i.i.i.i.i.r.r.r.i.r.:.&.&.&.&.&.O.O.O.O.*.-.-.-.-.-.-.-.#.#.#.&.&.;.%.                                                                                                                                                                                                                                                    ",
"                                                                                                                                                                                                    a.i.i.i.i.i.a.r.e.q.<.-.&.&.&.-.&.O.X.O.*.*.-.-.;.-.-.;.-.#.#.#.&.&.;.#.                                                                                                                                                                                                                                                    ",
"                                                                                                                                                                                                  y.i.i.a.i.i.r.r.q.0.<.&.O.O.O.X.O.O.X.O.O.#.*.*.*.-.-.-.-.-.-.#.&.#.#.#.;.                                                                                                                                                                                                                                                    ",
"                                                                                                                                                                                                  i.y.y.i.r.r.r.r.<.,.O. . . . . . . .X.O.O.O.*.*.*.O.-.-.O.-.O.#.@.#.#.#.%.                                                                                                                                                                                                                                                    ",
"                                                                                                                                                                                                w.r.r.w.w.e.r.r.e.<.&.X. .[  . .{  . .O.o.o.O.*.*.&.-.-.-.-.*.O.#.#.#.#.#.#.                                                                                                                                                                                                                                                    ",
"                                                                                                                                                                                                w.w.w.7.q.w.7.,.<.:.X. . .~  .[ { { ..o.o.*.O.#.O.-.*.-.-.*.-.O.o.O.&.&.#.&.                                                                                                                                                                                                                                                    ",
"                                                                                                                                                                                              4.q.7.7.w.q.7.,.*.-.*. . .[ [ [ [ ! { ..X.o.o.*.O.*.*.O.O.O.*.O.*.O.o.#.&.*.;.                                                                                                                                                                                                                                                    ",
"                                                                                                                                                                                              3.>.,.w.w.4.:.*.{ ..]  . .` [ ~ Q ~ ......o.o.O.#.O.o.o.o.*.#.O.-.&.@.O.#.-.-.                                                                                                                                                                                                                                                    ",
"                                                                                                                                                                                            >.;.*.#.*.:.>.*...{ ~ ~ ~ ~ Q Q E E { ........o.o.......X.X...#.O.*.;.#.#.#.#.;.                                                                                                                                                                                                                                                    ",
"                                                                                                                                                                                            %.#.o.{ W W { ` ! ` ` ~ ~ Q Q Q E Q { ..} o...O.o.{ ..{  .X.o.O.o.o.#.&.#.#.#.&.                                                                                                                                                                                                                                                    ",
"                                                                                                                                                                                          +.o...{ ! ` ` W R W ` ` ~ W W E E E ` { ........{ .... .....X...o.O.O.#.&.&.#.o.#.                                                                                                                                                                                                                                                    ",
"                                                                                                                                                                                          ] ] W P J I W W ` ..` ` ~ W I I I T ! { { { { { { ..{  ... . . ...X.X...o.O.o.O.#.                                                                                                                                                                                                                                                    ",
"                                                                                                                                                                                          _ ....Y U U W _ ] ] R W ` ~ E K P W W R ! { { { { { { ` ` { ` { .. .{ ` [ ..o.o.o.                                                                                                                                                                                                                                                    ",
"                                                                                                                                                                                        5.t.y.t.t.w.8.9.5.;.;.} Y P I I K E W W R W ! { { { { { ` ~ ! ~ ` {  . .` ` `  .....                                                                                                                                                                                                                                                    ",
"                                                                                                                                                                                          ;.-.;.%...[ [ ..o.%.3.=.R H H J I R W { W W W { { { { ` ` ` ! ! ` { { [ [ ` [ ..@.@.                                                                                                                                                                                                                                                  ",
"                                                                                                                                                                                          } ] ` [ ..` ` -.4.;.@.@.@.] / I Y T R R { T W W { W { { { R W ! ` ` ` ` ] [  .......                                                                                                                                                                                                                                                  ",
"                                                                                                                                                                                          R ` ` ` ....` O.:.,.*.o.o.o...W W R I T W { { { W { R T W W W ! ! ` ` ~ ` ~ ] ....@.                                                                                                                                                                                                                                                  ",
"                                                                                                                                                                                            ) ` ~ ] ....o.o.:.4.*.#.#.o.~ I I P I I T { { { W { { W { W ! ! ! ! ` ` ~ ` ] ....                                                                                                                                                                                                                                                  ",
"                                                                                                                                                                                            Y W W W [ ..` ! X.4.:.&.O.#.] I P P I P P I T W { W { ! { ! ! ! { { ` ~ ` ) ` ..@.                                                                                                                                                                                                                                                  ",
"                                                                                                                                                                                            A P P I W Y E Q ` :.3.&.#.#...I J P P P I T T { W { W { { W W ! ! ! W _ _ _ ` ]  .                                                                                                                                                                                                                                                  ",
"                                                                                                                                                                                              B M A P I P E W O.:.;.&.#.@.Y P P F P P K P I T { W W W { ! W W W W W Q W ` `  .                                                                                                                                                                                                                                                  ",
"                                                                                                                                                                                              c g s g V J J H ` ;.;.#.#.#.W J P K F Z J P T T T R ! { ! W W W W W W R W ` ` ]                                                                                                                                                                                                                                                   ",
"                                                                                                                                                                                              f s i f M H J H E ;.&.&.&.&.W H P K P J A A P I I R R T W W W R T E W E E W ` `                                                                                                                                                                                                                                                   ",
"                                                                                                                                                                                                f f f m M Z Z K #.;.;.;.-.! A D P U L L L L L H I Y E E E Y E I I I R Y E R _                                                                                                                                                                                                                                                   ",
"                                                                                                                                                                                                B A A B N N Z J ..:.>.,.;.{ Z Z G L L L I I K L L Y Y E ) W E I I I I I E E W                                                                                                                                                                                                                                                   ",
"                                                                                                                                                                                                b Z A A Z Z Z Z { ;.<.,.:.o.S Z G C V G L P Y I I I I Y Y E I Y I I Y I I Y Y                                                                                                                                                                                                                                                   ",
"                                                                                                                                                                                                  t f M A J Z Z E ,.7.7.,.#.A Z G V G V G L L L I J Y Y Y E Y I U I I I P I Y                                                                                                                                                                                                                                                   ",
"                                                                                                                                                                                                  t t t m A A J I -.q.7.7.:.J Z m m M M m G G L L P I L Y Y Y I P P I P I I P U                                                                                                                                                                                                                                                 ",
"                                                                                                                                                                                                  t e t h A Z F H  .<.7.8.7.P j v m m m m g m G H L L I P P I Y P P P P P P U Y                                                                                                                                                                                                                                                 ",
"                                                                                                                                                                                                    7 t s Z A Z Z W <.<.7.7.W h g v v m m v v m B G H H L P P Y I P P P P P I U                                                                                                                                                                                                                                                 ",
"                                                                                                                                                                                                    7 e u k F K H T ;.7.7.8.} v m v v v m v g v m M M G G H L L P P L L L H L I                                                                                                                                                                                                                                                 ",
"                                                                                                                                                                                                    0 8 i f B J I K *.<.7.7.} Z j j j g m m v g m m m M G M G H J L H H V V V D                                                                                                                                                                                                                                                 ",
"                                                                                                                                                                                                      7 e e u A E T X.7.7.7.%.Z m v g x d v m v v v m j m m M G N N m v c g g c                                                                                                                                                                                                                                                 ",
"                                                                                                                                                                                                      e 7 4 e v R R { 7.7.q.;.M g m d a d m v G ] ) Y n a f x x t 7 5 1 <                                                                                                                                                                                                                                                       ",
"                                                                                                                                                                                                        1 7 e p P T Q :.7.7.>.h , 2 2 2 a x d I ] ] ] [ ) ` ` Q C                                                                                                                                                                                                                                                               ",
"                                                                                                                                                                                                        4 e e t A P J *.0.6.4.f . % : : 9 r a P @.@.@.%.@.o.O.+.^                                                                                                                                                                                                                                                               ",
"                                                                                                                                                                                                        5 4 8 e B Z Z ..4.q.6.C . & , 3 9 r r H @.@.@.[ #.@.#.%.'                                                                                                                                                                                                                                                               ",
"                                                                                                                                                                                                          4 7 e M Z N ~ ,.7.0.W O $ : 4 r 9 r H @.%.#.@.#.#.*.*.+.'                                                                                                                                                                                                                                                             ",
"                                                                                                                                                                                                          7 5 e M N N W :.7.0.[ $ O : 3 r d x H @.=.#.#.%.%.;.:.$.+.                                                                                                                                                                                                                                                            ",
"                                                                                                                                                                                                            5 8 m Z k T -.7.w.%.- o % , r d j Z @.;.*.;.>.;.:.3.=.$.                                                                                                                                                                                                                                                            ",
"                                                                                                                                                                                                            5 8 j A k J O.<.8.>.7 O O : 9 9 d Z @.>.;.>.4.3.3.4.2.;.5.                                                                                                                                                                                                                                                          ",
"                                                                                                                                                                                                            t 8 h A Z A { >.7.8.z * @ ; 8 9 a Z @.=.=.,.4.4.4.3.3.3.6.                                                                                                                                                                                                                                                          ",
"                                                                                                                                                                                                              5 t A H H { ,.7.7.C - * - 8 9 a k ..;.;.4.q.4.,.3.3.:.7.                                                                                                                                                                                                                                                          ",
"                                                                                                                                                                                                              5 1 h A Z T ;.,.>.F < < - 9 9 j M } ;.;.3.w.6.:.,.3.3.q.0.                                                                                                                                                                                                                                                        ",
"                                                                                                                                                                                                              5 1 e Z Z Z #.=.>./ 0 < < 8 y d k ` ;.#.#.6.q.3.,.>.3.6.t.                                                                                                                                                                                                                                                        ",
"                                                                                                                                                                                                                < 1 y s f ! -.=.] w 3 6 8 9 9 j ` ;.;.;.,.4.3.3.3.3.0.t.                                                                                                                                                                                                                                                        ",
"                                                                                                                                                                                                                < > 1 4 4 A *.=.| i 0 9 8 9 9 k W >.>.>.4.,.,.>.:.4.6.e.w.                                                                                                                                                                                                                                                      ",
"                                                                                                                                                                                                                  > 5 9 9 M o.;.@.c z q 8 w w k W -.;.-.,.3.3.;.>.4.w.e.t.                                                                                                                                                                                                                                                      ",
"                                                                                                                                                                                                                  - 2 r a k } ;.1.B x w 8 8 8 d I #.&.-.:.>.>.;.;.4.w.t.t.                                                                                                                                                                                                                                                      ",
"                                                                                                                                                                                                                  - > 4 a k _ *.%.C x 0 2 4 8 a J &.-.;.:.:.3.;.;.3.6.e.t.8.                                                                                                                                                                                                                                                    ",
"                                                                                                                                                                                                                    - > 9 f Y #.1.U z 3 5 8 9 s H O.-.;.;.;.;.;.2.3.6.w.t.e.                                                                                                                                                                                                                                                    ",
"                                                                                                                                                                                                                    & - , 9 N ..1./ i 7 9 9 9 a H X.&.-.-.;.>.;.=.>.7.8.e.t.                                                                                                                                                                                                                                                    ",
"                                                                                                                                                                                                                      * = , y ) [ / z 0 w 9 9 a N X.&.-.-.;.:.;.>.>.7.8.e.9.                                                                                                                                                                                                                                                    ",
"                                                                                                                                                                                                                      & * * - 9 x c p w 9 w 9 r N X.&.-.-.;.,.>.3.>.,.7.w.t.8.                                                                                                                                                                                                                                                  ",
"                                                                                                                                                                                                                      @ @ @ @ *   p p w w 9 9 a m ..&.&.;.:.,.>.;.>.3.7.8.e.w.                                                                                                                                                                                                                                                  ",
"                                                                                                                                                                                                                                  x x t w w 9 a k  .&.-.;.,.6.,.;.3.4.7.7.e.8.                                                                                                                                                                                                                                                  ",
"                                                                                                                                                                                                                                  c p t w t 9 y k ~ &.&.-.>.7.4.2.3.3.4.7.8.e.8.                                                                                                                                                                                                                                                ",
"                                                                                                                                                                                                                                  x f i w 9 9 a k Q &.&.-.>.3.6.3.>.>.4.7.w.e.8.                                                                                                                                                                                                                                                ",
"                                                                                                                                                                                                                                    x p i y 9 y j ~ O.&.#.>.3.4.7.3.*.>.8.8.8.w.                                                                                                                                                                                                                                                ",
"                                                                                                                                                                                                                                    x p t w y y j Q O.O.*.;.>.7.4.3.*.;.4.8.e.8.5.                                                                                                                                                                                                                                              ",
"                                                                                                                                                                                                                                    c f w w 9 y d E O.-.*.;.>.>.4.3.;.-.3.7.8.7.3.                                                                                                                                                                                                                                              ",
"                                                                                                                                                                                                                                    c f y 9 y y f I O.O.*.=.>.3.4.5.:.;.;.7.8.3.>.                                                                                                                                                                                                                                              ",
"                                                                                                                                                                                                                                    c v i y w y d K O.O.*.;.;.>.3.4.;.#.;.4.8.7.>.=.                                                                                                                                                                                                                                            ",
"                                                                                                                                                                                                                                    n f w y t y a H O.O.#.:.>.4.3.7.:.*.-.3.8.8.,.>.                                                                                                                                                                                                                                            ",
"                                                                                                                                                                                                                                    c x t t y r s H X.O.@.;.>.>.3.3.:.*.=.>.8.8.3.3.                                                                                                                                                                                                                                            ",
"                                                                                                                                                                                                                                    c x t t y r a G X.&.#.;.>.3.,.7.;.-.-.;.7.8.7.4.2.                                                                                                                                                                                                                                          ",
"                                                                                                                                                                                                                                    n n f y y y a N X.O.#.=.;.>.>.4.;.O.=.=.3.8.8.4.3.                                                                                                                                                                                                                                          ",
"                                                                                                                                                                                                                                    S B p t y y a m  .&.&.&.;.>.7.7.#...-.-.>.>.7.4.4.                                                                                                                                                                                                                                          ",
"                                                                                                                                                                                                                                    B n u i y y a k [ O.#.#.;.>.3.,.#.{ @.*.*.*.=.3.7.2.                                                                                                                                                                                                                                        ",
"                                                                                                                                                                                                                                    n c i u u r a k ` #.#.#.;.3.7.>.#.W  ...@.*.=.4.4.5.                                                                                                                                                                                                                                        ",
"                                                                                                                                                                                                                                    n c i p u i y j ~ O.#.#.#.;.7.3.*.R ~ { @.*.=.3.7.7.                                                                                                                                                                                                                                        ",
"                                                                                                                                                                                                                                    b c p f s i s j ` #.#.#.*.;.3.>.*.T ! ..} o.=.>.7.7.                                                                                                                                                                                                                                        ",
"                                                                                                                                                                                                                                      x i p d f s j ~ #.*.#.#.-.>.>.@.P R } ....@.=.>.8.8.                                                                                                                                                                                                                                      ",
"                                                                                                                                                                                                                                      c i p c j s d W #.*.#.*.;.;.,.;.P P ] } +.@.*.;.8.8.                                                                                                                                                                                                                                      ",
"                                                                                                                                                                                                                                      x i i p u f j Y #.#.*.*.=.=.>.:.P A _ } ..%.%.=.7.8.                                                                                                                                                                                                                                      ",
"                                                                                                                                                                                                                                      p i i t u d d Y #.*.-.*.;.;.>.;.L B R { ] @.=.;.2.3.8.                                                                                                                                                                                                                                    ",
"                                                                                                                                                                                                                                      z i t t u g v I #.*.;.*.*.;.;.>.D j P _ } #.=.=.;.5.8.                                                                                                                                                                                                                                    ",
"                                                                                                                                                                                                                                      p i t t t a f L @.*.*.-.-.*.*.:.P u A W } o.=.=.;.3.8.                                                                                                                                                                                                                                    ",
"                                                                                                                                                                                                                                      p t t t y y y B @.*.*.*.O.*.*.;.P y M Y } | =.=.;.;.>.3.                                                                                                                                                                                                                                  ",
"                                                                                                                                                                                                                                      p i i t t 9 9 j } #.#.*.*.*.#.-.R e f P ` } @.;.;.>.2.3.                                                                                                                                                                                                                                  ",
"                                                                                                                                                                                                                                      z i w w t y y g } #.#.#.*.*.-.-.W e 9 B W ] ..*.;.=.>.3.1.                                                                                                                                                                                                                                ",
"                                                                                                                                                                                                                                      p i w 0 w y w f ` %.@.#.*.#.-.-._ e y j P { } @.=.>.>.3.2.                                                                                                                                                                                                                                ",
"                                                                                                                                                                                                                                      w 0 5 7 8 9 i d ) o.@.@.*.-.#.-.` 4 e j J _ +.@.;.=.>.>.1.                                                                                                                                                                                                                                ",
"                                                                                                                                                                                                                                      5 < < 5 7 w y f W ..@.o.#.#.#.-.` 2 3 9 B R @.#.=.;.>.;.2.1.                                                                                                                                                                                                                              ",
"                                                                                                                                                                                                                                        7 5 7 5 9 w 9 I ....@.O.#.#.&.` < : 4 a U ..@.*.=.=.=.=.>.                                                                                                                                                                                                                              ",
"                                                                                                                                                                                                                                        i w 8 3 2 8 4 M ] ..+.+.@.#.#.] 3 ; 2 4 A _ } X.*.=.*.=.%.                                                                                                                                                                                                                              ",
"                                                                                                                                                                                                                                        i 0 0 w 8 8 9 j ` ] [ X.#.O.O.{ 5 - : 2 f P W W _ } ..o.+.                                                                                                                                                                                                                              ",
"                                                                                                                                                                                                                                        i 0 0 0 5 8 8 g W ) ` [ @.#.@.[ 3 & - : w G I I I Q ` [ ..                                                                                                                                                                                                                              ",
"                                                                                                                                                                                                                                        q 0 7 3 < 2 4 f T ) Q ` [ [ [ ` 8 - - - 8 M K W Q ` ] ` ] ]                                                                                                                                                                                                                             ",
"                                                                                                                                                                                                                                        0 7 5 < < < 4 a L T W Q ` [ [ [ w : : : 3 j L _ ` _ _ ` ` ]                                                                                                                                                                                                                             ",
"                                                                                                                                                                                                                                        0 7 7 8 5 < < a G J P T W ) [ [ w ; : 2 2 g V T E Q Q _ ` `                                                                                                                                                                                                                             ",
"                                                                                                                                                                                                                                        p z z f w w w v H H J L I W _ _ s 2 3 3 9 d G J I W _ ` ` _                                                                                                                                                                                                                             ",
"                                                                                                                                                                                                                                        n C M n m V B H W W W ) T E Q _ x 3 3 4 9 j H E E ` ` ` ] R                                                                                                                                                                                                                             ",
"                                                                                                                                                                                                                                        C C B B V C P ` ] @.[ @.] W E _ v 4 9 9 a m P W Q ..[ ..[ )                                                                                                                                                                                                                             ",
"                                                                                                                                                                                                                                      S D M m D L H T ] ] [ ] ] [ [ [ [ M 9 9 9 a M K W Q ] [ [ ..                                                                                                                                                                                                                              ",
"                                                                                                                                                                                                                                      F D n M A P F U / { { { } ] @.@.[ c i w 9 a N H E E ~ ` ` )                                                                                                                                                                                                                               ",
"                                                                                                                                                                                                                                      D D B M D A A R W U W W } [ @.+.U w w 9 a a N H I E ~ [ ` `                                                                                                                                                                                                                               ",
"                                                                                                                                                                                                                                      F D A D P P P R W R W W { [ ] +.m a 9 9 9 d N H K E [ ~ ) )                                                                                                                                                                                                                               ",
"                                                                                                                                                                                                                                      R D A D A F Y W W W { / { +.[ W f 9 9 9 9 d k H K W Q E Q W                                                                                                                                                                                                                               ",
"                                                                                                                                                                                                                                    U U K F D A T W W { { { } } ..] C w 9 w 9 w s N H K E W E ` )                                                                                                                                                                                                                               ",
"                                                                                                                                                                                                                                    U Y P F A Z I { { { ) { { } ] ` v w 9 a s d d N J I Q Q W W W                                                                                                                                                                                                                               ",
"                                                                                                                                                                                                                                    W Y P F D A F R W { { W / { ] R f s i a s a j G K E E Q ~ W                                                                                                                                                                                                                                 ",
"                                                                                                                                                                                                                                    R Y P P P F R { { R ! ) ) { ] B f i t y a a k H K E E Q ~ W                                                                                                                                                                                                                                 ",
"                                                                                                                                                                                                                                  U R Y P I P P W W W R W W W _ ]   u i w 9 e r k J K E E Q [ ~                                                                                                                                                                                                                                 ",
"                                                                                                                                                                                                                                  Y Y U P P L P W T Y R R R W W     f t 9 8 9 y k H E E E Q ` W                                                                                                                                                                                                                                 ",
"                                                                                                                                                                                                                                  Y Y P P P P Y R T T T T T W W     g i y y s s N H E E E ~ ` I                                                                                                                                                                                                                                 ",
"                                                                                                                                                                                                                                  R Y Y Y I Y W T T T W R U T R     g i i s s s N H E E W ] ..W                                                                                                                                                                                                                                 ",
"                                                                                                                                                                                                                                Y R Y Y Y I W R T T R T R R R       f i i t y a N H K E E W ` /                                                                                                                                                                                                                                 ",
"                                                                                                                                                                                                                                R W R R R R W Y T T T R R ! R       p f g f y a N H E E E E W                                                                                                                                                                                                                                   ",
"                                                                                                                                                                                                                                ) Y R ) R W W I T T R T R W         f u u u u s N K E E W W )                                                                                                                                                                                                                                   ",
"                                                                                                                                                                                                                                ) ) ) R R W R I T T T T R R         f f u f f f N K I W W W `                                                                                                                                                                                                                                   ",
"                                                                                                                                                                                                                              / _ _ ) / ) _ U T T T U T ! P         f h u p g d N I E E ~ ! !                                                                                                                                                                                                                                   ",
"                                                                                                                                                                                                                              _ _ ) ) ) W R T T T T T R R           h p i u u h Z K T W _ ! !                                                                                                                                                                                                                                   ",
"                                                                                                                                                                                                                              ) ) / R ) W T U T T T T W T           h f t u s h Z I E W _ _ _                                                                                                                                                                                                                                   ",
"                                                                                                                                                                                                                              _ _ W / R R I T T T T R R             h p t i u j H I T T W ! !                                                                                                                                                                                                                                   ",
"                                                                                                                                                                                                                            ) ' _ / R R R T P T I U W Y             h f u t u j H I T W _ _                                                                                                                                                                                                                                     ",
"                                                                                                                                                                                                                            / ) / ) / R T U T T T T W U             c p t t t j Z K I _ ` _                                                                                                                                                                                                                                     ",
"                                                                                                                                                                                                                            ) ) W / W R T P T P I R U               v u t u y j Z P I ! ] _                                                                                                                                                                                                                                     ",
"                                                                                                                                                                                                                            / W / R R R P T P T T R U               c u t y e j Z I I ! { _                                                                                                                                                                                                                                     ",
"                                                                                                                                                                                                                          U / _ T U Y T T P T P R R                 c u i i r j Z I T W { W                                                                                                                                                                                                                                     ",
"                                                                                                                                                                                                                          R ) R Y Y Y T P I P T I R                 c u t y y M Z I T { ) W                                                                                                                                                                                                                                     ",
"                                                                                                                                                                                                                          / / R Y U T U I I P P R                   c i t e e M A T Y { { R                                                                                                                                                                                                                                     ",
"                                                                                                                                                                                                                          / P U U Y I P P P P P P                   h t 8 4 8 k A I R ) {                                                                                                                                                                                                                                       ",
"                                                                                                                                                                                                                        U U P D F P P K J P H H L                   p t 8 8 e M H T W { _                                                                                                                                                                                                                                       ",
"                                                                                                                                                                                                                        L P Y P A K P P I P J H                     f e 8 8 r k Z I R _ _                                                                                                                                                                                                                                       ",
"                                                                                                                                                                                                                        P P P P P I P P P H H H                     f t 8 9 u k H T R _ !                                                                                                                                                                                                                                       ",
"                                                                                                                                                                                                                        U I L V R K P K J H H                       f e 4 4 u M Z U ! _ !                                                                                                                                                                                                                                       ",
"                                                                                                                                                                                                                        I P P H F K J J Z H H                       t 8 4 4 y M H P R W P                                                                                                                                                                                                                                       ",
"                                                                                                                                                                                                                      P P L A P A A J H Z A A                       8 5 4 4 a k Z Z P D P                                                                                                                                                                                                                                       ",
"                                                                                                                                                                                                                      P P H V L A A J H Z J                         8 1 5 8 u M Z M Z A                                                                                                                                                                                                                                         ",
"                                                                                                                                                                                                                      P P H Z H H Z H H Z Z                         5 5 5 4 a m Z B A P                                                                                                                                                                                                                                         ",
"                                                                                                                                                                                                                      P H H H H Z H H G A                           8 3 6 4 a j Z A P P                                                                                                                                                                                                                                         ",
"                                                                                                                                                                                                                    D P H H K H G G Z H Z                           9 5 3 3 y j A Z Z Z                                                                                                                                                                                                                                         ",
"                                                                                                                                                                                                                    D A A H H Z Z H Z Z Z                           4 3 3 4 y j M M M N                                                                                                                                                                                                                                         ",
"                                                                                                                                                                                                                    H Z B A Z N Z Z Z Z                             < < < 2 y d j j M B                                                                                                                                                                                                                                         ",
"                                                                                                                                                                                                                    A V v M M k N N G N                             < < ; 2 y d M M N B                                                                                                                                                                                                                                         ",
"                                                                                                                                                                                                                  A V m d i k k k N N                               3 2 : 2 y d k M M                                                                                                                                                                                                                                           ",
"                                                                                                                                                                                                                  B M v a r j k d d k                               5 < , 2 w d j m M                                                                                                                                                                                                                                           ",
"                                                                                                                                                                                                                  v v g r a a a d j d                               2 < , 4 9 s k M M                                                                                                                                                                                                                                           ",
"                                                                                                                                                                                                                  g f y r a a a a d                                 3 < < 4 9 f d d j                                                                                                                                                                                                                                           ",
"                                                                                                                                                                                                                f f w 9 a a r a a a                                 2 < : 2 9 a y a g                                                                                                                                                                                                                                           ",
"                                                                                                                                                                                                                f w 9 a a a a a s                                   1 < > 2 9 y y a f                                                                                                                                                                                                                                           ",
"                                                                                                                                                                                                                z s a d a a r a y                                   < < ; 2 4 9 9 a i                                                                                                                                                                                                                                           ",
"                                                                                                                                                                                                                2 5 5 w y 9 9 a                                     - * * , 5 8 9 i                                                                                                                                                                                                                                             ",
"                                                                                                                                                                                                                + @ * 2 4 8 9 a                                     @ * * ; < 4 8 6                                                                                                                                                                                                                                             ",
"                                                                                                                                                                                                                  + + * ; 2 3 4                                     + + + * & & - *                                                                                                                                                                                                                                             ",
"                                                                                                                                                                                                                        O % ;                                                                                                                                                                                                                                                                                                   ",
"                                                                                                                                                                                                                                                                                                                                                                                                                                                                                                                                ",
"                                                                                                                                                                                                                                                                                                                                                                                                                                                                                                                                ",
"                                                                                                                                                                                                                                                                                                                                                                                                                                                                                                                                ",
"                                                                                                                                                                                                                                                                                                                                                                                                                                                                                                                                "
};
