/* XPM */
static char *out[] = {
/* columns rows colors chars-per-pixel */
"256 256 162 2 ",
"   c None",
".  c #1C140E",
"X  c #1D1511",
"o  c #20160F",
"O  c #211612",
"+  c #241A14",
"@  c #2A1E16",
"#  c #271E1A",
"$  c #2B1E19",
"%  c #2E2017",
"&  c #27201E",
"*  c #2E211A",
"=  c #312217",
"-  c #32241B",
";  c #38271B",
":  c #37291E",
">  c #3B2A1E",
",  c #2E2420",
"<  c #342520",
"1  c #362921",
"2  c #3C2C22",
"3  c #392F2B",
"4  c #3F3025",
"5  c #37302C",
"6  c #3E302A",
"7  c #412D1F",
"8  c #412E22",
"9  c #443224",
"0  c #4A3526",
"q  c #4E3827",
"w  c #44332A",
"e  c #4A3629",
"r  c #4D392A",
"t  c #503927",
"y  c #533D2C",
"u  c #593F2C",
"i  c #4D3C32",
"p  c #533F31",
"a  c #56402F",
"s  c #59412F",
"d  c #564132",
"f  c #5C4533",
"g  c #5F4837",
"h  c #5B473A",
"j  c #5E4939",
"k  c #604733",
"l  c #634A35",
"z  c #694D37",
"x  c #654C3A",
"c  c #694F3B",
"v  c #67503D",
"b  c #6C523D",
"n  c #72563E",
"m  c #76583F",
"M  c #534747",
"N  c #654F41",
"B  c #655145",
"V  c #6D5441",
"C  c #655348",
"Z  c #6C5649",
"A  c #6D594C",
"S  c #715641",
"D  c #745A44",
"F  c #7A5D45",
"G  c #755C4A",
"H  c #7A5F49",
"J  c #6E5A51",
"K  c #655959",
"L  c #7E6047",
"P  c #7D624B",
"I  c #7D6452",
"U  c #82654D",
"Y  c #86684F",
"T  c #88694F",
"R  c #826751",
"E  c #856952",
"W  c #8B6D54",
"Q  c #856B59",
"!  c #896E5A",
"~  c #8E7056",
"^  c #8E715B",
"/  c #917256",
"(  c #93755C",
")  c #96785E",
"_  c #997A5E",
"`  c #8A6F60",
"'  c #867166",
"]  c #8C7463",
"[  c #937761",
"{  c #967A62",
"}  c #9B7D63",
"|  c #947B69",
" . c #9B7F6A",
".. c #A07F61",
"X. c #9F8065",
"o. c #9D816B",
"O. c #978174",
"+. c #9D8372",
"@. c #A28266",
"#. c #A4856A",
"$. c #A8876A",
"%. c #A7886D",
"&. c #AA8A6D",
"*. c #A38671",
"=. c #A68972",
"-. c #AD8D72",
";. c #A68B79",
":. c #AB8E79",
">. c #B08F72",
",. c #AE9076",
"<. c #AE917A",
"1. c #B29275",
"2. c #B4957B",
"3. c #B8977A",
"4. c #B7987E",
"5. c #BA9A7D",
"6. c #C09F7F",
"7. c #AE9586",
"8. c #AF9881",
"9. c #B29681",
"0. c #B69A82",
"q. c #BB9D82",
"w. c #B59D88",
"e. c #BA9E88",
"r. c #B6A087",
"t. c #BEA186",
"y. c #BEA28A",
"u. c #BEA491",
"i. c #C09F82",
"p. c #C2A385",
"a. c #C8A686",
"s. c #C3A58A",
"d. c #C6A98D",
"f. c #CAAB8C",
"g. c #C3A790",
"h. c #C5AA92",
"j. c #CBAE91",
"k. c #CEB193",
"l. c #CCB29A",
"z. c #CEB89E",
"x. c #D2B595",
"c. c #D3B79A",
"v. c #D6BA9A",
"b. c #D9BE9E",
"n. c #CFBCA5",
"m. c #D5BDA3",
"M. c #DABFA0",
"N. c #DBC09F",
"B. c #D6C0A5",
"V. c #DDC3A3",
"C. c #D5C4AA",
"Z. c #DBC5A9",
"A. c #DEC9AC",
"S. c #DDCCB3",
"D. c #E0C7A7",
"F. c #E1C9A7",
"G. c #E0C7A8",
"H. c #E2CBAC",
"J. c #E4D0AF",
"K. c #E4CFB0",
"L. c #E6D2B2",
"P. c #E8D5B5",
/* pixels */
"                                                                                                                                                                                                                                                                                                                                                                                                                                                                                                                                ",
"                                                                                                                                                                                                                                                                                                                                                                                                                                                                                                                                ",
"                                                                                                                                                                                                                                                                                                                                                                                                                                                                                                                                ",
"                                                                                                                                                                                                                                                                                                                                                                                                                                                                                                                                ",
"                                                                                                                                                                                                                                                                                                                                                                                                                                                                                                                                ",
"                                                                                                                                                                                                                                                                                                                                                                                                                                                                                                                                ",
"                                                                                                                                                                                                                                                                                                                                                                                                                                                                                                                                ",
"                                                                                                                                                                                                                                                                                                                                                                                                                                                                                                                                ",
"                                                                                                                                                                                                                                                                                                                                                                                                                                                                                                                                ",
"                                                                                                                                                                                                                                                                                                                                                                                                                                                                                                                                ",
"                                                                                                                                                                                                                                                                                                                                                                                                                                                                                                                                ",
"                                                                                                                                                                                                                                                                                                                                                                                                                                                                                                                                ",
"                                                                                                                                                                                                                                                                                                                                                                                                                                                                                                                                ",
"                                                                                                                                                                                                                                                                                                                                                                                                                                                                                                                                ",
"                                                                                                                                                                                                                                                                                                                                                                                                                                                                                                                                ",
"                                                                                                                                                                                                                                                                                                                                                                                                                                                                                                                                ",
"                                                                                                                                                                                                                                                                                                                                                                                                                                                                                                                                ",
"                                                                                                                                                                                                                                                                                                                                                                                                                                                                                                                                ",
"                                                                                                                                                                                                                                                                                                                                                                                                                                                                                                                                ",
"                                                                                                                                                                                                                                                                                                                                                                                                                                                                                                                                ",
"                                                                                                                                                                                                                                                                                                                                                                                                                                                                                                                                ",
"                                                                                                                                                                                                                                                                                                                                                                                                                                                                                                                                ",
"                                                                                                                                                                                                                                                                                                                                                                                                                                                                                                                                ",
"                                                                                                                                                                                                                                                                                                                                                                                                                                                                                                                                ",
"                                                                                                                                                                                                                                                                                                                                                                                                                                                                                                                                ",
"                                                                                                                                                                                                                                                                                                                                                                                                                                                                                                                                ",
"                                                                                                                                                                                                                                                                                                                                                                                                                                                                                                                                ",
"                                                                                                                                                                                                                                                                                                                                                                                                                                                                                                                                ",
"                                                                                                                                                                                                                                                                                                                                                                                                                                                                                                                                ",
"                                                                                                                                                                                                                                                                                                                                                                                                                                                                                                                                ",
"                                                                                                                                                                                                                                                                                                                                                                                                                                                                                                                                ",
"                                                                                                                                                                                                                                                                                                                                                                                                                                                                                                                                ",
"                                                                                                                                                                                                                                                                                                                                                                                                                                                                                                                                ",
"                                                                                                                                                                                                                                                                                                                                                                                                                                                                                                                                ",
"                                                                                                                                                                                                                                                                                                                                                                                                                                                                                                                                ",
"                                                                                                                                                                                                                                                                                                                                                                                                                                                                                                                                ",
"                                                                                                                                                                                                                                                                                                                                                                                                                                                                                                                                ",
"                                                                                                                                                                                                                                                                                                                                                                                                                                                                                                                                ",
"                                                                                                                                                                                                                                                      S.S.C.                                                                                                                                                                                                                                                                    ",
"                                                                                                                                                                                                                                                      L.J.L.P.J.A.                                                                                                                                                                                                                                                              ",
"                                                                                                                                                                                                                                                    C.V.V.V.V.J.J.J.J.J.A.                                                                                                                                                                                                                                                      ",
"                                                                                                                                                                                                                                                    Z.V.V.V.V.N.N.V.V.J.J.J.J.H.C.                                                                                                                                                                                                                                              ",
"                                                                                                                                                                                                                                                    A.N.N.N.N.N.N.V.N.N.B.N.N.F.H.H.H.Z.B.                                                                                                                                                                                                                                      ",
"                                                                                                                                                                                                                                                  B.V.N.N.N.N.N.N.N.N.N.N.N.N.N.V.V.V.H.H.H.A.B.                                                                                                                                                                                                                                ",
"                                                                                                                                                                                                                                                  C.N.v.N.N.k.N.v.N.v.v.N.N.N.N.N.N.N.N.N.N.V.V.M.b.v.l.                                                                                                                                                                                                                        ",
"                                                                                                                                                                                                                                                  C.N.N.k.N.k.N.x.x.x.x.x.x.x.N.v.N.v.N.N.N.N.v.x.x.v.x.c.l.j.y.                                                                                                                                                                                                                ",
"                                                                                                                                                                                                                                                  N.N.N.N.f.N.f.f.k.k.k.x.x.x.x.x.x.v.v.v.v.N.v.v.x.j.a.a.s.s.a.j.g.                                                                                                                                                                                                            ",
"                                                                                                                                                                                                                                                B.N.f.f.N.f.f.k.f.k.f.k.k.k.k.x.x.x.x.x.v.v.x.v.v.x.j.d.d.s.s.q.t.q.                                                                                                                                                                                                            ",
"                                                                                                                                                                                                                                                B.c.x.k.N.a.d.f.f.f.k.f.k.f.k.k.N.N.f.N.f.N.x.x.6.x.f.f.f.f.f.a.p.                                                                                                                                                                                                              ",
"                                                                                                                                                                                                                                                m.x.f.j.f.t.6.f.f.f.f.f.f.k.f.f.6.x.x.x.x.x.N.f.f.f.k.x.x.f.f.x.s.                                                                                                                                                                                                              ",
"                                                                                                                                                                                                                                                v.k.k.f.a.6.a.f.f.f.f.f.f.x.x.6.f.x.6.x.6.f.N.x.x.x.f.x.x.f.f.k.t.                                                                                                                                                                                                              ",
"                                                                                                                                                                                                                                              z.x.f.f.f.a.f.t.f.6.f.6.f.6.6.f.x.f.f.x.f.f.x.6.f.6.x.f.6.a.f.f.a.t.                                                                                                                                                                                                              ",
"                                                                                                                                                                                                                                              z.f.f.a.a.t.t.6.y.a.f.f.f.x.f.f.6.6.f.6.f.f.f.f.6.s.a.a.a.a.d.d.f.                                                                                                                                                                                                                ",
"                                                                                                                                                                                                                                              l.p.t.t.6.a.6.6.t.a.6.6.f.6.k.6.x.N.6.N.6.f.k.f.6.a.a.d.a.a.d.d.p.                                                                                                                                                                                                                ",
"                                                                                                                                                                                                                                              d.6.6.6.6.6.6.6.6.6.6.f.6.6.k.f.f.6.k.6.6.6.N.f.N.j.d.f.f.f.f.d.i.                                                                                                                                                                                                                ",
"                                                                                                                                                                                                                                            y.3.1.3.3.1.3.3.5.5.5.6.6.6.6.6.f.6.k.6.k.N.6.6.6.N.j.f.f.f.j.j.f.                                                                                                                                                                                                                  ",
"                                                                                                                                                                                                                                            r.1.>.3.3.>.>.1.1.1.1.5.5.5.6.6.6.6.N.6.N.6.6.f.f.6.k.k.f.f.f.f.d.                                                                                                                                                                                                                  ",
"                                                                                                                                                                                                                                            t.1.>.1.>.>.>.>.1.1.1.3.3.5.6.6.6.6.6.6.f.6.6.N.6.N.f.f.f.a.a.f.a.                                                                                                                                                                                                                  ",
"                                                                                                                                                                                                                                          r.4.1.>.>.>.>.>.>.>.1.1.1.1.3.6.5.6.6.6.6.6.N.6.6.6.6.f.d.f.a.a.d.p.                                                                                                                                                                                                                  ",
"                                                                                                                                                                                                                                          r.,.&.>.>.$.$.>.1.1.1.3.&.&.1.1.1.1.5.6.6.6.6.6.N.6.N.f.a.d.a.d.f.                                                                                                                                                                                                                    ",
"                                                                                                                                                                                                                                          3.$.$.$.>.$.$.>.>.3.3.>.3.>.&.&.>.1.6.6.3.6.6.6.y.6.y.a.a.f.f.f.a.                                                                                                                                                                                                                    ",
"                                                                                                                                                                                                                                          >.$.@.>.$.$.$.$.>.>.1.>.>.&.&.$.&.1.1.3.6.6.6.6.6.f.6.p.a.f.a.a.t.                                                                                                                                                                                                                    ",
"                                                                                                                                                                                                                                        r.>.X.X.@.$.&.$.$.>.>.>.%.>.>.>.>.>.>.>.1.3.3.6.6.6.6.y.p.p.a.a.a.0.                                                                                                                                                                                                                    ",
"                                                                                                                                                                                                                                        =.@.X.X.@.@.$.@.@.&.&.&.&.&.&.>.>.>.>.>.1.3.3.3.6.6.6.6.6.p.p.p.t.                                                                                                                                                                                                                      ",
"                                                                                                                                                                                                                                         .~ ( ( / ..@.$.$.>.>.$.&.&.>.>.>.$.>.>.>.>.1.>.6.3.3.6.6.6.6.6.5.                                                                                                                                                                                                                      ",
"                                                                                                                                                                                                                                        *.W T T T / / ..$.&.>.$.&.$.$.$.$.>.$.>.>.6.>.>.1.6.1.3.3.5.6.5.2.                                                                                                                                                                                                                      ",
"                                                                                                                                                                                                                                      +.( / / / W T T / _ @.$.$.&.$.$.$.$.>.>.>.>.>.1.6.>.>.3.3.1.3.5.5.2.                                                                                                                                                                                                                      ",
"                                                                                                                                                                                                                                      ] T T W / W T W T / ..@.@.$.$.$.$.$.$.$.>.>.1.>.>.>.>.1.3.6.5.5.3.                                                                                                                                                                                                                        ",
"                                                                                                                                                                                                                                      B l S F T W / W W / _ @.@.@.@.$.$.$.$.>.>.>.>.>.6.>.&.>.>.1.6.3.>.                                                                                                                                                                                                                        ",
"                                                                                                                                                                                                                                            p f c H Y / / ) ..@.@.@.$.@.$.>.$.>.>.>.>.>.>.>.&.>.3.3.3.$.                                                                                                                                                                                                                        ",
"                                                                                                                                                                                                                                                  r f c F W { @.@.@.@.$.$.$.$.>.$.>.>.>.>.>.&.>.1.1.>.                                                                                                                                                                                                                          ",
"                                                                                                                                                                                                                                                          u j D T X.@.$.$.$.$.$.>.>.>.$.$.&.$.&.$.$.&.                                                                                                                                                                                                                          ",
"                                                                                                                                                                                                                                                            + + ; a v P ) @.$.&.>.>.&.$.@.@.&.$.$.$.@.                                                                                                                                                                                                                          ",
"                                                                                                                                                                                                                                                          5 + . . . + - 9 s S ~ } %.>.@...$.....@.@.{                                                                                                                                                                                                                           ",
"                                                                                                                                                                                                                                                          5 + X . o o o . X +   x H R E ( } @.} _ _                                                                                                                                                                                                                             ",
"                                                                                                                                                                                                                                                          w + + o o o o X X X           k S U W ) )                                                                                                                                                                                                                             ",
"                                                                                                                                                                                                                                                          w - - * % + + + X                     x V                                                                                                                                                                                                                             ",
"                                                                                                                                                                                                                                                          i e e 9 4 2 - = 2                                                                                                                                                                                                                                                     ",
"                                                                                                                                                                                                                                                        J l l g d a r e e h                                                                                                                                                                                                                                                     ",
"                                                                                                                                                                                                                                                        J D G B x x l h v I                                                                                                                                                                                                                                                     ",
"                                                                                                                                                                                                                                                        P I P L A D D D I ]                                                                                                                                                                                                                                                     ",
"                                                                                                                                                                                                                                                        I I P P L P I I ^ +.                                                                                                                                                                                                                                                    ",
"                                                                                                                                                                                                                                  h.                    ^ X.~ W P P E ~ }                                                                                                                                                                                                                                                       ",
"                                                                                                                                                                                                                                u.t.g.j.h.g.            P I I Q W R W [ *.                                                                                                                                                                                                                                                      ",
"                                                                                                                                                                                                                                9.>.-.3.5.a.d.h.u.k.k.O.I ~ ~ X.^ W W } ,.                                                                                                                                                                                                                                                      ",
"                                                                                                                                                                                                                              7.0.-.1.>.1.2.5.f.N.N.B.k.<.%.%.o.} ^ E ^ =.                                                                                                                                                                                                                                                      ",
"                                                                                                                                                                                                                              w.5.>.>.1.2.p.v.V.V.A.A.N.N.y.y.6.q.-.o.[ o.                                                                                                                                                                                                                                                      ",
"                                                                                                                                                                                                                              e.5.2.1.q.k.H.H.H.H.H.V.V.F.N.y.6.d.f.a.t.0.9.                                                                                                                                                                                                                                                    ",
"                                                                                                                                                                                                                              i.5.5.d.M.L.L.K.H.F.F.N.N.C.N.N.5.a.i.i.i.i.i.i.q.9.;.                                                                                                                                                                                                                                            ",
"                                                                                                                                                                                                                              i.i.x.H.L.L.K.K.H.F.N.N.N.N.N.N.N.a.i.i.i.i.i.i.i.s.e.0.2.;. .                                                                                                                                                                                                                                    ",
"                                                                                                                                                                                                                            e.s.M.L.L.L.K.H.G.G.F.F.N.N.N.N.y.5.>.3.3.5.i.i.i.q.q.5.2.9.9.9.7.                                                                                                                                                                                                                                  ",
"                                                                                                                                                                                                                            l.D.L.L.P.L.L.H.H.G.C.N.N.N.y.6.,.%.$.>.2.2.5.q.i.i.5.5.2.2.2.9.2.                                                                                                                                                                                                                                  ",
"                                                                                                                                                                                                                          G.H.K.J.P.J.J.K.H.H.D.N.N.N.x.6.$.@.@...;.2.2.3.5.i.q.q.2.2.2.2.9.1.                                                                                                                                                                                                                                  ",
"                                                                                                                                                                                                                        F.P.P.L.H.H.H.H.H.H.D.D.N.N.f.1.$.@.@.@.....>.i.5.2.2.2.2.5.9.2.2.2.:.                                                                                                                                                                                                                                  ",
"                                                                                                                                                                                                                      K.L.P.L.J.H.F.D.D.D.D.D.D.N.6.&.$.@.@.@.@...} $.q.6.5.q.i.q.q.2.2.2.<.                                                                                                                                                                                                                                    ",
"                                                                                                                                                                                                                  Z.K.K.H.H.F.H.H.F.D.V.D.D.b.k.6.1.&.@.X.@.@.@.......5.q.i.5.2.q.5.9.2.2.2.                                                                                                                                                                                                                                    ",
"                                                                                                                                                                                                                S.H.H.K.H.H.H.F.F.F.N.N.N.N.f.1.%.>.&.$.......X.} } -.5.5.6.5.5.2.5.2.,.,.:.                                                                                                                                                                                                                                    ",
"                                                                                                                                                                                                            Z.H.H.H.F.H.H.H.G.D.N.N.N.N.f.1.&.%.&.%.%.@.X._ / _ } ..3.5.2.5.5.q.q.2.2.-.=.                                                                                                                                                                                                                                      ",
"                                                                                                                                                                                                          A.K.K.H.H.H.F.D.D.G.D.N.N.N.a.1.&.&.%.$.@.@.X._ _ _ ....1.2.2.2.3.2.q.2.2.2.:.=.                                                                                                                                                                                                                                      ",
"                                                                                                                                                                                                        H.K.H.H.H.H.H.F.D.M.b.b.N.f.5.1.&.&.&.%.@.@.@.X.X.X._ @.2.2.1.2.3.2.5.5.5.2.q.2.-.                                                                                                                                                                                                                                      ",
"                                                                                                                                                                                                    A.H.K.H.H.H.H.D.G.D.M.v.x.f.6.1.$.$.$.$.@.@.@.@.X.X.X./ $.>.1.1.1.1.2.2.3.5.5.q.q.q.:.                                                                                                                                                                                                                                      ",
"                                                                                                                                                                                                  A.H.H.H.H.H.H.G.D.D.M.M.v.f.3.>.$.$.@.$.@.@...X.X.X._ ..$.1.1.,.1.,.1.>.2.1.2.2.5.2.2.                                                                                                                                                                                                                                        ",
"                                                                                                                                                                                                Z.H.H.H.H.H.F.F.D.D.M.M.v.d.1.$.@.$.@.@.@.@.....X._ / X.@.>.1.1.1.,.-.,.>.>.2.2.2.3.2.2.                                                                                                                                                                                                                                        ",
"                                                                                                                                                                                              Z.F.F.F.F.H.F.F.V.D.D.M.v.6.&.....@.$.$.@.@.@..._ / T X.$.>.>.1.1.1.1.>.>.>.>.3.3.2.5.2.2.                                                                                                                                                                                                                                        ",
"                                                                                                                                                                                            M.M.V.M.V.F.D.V.V.N.v.b.x.6.$.@.....@.@.@.@.X._ _ / X.@.>.&.>.1.>.3.1.,.,.>.>.>.3.3.1.9.3.1.                                                                                                                                                                                                                                        ",
"                                                                                                                                                                                        l.b.M.b.b.M.M.M.N.N.b.v.x.6.&......._ _ X.X.X./ / _ / ..X.$.&.&.>.1.1.3.1.,.>.,.>.>.1.3.1.1.2.                                                                                                                                                                                                                                          ",
"                                                                                                                                                                                      k.c.x.v.b.b.v.v.x.x.x.x.6.>._ W / .._ _ _ X._ X./ _ / @.@.X.@.&.>.>.>.1.1.1.>.,.>.>. .>.1.1.1.1.                                                                                                                                                                                                                                          ",
"                                                                                                                                                                                    j.x.f.d.j.x.x.j.d.a.a.a.1._ / Y U T ) / _ ../ X./ / _ X.@.$.@.$.>.&.>.1.1.1.1.,.,.,.1.>. .>.1.2.1.                                                                                                                                                                                                                                          ",
"                                                                                                                                                                                  s.d.s.i.q.q.4.q.q.2.2.>.@./ T T L L T Y U T _ X./ / / @.$.$.$.$.$.>.>.>.1.1.1.1.1.1.,.>.,.>.<.1.,.:.                                                                                                                                                                                                                                          ",
"                                                                                                                                                                                q.q.5.1.2.2.2.-.@.#.%.} T L T Y L U T U U U Y / / T X.X.@.$.$.&.$.$.&.>.1.1.1.1.9.1.1.,.<.1.,.,.1.,.                                                                                                                                                                                                                                            ",
"                                                                                                                                                                              8.q.2.#.( [ } ..#.%. .( E T U U U U T U U L U U Y X.X.X.$.$.$.$.&.&.&.>.>.1.>.>.-.1.1.1.>.>.>.:.>.,.1.                                                                                                                                                                                                                                            ",
"                                                                                                                                                                              l.c.n.h.7.;.*. . .[ W W T L L L L L m L U m m Y _ X.@.@.$.$.$.&.&.$.$.>.>.>.>.>.-.>.-.>.-.>.>.1.>.,.,.                                                                                                                                                                                                                                            ",
"                                                                                                                                                                              q.d.j.k.h.h.j.g.e.*.U U U U F n S m v v n n L X.X.X.X.%.%.%.&.%.&.&.&.,.-.1.-.-.>.-.-.-.-.-.>.-.-.-.-.                                                                                                                                                                                                                                            ",
"                                                                                                                                                                              =.2.2.5.5.1.>.5.q.q.*.I F U m z b n b z b P X.X.X.@.@.%.&.&.%.%.&.&.-.-.-.1.1.-.&.-.-.$.%.%.&.-.-.-.                                                                                                                                                                                                                                              ",
"                                                                                                                                                                                =.1.1.4.5.>.q.d.q.2.;.I c S z z v S L I X.X.X.X.#.#.&.&.&.%.%.&.&.-.&.,.1.>.-.>.>.-.-.%.&.&.&.-.-.                                                                                                                                                                                                                                              ",
"                                                                                                                                                                                #.-.-.1.2.2.2.i.s.5.1. .I l u F I H X.X.X.X.X.X.X.@.%.%.&.%.%.%.&.-.,.,.-.1.1.-.>.-.$.$.$.-.&.&.-.                                                                                                                                                                                                                                              ",
"                                                                                                                                                                                { #.%.%.-.3.2.,.3.a.4.-...`     ' I X.X.X.^ X.X.X.X.%.%.%.%.%.%.&.,.&.,.>.>.1.>.>.-.$.%.%.&.&.-.=.                                                                                                                                                                                                                                              ",
"                                                                                                                                                                                  { } } X.@.#.@.%.4.p.1.:. .  ;.X.I X.X.X.X.X.X.X.#.#.#.%.%.%.%.%.&.,.&.-.-.-.&.$.-.$.&.%.$.&.-.                                                                                                                                                                                                                                                ",
"                                                                                                                                                                                  E Q ~ ( ) ( _ } -.q.1.-.-.+.-.X.X.X.X.X.X.X.X.X.#.%.%.#.#.%.%.%.&.-.-.-.-.-.-.-.%.$...%.%.%.-.                                                                                                                                                                                                                                                ",
"                                                                                                                                                                                    D D V L Y W W _ 2.2.1.-.-.:.I X.! X.! X.X.X.X.X.#.#.#.#.#.%.&.&.&.&.-.&.-.&.-.-.$.;.%.%.%.-.                                                                                                                                                                                                                                                ",
"                                                                                                                                                                                    V v x v L Y T T %.3.1.,.1.%.^ ) } { ( X.X.X.X.o.o.%.X.%.X.%.%.-.%.%.%.&.&.&.$.$...%.&.-.&. .                                                                                                                                                                                                                                                ",
"                                                                                                                                                                                    x x x j D P Y T _ 3.2.1.1.-.] ) X.{ X.( X.X.X.X.X.%.X.%.%.%.X.%.X.%.#.$.&.$.&.%.%.%. .1.-.>.                                                                                                                                                                                                                                                ",
"                                                                                                                                                                                      V V v V L m U E 1.5.3.3.1.^ ) { _ ( X.( X.X.X.X.o.o.o.X.X.%.X.X.X.X.@.@.$.$.-.=.....-.-.-.                                                                                                                                                                                                                                                ",
"                                                                                                                                                                                      G I P L P F U U @.t.5.5.3.o.X.{ ) X.^ ^ ( W X.X.X.X.X.X.X.X.X.X.X.X.@.$.@.%.&.-.&.&...-.-.                                                                                                                                                                                                                                                ",
"                                                                                                                                                                                      B D P P R U U U / 5.6.5.5.,.{ ( ( ( ^ ^ ( X.I X.X.X.X.X.X.X.X.X.X.X.X.X.X.-... .-.-.>.-.-.                                                                                                                                                                                                                                                ",
"                                                                                                                                                                                        d j V P U U U T 1.a.p.t.2.) ^ ~ W W ^ ( W X.~ X.X.~ ] X.X.X.X.X.X.X.X.X.....-.:. ... ...                                                                                                                                                                                                                                                ",
"                                                                                                                                                                                        r r h b U U U U X.a.a.p.t.X.E E W W Q W W W ~ Q ~ X.X.X.X.X.W X.X.X.X.X...........-.-...                                                                                                                                                                                                                                                ",
"                                                                                                                                                                                        w i d l F F U U T 3.p.p.y.%.W E W ^ ~ W W X.X.W ~ X.! X.X.X.X.I P X.X.~ ....[ ......&. .                                                                                                                                                                                                                                                ",
"                                                                                                                                                                                          w y j m I P I P &.6.t.y.<.E Y E ~ ~ ~ W ~ ( ( ( ( ( _ _ _ _ ( ( ^ ( .. .| _ ( _ ......                                                                                                                                                                                                                                                ",
"                                                                                                                                                                                          w r d v P T Y T X.6.6.t.4.~ I Y R W Q E W ^ [ [ _ [ ( ( ( ( / ( ( ( ( [ _ _ _ [ .. . .                                                                                                                                                                                                                                                ",
"                                                                                                                                                                                            w d g b L ~ / / 5.y.p.t.) P P R R W R T T ~ ( _ _ [ ( ( ^ ( ^ ( ( ( _ _ _ [ .... . .                                                                                                                                                                                                                                                ",
"                                                                                                                                                                                            w r a a l I / X.,.t.a.t.o.P P Y Y Y R R R R ~ / ( [ ( [ ( / ( ^ ( _ [ ( ( ( { .. ...                                                                                                                                                                                                                                                ",
"                                                                                                                                                                                              q a a a v X.~ X.6.a.a.,.I P P E R R U R R T ! / ( [ _ [ ( ( ( ( ( _ ( _ ( [ [ ....                                                                                                                                                                                                                                                ",
"                                                                                                                                                                                              3 9 a a g I ~ ~ 2.t.y.5.~ F P R Y U U U Y R T ~ ` ( ( [ _ ( ( ` ( ( ^ ( ( ( _ .. .                                                                                                                                                                                                                                                ",
"                                                                                                                                                                                                4 a 9 a P ~ I X.6.a.r.( D H P U U U H U U U W W / ^ ( ( ( ( / / W ^ ^ ( ^ ( | ..                                                                                                                                                                                                                                                ",
"                                                                                                                                                                                                4 e 9 a D Y L X.6.y.y.X.D D D P R R U H F U E T W W W [ ^ ` / ! W W W ^ ^ ( _ |                                                                                                                                                                                                                                                 ",
"                                                                                                                                                                                                  9 0 a v Y L ~ 1.p.a.:.D D D F U U U U U H U U U E W W ~ ! W W W ! W W ` [ ( _                                                                                                                                                                                                                                                 ",
"                                                                                                                                                                                                  4 4 0 x P L L $.p.s.0.P S D D F G H U R R U H U U E W W W W Q T T W W T / / [                                                                                                                                                                                                                                                 ",
"                                                                                                                                                                                                    4 4 g Y L L { i.s.s.W V D D S H F F H R R Y U R E E W ! W T R R T E R W W `                                                                                                                                                                                                                                                 ",
"                                                                                                                                                                                                    4 4 d P Y L W 2.i.i.{ b b D S S S G G H U U R U E R W W T T T E E E T T T [                                                                                                                                                                                                                                                 ",
"                                                                                                                                                                                                      w a v W I T -.i.i.%.V c c b S S V S S U U U U U U E W T R R R E E R R T [ q.                                                                                                                                                                                                                                              ",
"                                                                                                                                                                                                      w 1 a I Y U } 5.2.-.H V z z b b c z x V S F U U U U E W E U R R U R U U [ q.i.                                                                                                                                                                                                                                            ",
"                                                                                                                                                                                                        : 2 v Y U T ,.2.-.R V c c c c b c z x b S U U U R U R E U U U U U U U ` 9.q.q.9.                                                                                                                                                                                                                                        ",
"                                                                                                                                                                                                        : * a b V V } 1.,.` V V c c c c V c l z V V S F G U U U R R U U U U U ` 2.q.e.q.q.                                                                                                                                                                                                                                      ",
"                                                                                                                                                                                                          : 4 q a q P -.,. .b V c c x x x c c c c b b S S U H U R R U P P P I ^ ,.4.0.0.0.w.                                                                                                                                                                                                                                    ",
"                                                                                                                                                                                                          - > e a s V #.1.*.D c V x l k x c c c c S H S V S D H P P H P F D D ~ <.<.2.<.1.2.q.                                                                                                                                                                                                                                  ",
"                                                                                                                                                                                                            * 9 s z b ) 1.=.G y f g f y f k x V Q [  .U x x V V S S V V b b v G ^ { @.-.=.:.:.                                                                                                                                                                                                                                  ",
"                                                                                                                                                                                                            * : 0 f n W :.=.Q $ $ - - - 1 p x c ! #.*. .H V V S V j x G G P P V h V Q  .} { ]                                                                                                                                                                                                                                   ",
"                                                                                                                                                                                                              * - q l D *.=.*.          k B f y H ;.;.=.%.=.%.%.@.! ] -.5.6.6.2.I d h D ^ ]                                                                                                                                                                                                                                     ",
"                                                                                                                                                                                                              * @ ; t k / -.+.      0 2 > q y q x } :.-.-.-.:.>.1.*.{ :.5.t.r.p.y.o.h w h                                                                                                                                                                                                                                       ",
"                                                                                                                                                                                                                @ @ - 9 x [ !     @ + @ * 8 y q y E :.:.-.:.,.1.2.9.*.=.4.r.t.t.y.d.<.A                                                                                                                                                                                                                                         ",
"                                                                                                                                                                                                                $ @ @ - 1 r r     . + - - 0 t y f D =.1.1.2.2.q.q.q.2.=.4.5.6.t.y.y.j.d.y.                                                                                                                                                                                                                                      ",
"                                                                                                                                                                                                                  + + $ *         O # $ * 8 t g x c { 2.2.5.q.q.q.q.q.:.2.q.q.q.s.s.d.h.f.s.                                                                                                                                                                                                                                    ",
"                                                                                                                                                                                                                                    $ $ $ > e y f k R :.9.5.q.s.s.i.e.9.<.9.0.q.r.p.s.s.f.h.f.                                                                                                                                                                                                                                  ",
"                                                                                                                                                                                                                                    * * $ * 0 0 q f V #.9.5.q.d.d.i.t.q.:.2.2.q.r.t.y.d.d.h.j.s.y.                                                                                                                                                                                                                              ",
"                                                                                                                                                                                                                                      - - * 2 r e u g W 2.2.q.q.g.s.s.e.=.=.<.2.4.0.t.y.y.s.d.f.d.t.                                                                                                                                                                                                                            ",
"                                                                                                                                                                                                                                      - - * ; 0 e y c F -.q.2.q.s.s.s.y.9. .#.=.2.0.r.t.t.p.y.d.d.d.s.q.                                                                                                                                                                                                                        ",
"                                                                                                                                                                                                                                      < - * - 2 r p f z { q.q.q.t.s.t.t.q.{ [ o.=.2.q.0.t.y.y.s.s.d.a.d.t.                                                                                                                                                                                                                      ",
"                                                                                                                                                                                                                                        1 < - 3 0 r t f Y 1.p.5.q.s.t.q.q.:.Q ^ o.=.2.0.r.t.p.y.s.s.g.d.a.t.                                                                                                                                                                                                                    ",
"                                                                                                                                                                                                                                        2 1 : 2 9 w q a S @.4.5.q.q.s.t.q.9.G G ^ { %.4.5.0.r.y.y.s.d.h.d.t.q.q.                                                                                                                                                                                                                ",
"                                                                                                                                                                                                                                          2 < 3 9 e 0 r k W 2.4.q.q.p.q.q.t.I 2 V Q [ %.1.0.q.0.q.t.s.g.j.s.t.q.5.                                                                                                                                                                                                              ",
"                                                                                                                                                                                                                                          2 1 9 4 0 0 9 t n $.5.5.q.q.p.q.t.:.w - d R ( *.1.2.2.4.0.t.y.s.d.p.r.0.p.r.                                                                                                                                                                                                          ",
"                                                                                                                                                                                                                                          4 2 w 9 w 9 7 r l / 2.5.5.q.i.q.e.e.Z @ - 0 F ^ #.2.2.4.q.0.q.y.f.g.y.t.t.p.q.                                                                                                                                                                                                        ",
"                                                                                                                                                                                                                                            2 9 2 > 7 9 0 s F &.5.5.q.q.s.y.y. .- @ - > l ! @.>.2.4.4.q.r.y.s.f.d.p.t.p.t.y.                                                                                                                                                                                                    ",
"                                                                                                                                                                                                                                            4 9 2 ; 8 9 7 t l _ 3.4.q.q.i.i.e.q.h + @ = 1 y P } -.1.9.0.0.0.t.s.y.t.t.t.s.s.t.                                                                                                                                                                                                  ",
"                                                                                                                                                                                                                                              w 3 > 2 9 9 0 s U >.5.5.q.s.g.s.t.` * @ $ - ; 8 V ( %.2.2.4.0.0.t.t.q.0.q.t.s.s.y.                                                                                                                                                                                                ",
"                                                                                                                                                                                                                                              w 2 1 > 7 0 9 t n #.3.5.q.i.d.g.s.2.i @ $ $ - 2 8 f E o.-.4.4.0.4.0.w.0.q.t.t.s.d.g.y.                                                                                                                                                                                            ",
"                                                                                                                                                                                                                                                9 2 > 7 9 7 0 k / 1.5.5.q.s.s.g.s.J * * * * - 1 > e D { %.2.2.2.2.0.2.0.0.q.t.s.d.d.h.                                                                                                                                                                                          ",
"                                                                                                                                                                                                                                                6 2 1 1 9 9 9 u D &.3.2.5.t.d.d.g.;.w * * - * - : 2 9 x ^ } =.<.:.<.<.1.2.0.q.q.y.y.d.g.y.                                                                                                                                                                                      ",
"                                                                                                                                                                                                                                                9 2 2 1 8 0 7 t l ( 3.5.4.0.t.s.d.t.C * - * * - - 1 9 > y I [ %.:.:.<.:.<.9.0.w.r.y.y.s.h.g.                                                                                                                                                                                    ",
"                                                                                                                                                                                                                                                  2 1 1 > 9 8 9 s U >.3.4.q.y.p.s.g.;.1 * * - < - - - 1 2 0 B ^  .=.:.:.:.<.4.q.t.t.t.y.y.s.s.r.                                                                                                                                                                                ",
"                                                                                                                                                                                                                                                  8 8 2 > 9 9 8 t z @.4.3.5.t.y.s.g.s.  * - * * - - - - : > 8 f I [ *.:.=.*.<.w.q.0.t.t.y.s.s.h.y.                                                                                                                                                                              ",
"                                                                                                                                                                                                                                                    6 3 > > 8 8 0 s T 1.3.4.0.t.s.d.g.      * < - * < - - - - 1 r D ^  .:.=.=.<.0.q.q.t.t.y.s.s.s.u.                                                                                                                                                                            ",
"                                                                                                                                                                                                                                                    w 2 2 > 7 8 7 u n $.3.3.5.t.s.s.d.y.      * * - - - - - - - - 9 l Q { +.=.=.<.2.0.0.e.t.t.s.s.s.s.y.                                                                                                                                                                        ",
"                                                                                                                                                                                                                                                    w 6 2 2 2 8 7 t s / 1.3.3.t.y.d.d.s.          - - - - < * - * - 1 y G ^  .;.=.:.:.<.2.0.t.t.y.s.s.y.y.                                                                                                                                                                      ",
"                                                                                                                                                                                                                                                      w 4 4 8 8 7 0 u m -.3.3.5.y.y.d.g.t.          * * - * - < * - - - 9 c I ~ | o.=.:.<.0.0.t.t.y.s.t.y.r.                                                                                                                                                                    ",
"                                                                                                                                                                                                                                                      w 4 1 > 7 7 9 t l _ 3.3.5.t.p.s.s.s.              - - * - - * - - < 9 r g D I ^ | *.<.4.0.i.i.i.i.e.e.                                                                                                                                                                    ",
"                                                                                                                                                                                                                                                        9 2 2 2 8 7 0 u U >.2.5.5.t.p.d.s.0.              * * * * * * * * * & * - 0 d V P Q o.2.9.0.e.9.2.q.                                                                                                                                                                    ",
"                                                                                                                                                                                                                                                        w 2 3 > 8 9 0 t x ..3.2.4.t.p.d.s.q.                * * * - * * * * + + O O % - 2 e P o.....$. .;.<.:.                                                                                                                                                                  ",
"                                                                                                                                                                                                                                                          w 9 9 8 9 7 t u W >.1.2.4.q.s.g.t.                    * * * * * + X   X O O + @ % j W _ [ } ....-.;.                                                                                                                                                                  ",
"                                                                                                                                                                                                                                                          d w 2 8 8 9 0 t z -.1.3.4.q.t.s.s.q.                    $ * +         - @ + + + + 0 G ~ } } } ..#.#.                                                                                                                                                                  ",
"                                                                                                                                                                                                                                                          i w 3 8 8 9 8 9 y ( 2.3.3.3.0.q.s.i.                                  2 - $ % - - > b Y { } } } {  .}                                                                                                                                                                 ",
"                                                                                                                                                                                                                                                            w 2 8 8 8 8 8 9 D 1.5.4.4.4.q.t.s.w.                              p i 2 ; 7 8 q y c H T ~ ( ( ( [ }                                                                                                                                                                 ",
"                                                                                                                                                                                                                                                            9 2 1 2 8 8 8 8 y } 5.4.3.q.0.q.t.t.                              h p r 8 y l l z D T U U T ~ ~ ~ [                                                                                                                                                                 ",
"                                                                                                                                                                                                                                                              3 1 1 8 9 8 > > H 2.4.5.4.r.5.t.t.                              N N h p u z m n U T W W / ~ ~ ~ !                                                                                                                                                                 ",
"                                                                                                                                                                                                                                                              3 < 1 1 1 2 > ; y %.0.q.q.5.5.5.t.0.                          B B N x k k z n U Y T T / _ ~ ~ W R                                                                                                                                                                 ",
"                                                                                                                                                                                                                                                              1 < < < - 1 > : 2 W 4.5.q.5.4.4.6.q.                          Z V V V x c z m U U T T W / / ( Y                                                                                                                                                                   ",
"                                                                                                                                                                                                                                                                < - < - - - - - j ,.t.5.5.4.4.4.4.<.                        G Z V c c c n U U U F U U T U T                                                                                                                                                                     ",
"                                                                                                                                                                                                                                                                * - - - * - - - 2 ^ 4.0.5.5.4.4.4.<.                      G G Z S V n b D U U n m U U D D S                                                                                                                                                                     ",
"                                                                                                                                                                                                                                                                  , * * * * * - * x ,.0.4.4.5.3.2.-.                      I H G D D S n F U m n m L F m F                                                                                                                                                                       ",
"                                                                                                                                                                                                                                                                  * * * * - * * * 2 ) 4.3.3.2.2.2.-.                      J P P H U H D U U z m m n z z S                                                                                                                                                                       ",
"                                                                                                                                                                                                                                                                  & @ * * * * * % @ j ,.2.<.1.1.1.%.                    I I H H H H D F U m m m m n z D                                                                                                                                                                         ",
"                                                                                                                                                                                                                                                                    + * @ % @ + + O - ^ ,.1.1.>.1.%.                    I P G L F m m T U F F m S n S S                                                                                                                                                                         ",
"                                                                                                                                                                                                                                                                    + + + O O O O X O j =.-.-.-.-.o.                    I P P F n n U T U m m n n S c                                                                                                                                                                           ",
"                                                                                                                                                                                                                                                                                  1 9 t W -.-.%.%.X.                  I I I I P U F T T L m n m F n c                                                                                                                                                                           ",
"                                                                                                                                                                                                                                                                              Z B V D b F o.%.%.#.X.                  I W I P I U U T T m m n D H S                                                                                                                                                                             ",
"                                                                                                                                                                                                                                                                      +.| ` R J P P D F F / %.#.X.X.                  I Q Q I L D Y T U m n m F b x                                                                                                                                                                             ",
"                                                                                                                                                                                                                                                                9.0.2.:.*. .] ( W Y Y E P Y } @.X.X.                I E I ~ P L m T U n n m U Y c                                                                                                                                                                               ",
"                                                                                                                                                                                                                                                        0.0.t.t.t.q.0.2.:.=.%.o.{ { ( / ! E ~ X.}                   I Q I I P L U T F m n S H H V                                                                                                                                                                               ",
"                                                                                                                                                                                                                                                r.t.t.y.p.y.y.p.t.t.t.0.2.1.-.-.-.@. .} } ) ^ _ _                   I Q I I P D Y U m m S c j x                                                                                                                                                                                 ",
"                                                                                                                                                                                                                                          r.y.a.s.d.p.t.t.t.p.y.p.t.t.t.4.4.3.,.%.o.X.X.o.o.{ ( (                 I ! Q I I P L T U m m n b b b                                                                                                                                                                                 ",
"                                                                                                                                                                                                                                  r.y.u.y.d.y.d.y.p.y.y.t.p.t.t.p.t.s.t.0.4.-.o.) ~ Q ~ ~ ) ( ^ ~                 I Q I P P L P Y m m D n S D                                                                                                                                                                                   ",
"                                                                                                                                                                                                                            h.h.h.h.h.y.d.y.d.y.y.d.y.p.p.p.y.t.0.2.<.#.X.^ R P P P P P E ~ ^ W Y                 ! I I P G L W U m m D D V V                                                                                                                                                                                   ",
"                                                                                                                                                                                                                    u.g.j.j.l.j.h.d.d.d.y.y.y.y.s.y.y.0.2.=.X.) E P V v V V P P P L P L P W ^ W U               I ^ I I P D P I F m m m D V                                                                                                                                                                                     ",
"                                                                                                                                                                                                            s.g.g.h.j.j.j.j.j.h.d.s.y.y.y.t.r.<.%.{ W P V v l f a a a a f v n P P U P P U U E E U               Q Q I P A D Y P n n D V V V                                                                                                                                                                                     ",
"                                                                                                                                                                                                      s.d.h.j.h.j.j.j.g.g.h.h.h.y.r.4.=.o.~ P m x g g g l f f f s a a a a h v b D P P D P Y U U F               Q Q I P n L Y L n D D b n                                                                                                                                                                                       ",
"                                                                                                                                                                                              e.g.g.h.j.j.h.h.d.d.d.s.d.p.r.<.%.) I L v g f f f f f g f f f a a a a a e r a f x b D P P H U E Y H             E Q I P D b Y P n b L G D V                                                                                                                                                                                       ",
"                                                                                                                                                                                        e.s.s.g.d.d.d.d.d.g.a.a.q.4.,.o.^ P V j f f s f f f f s s s s a a t t e q 0 e 0 0 a d s h l b S D H U R F             Q I I P V D Y L n D P D D                                                                                                                                                                                         ",
"                                                                                                                                                                                 .7.7.e.e.e.i.q.e.i.i.i.q.1.#.[ U n c k f s s s s s a a a t a t q r r e 0 0 0 0 9 9 9 8 9 9 e r r d f g v n P P H             Q I P D V P U m n L P D V                                                                                                                                                                                         ",
"                                                                                                                                                                              K ' 7.9.7.<.:.:.-...} W H S c k u y a y a a a y t r t q e 0 e e e e e e 0 0 0 4 9 4 8 2 2 > 4 9 0 e r s h f f h v             R I P V x D Y L m D L V V                                                                                                                                                                                           ",
"                                                                                                                                                                              M J  .;...` U S x k u t q t t t y q q 0 0 9 0 0 0 0 9 9 0 0 e r r e q e 0 9 9 9 9 4 9 2 2 2 : > 4 4                           E I V x v G Y D n L D b B                                                                                                                                                                                           ",
"                                                                                                                                                                                C N p u e 8 7 ; 8 9 0 q t q 0 9 0 9 > > > > > 7 > 9 9 9 0 0 4 9 4 2 2 : : : - : -                                           Q G V b S U U S S A D V                                                                                                                                                                                             ",
"                                                                                                                                                                                3 $ $ ; ; = = = = = > 7 7 7 7 > > ; > ; ; ; ; > : 2 > 2 ; : - - ;                                                         I I D b b D Y F m P D V                                                                                                                                                                                               ",
"                                                                                                                                                                                , O @ $ = ; = % = ; = ; > ; ; ; ; ; - ; ; - - -                                                                           I S b b b P P n D D D B                                                                                                                                                                                               ",
"                                                                                                                                                                                $ + @ @ @ * * * ; - = ; - ; = =                                                                                           G x c b D U F D D D b                                                                                                                                                                                                 ",
"                                                                                                                                                                                  O + @ @ @ @ $                                                                                                         V x x c b D L n D D V v                                                                                                                                                                                                 ",
"                                                                                                                                                                                                                                                                                                        Z c x b b P D b b v j                                                                                                                                                                                                   ",
"                                                                                                                                                                                                                                                                                                      G V c c x D L z s a e r                                                                                                                                                                                                   ",
"                                                                                                                                                                                                                                                                                                      Z c x x x F n a r e r                                                                                                                                                                                                     ",
"                                                                                                                                                                                                                                                                                                      x x c g c D c s f g g                                                                                                                                                                                                     ",
"                                                                                                                                                                                                                                                                                                    k f j g k b D c k f g                                                                                                                                                                                                       ",
"                                                                                                                                                                                                                                                                                                    x j p q f V k t 0 r r                                                                                                                                                                                                       ",
"                                                                                                                                                                                                                                                                                                    N k u y x c t 0 9 q                                                                                                                                                                                                         ",
"                                                                                                                                                                                                                                                                                                  M k u p f c l u y y r                                                                                                                                                                                                         ",
"                                                                                                                                                                                                                                                                                                  j f f p l x y q r r                                                                                                                                                                                                           ",
"                                                                                                                                                                                                                                                                                                  g d d u l k r t r r                                                                                                                                                                                                           ",
"                                                                                                                                                                                                                                                                                                h j d y k l u t e e                                                                                                                                                                                                             ",
"                                                                                                                                                                                                                                                                                                p p y r k p 8 2 8 9                                                                                                                                                                                                             ",
"                                                                                                                                                                                                                                                                                                e w w p f q 1 ; 2                                                                                                                                                                                                               ",
"                                                                                                                                                                                                                                                                                              & < 2 8 y r - ; 8 2                                                                                                                                                                                                               ",
"                                                                                                                                                                                                                                                                                                X & 2 e 8 ; ; 1                                                                                                                                                                                                                 ",
"                                                                                                                                                                                                                                                                                                  X # - $ * * $                                                                                                                                                                                                                 ",
"                                                                                                                                                                                                                                                                                                      X X X X                                                                                                                                                                                                                   ",
"                                                                                                                                                                                                                                                                                                                                                                                                                                                                                                                                ",
"                                                                                                                                                                                                                                                                                                                                                                                                                                                                                                                                ",
"                                                                                                                                                                                                                                                                                                                                                                                                                                                                                                                                ",
"                                                                                                                                                                                                                                                                                                                                                                                                                                                                                                                                ",
"                                                                                                                                                                                                                                                                                                                                                                                                                                                                                                                                ",
"                                                                                                                                                                                                                                                                                                                                                                                                                                                                                                                                ",
"                                                                                                                                                                                                                                                                                                                                                                                                                                                                                                                                ",
"                                                                                                                                                                                                                                                                                                                                                                                                                                                                                                                                ",
"                                                                                                                                                                                                                                                                                                                                                                                                                                                                                                                                ",
"                                                                                                                                                                                                                                                                                                                                                                                                                                                                                                                                ",
"                                                                                                                                                                                                                                                                                                                                                                                                                                                                                                                                ",
"                                                                                                                                                                                                                                                                                                                                                                                                                                                                                                                                ",
"                                                                                                                                                                                                                                                                                                                                                                                                                                                                                                                                ",
"                                                                                                                                                                                                                                                                                                                                                                                                                                                                                                                                ",
"                                                                                                                                                                                                                                                                                                                                                                                                                                                                                                                                ",
"                                                                                                                                                                                                                                                                                                                                                                                                                                                                                                                                ",
"                                                                                                                                                                                                                                                                                                                                                                                                                                                                                                                                ",
"                                                                                                                                                                                                                                                                                                                                                                                                                                                                                                                                ",
"                                                                                                                                                                                                                                                                                                                                                                                                                                                                                                                                ",
"                                                                                                                                                                                                                                                                                                                                                                                                                                                                                                                                ",
"                                                                                                                                                                                                                                                                                                                                                                                                                                                                                                                                ",
"                                                                                                                                                                                                                                                                                                                                                                                                                                                                                                                                ",
"                                                                                                                                                                                                                                                                                                                                                                                                                                                                                                                                "
};
