/* XPM */
static char *out[] = {
/* columns rows colors chars-per-pixel */
"256 256 157 2 ",
"   c None",
".  c #1C130E",
"X  c #141010",
"o  c #1E1611",
"O  c #1D1812",
"+  c #20160F",
"@  c #211712",
"#  c #241A14",
"$  c #2A1E16",
"%  c #261D19",
"&  c #2B1F18",
"*  c #2D2017",
"=  c #2D2119",
"-  c #312117",
";  c #33251B",
":  c #38271C",
">  c #36281E",
",  c #3B2A1E",
"<  c #362921",
"1  c #3D2D22",
"2  c #3D2F29",
"3  c #3F3026",
"4  c #3E322D",
"5  c #3F3632",
"6  c #402D1F",
"7  c #412F22",
"8  c #443224",
"9  c #4A3526",
"0  c #4F3827",
"q  c #45342A",
"w  c #493629",
"e  c #4D392A",
"r  c #513927",
"t  c #533D2C",
"y  c #473830",
"u  c #4C3C31",
"i  c #4B3D3A",
"p  c #533E31",
"a  c #57402E",
"s  c #59412E",
"d  c #554132",
"f  c #5C4432",
"g  c #5E4836",
"h  c #54433A",
"j  c #5B473A",
"k  c #5E4A3B",
"l  c #604734",
"z  c #624A36",
"x  c #684D37",
"c  c #654C3A",
"v  c #694F3A",
"b  c #67503D",
"n  c #6C523D",
"m  c #71553E",
"M  c #5F4D40",
"N  c #5F5143",
"B  c #654F40",
"V  c #675143",
"C  c #6D5442",
"Z  c #6F5946",
"A  c #665248",
"S  c #695548",
"D  c #6D584A",
"F  c #715642",
"G  c #755A44",
"H  c #795D46",
"J  c #745C4A",
"K  c #7A5E49",
"L  c #775F50",
"P  c #7E6047",
"I  c #7D614B",
"U  c #766253",
"Y  c #7D6451",
"T  c #7F6A59",
"R  c #82654D",
"E  c #86684F",
"W  c #89694F",
"Q  c #836750",
"!  c #866952",
"~  c #8A6D54",
"^  c #866C59",
"/  c #8A6E5A",
"(  c #8E7057",
")  c #8E725A",
"_  c #917156",
"`  c #93755B",
"'  c #99775D",
"]  c #96785E",
"[  c #99795E",
"{  c #8D7361",
"}  c #937661",
"|  c #967962",
" . c #9C7D62",
".. c #957B69",
"X. c #9B7E69",
"o. c #A07F63",
"O. c #9F8066",
"+. c #9E826C",
"@. c #9D8472",
"#. c #A18166",
"$. c #A4856A",
"%. c #A8876A",
"&. c #A7886E",
"*. c #AA896D",
"=. c #A28671",
"-. c #A68972",
";. c #AC8D73",
":. c #A58C79",
">. c #AB8E79",
",. c #B08F73",
"<. c #AE9076",
"1. c #AE927A",
"2. c #B29275",
"3. c #B89677",
"4. c #B3957B",
"5. c #B8977A",
"6. c #B6987D",
"7. c #BA9A7D",
"8. c #C09E7F",
"9. c #AE9481",
"0. c #AF9881",
"q. c #B29681",
"w. c #B69A82",
"e. c #BB9D83",
"r. c #B59D89",
"t. c #BB9F89",
"y. c #BEA086",
"u. c #B7A08A",
"i. c #BEA289",
"p. c #BBA491",
"a. c #C09F81",
"s. c #C2A284",
"d. c #C2A58A",
"f. c #C6A88B",
"g. c #C9AC8D",
"h. c #C6AB92",
"j. c #CCAE91",
"k. c #C6B096",
"l. c #CEB193",
"z. c #C7B198",
"x. c #CBB39B",
"c. c #D1B596",
"v. c #D3B799",
"b. c #D5BA9B",
"n. c #D9BD9E",
"m. c #CAB5A4",
"M. c #CFBDA6",
"N. c #D5BEA3",
"B. c #DABFA0",
"V. c #D4C0A5",
"C. c #DDC3A4",
"Z. c #DFC9A7",
"A. c #DDC5A9",
"S. c #DFC8A9",
"D. c #E0C7A7",
"F. c #E0C7A8",
"G. c #E2CAAB",
/* pixels */
"                                                                                                                                                                                                                                                                                                                                                                                                                                                                                                                                ",
"                                                                                                                                                                                                                                                                                                                                                                                                                                                                                                                                ",
"                                                                                                                                                                                                                                                                                                                                                                                                                                                                                                                                ",
"                                                                                                                                                                                                                                                                                                                                                                                                                                                                                                                                ",
"                                                                                                                                                                                                                                                                                                                                                                                                                                                                                                                                ",
"                                                                                                                                                                                                                                                                                                                                                                                                                                                                                                                                ",
"                                                                                                                                                                                                                                                                                                                                                                                                                                                                                                                                ",
"                                                                                                                                                                                                                                                                                                                                                                                                                                                                                                                                ",
"                                                                                                                                                                                                                                                                                                                                                                                                                                                                                                                                ",
"                                                                                                                                                                                                                                                                                                                                                                                                                                                                                                                                ",
"                                                                                                                                                                                                                                                                                                                                                                                                                                                                                                                                ",
"                                                                                                                                                                                                                                                                                                                                                                                                                                                                                                                                ",
"                                                                                                                                                                                                                                                                                                                                                                                                                                                                                                                                ",
"                                                                                                                                                                                                                                                                                                                                                                                                                                                                                                                                ",
"                                                                                                                                                                                                                                                                                                                                                                                                                                                                                                                                ",
"                                                                                                                                                                                                                                                                                                                                                                                                                                                                                                                                ",
"                                                                                                                                                                                                                                                                                                                                                                                                                                                                                                                                ",
"                                                                                                                                                                                                                                                                                                                                                                                                                                                                                                                                ",
"                                                                                                                                                                                                                                                                                                                                                                                                                                                                                                                                ",
"                                                                                                                                                                                                                                                                                                                                                                                                                                                                                                                                ",
"                                                                                                                                                                                                                                                                                                                                                                                                                                                                                                                                ",
"                                                                                                                                                                                                                                                                                                                                                                                                                                                                                                                                ",
"                                                                                                                                                                                                                                                                                                                                                                                                                                                                                                                                ",
"                                                                                                                                                                                                                                                                                                                                                                                                                                                                                                                                ",
"                                                                                                                                                                                                                                                                                                                                                                                                                                                                                                                                ",
"                                                                                                                                                                                                                                                                                                                                                                                                                                                                                                                                ",
"                                                                                                                                                                                                                                                                                                                                                                                                                                                                                                                                ",
"                                                                                                                                                                                                                                                                                                                                                                                                                                                                                                                                ",
"                                                                                                                                                                                                                                                                                                                                                                                                                                                                                                                                ",
"                                                                                                                                                                                                                                                                                                                                                                                                                                                                                                                                ",
"                                                                                                                                                                                                                                                                                                                                                                                                                                                                                                                                ",
"                                                                                                                                                                                                                                                                                                                                                                                                                                                                                                                                ",
"                                                                                                                                                                                                                                                                                                                                                                                                                                                                                                                                ",
"                                                                                                                                                                                                                                                                                                                                                                                                                                                                                                                                ",
"                                                                                                                                                                                                                                                                                                                                                                                                                                                                                                                                ",
"                                                                                                                                                                                                                                                                                                                                                                                                                                                                                                                                ",
"                                                                                                                                                                                                                                                                                                                                                                                                                                                                                                                                ",
"                                                                                                                                                                                                                                                                                                                                                                                                                                                                                                                                ",
"                                                                                                                                                                                                                                                                                                                                                                                                                                                                                                                                ",
"                                                                                                                                                                                                                                                                                                                                                                                                                                                                                                                                ",
"                                                                                                                                                                                                                                                                                                                                                                                                                                                                                                                                ",
"                                                                                                                                                                                                                                                                                                                                                                                                                                                                                                                                ",
"                                                                                                                                                                                                                                                                                                                                                                                                                                                                                                                                ",
"                                                                                                                                                                                                                                                                                                                                                                                                                                                                                                                                ",
"                                                                                                                                                                                                                                                                                                                                                                                                                                                                                                                                ",
"                                                                                                                                                                                                                                                                                                                                                                                                                                                                                                                                ",
"                                                                                                                                                                                                                                                                                                                                                                                                                                                                                                                                ",
"                                                                                                                                                                                                                                                                                                                                                                                                                                                                                                                                ",
"                                                                                                                                                                                                                                                                                                                                                                                                                                                                                                                                ",
"                                                                                                                                                                                                                                                                                                                                                                                                                                                                                                                                ",
"                                                                                                                                                                                                                                                                                                                                                                                                                                                                                                                                ",
"                                                                                                                                                                                                                                                                                                                                                                                                                                                                                                                                ",
"                                                                                                                                                                                                                                                                                                                                                                                                                                                                                                                                ",
"                                                                                                                                                                                                                                                                                                                                                                                                                                                                                                                                ",
"                                                                                                                                                                                                                                                                                                                                                                                                                                                                                                                                ",
"                                                                                                                                                                                                                                                                                                                                                                                                                                                                                                                                ",
"                                                                                                                                                                                                                                                                                                                                                                                                                                                                                                                                ",
"                                                                                                                                                                                                                                                                                                                                                                                                                                                                                                                                ",
"                                                                                                                                                                                                                                                                                                                                                                                                                                                                                                                                ",
"                                                                                                                                                                                                                                                                                                                                                                                                                                                                                                                                ",
"                                                                                                                                                                                                                                                                                                                                                                                                                                                                                                                                ",
"                                                                                                                                                                                                                                                                                                                                                                                                                                                                                                                                ",
"                                                                                                                                                                                                                                                                                                                                                                                                                                                                                                                                ",
"                                                                                                                                                                                                                                                                                                                                                                                                                                                                                                                                ",
"                                                                                                                                                                                                                                                                                                                                                                                                                                                                                                                                ",
"                                                                                                                                                                                                                                                                                                                                                                                                                                                                                                                                ",
"                                                                                                                                                                                                                                                                                                                                                                                                                                                                                                                                ",
"                                                                                                                                                                                                                                                                                                                                                                                                                                                                                                                                ",
"                                                                                                                                                                                                                                                                                                                                                                                                                                                                                                                                ",
"                                                                                                                                                                                                                                                                                                                                                                                                                                                                                                                                ",
"                                                                                                                                                                                                                                                                                                                                                                                                                                                                                                                                ",
"                                                                                                                                                                                                                                                                                                                                                                                                                                                                                                                                ",
"                                                                                                                                                                                                                                                                                                                                                                                                                                                                                                                                ",
"                                                                                                                                                                                                                                                                                          V.S.C.                                                                                                                                                                                                                                ",
"                                                                                                                                                                                                                                                                                          A.A.A.G.V.                                                                                                                                                                                                                            ",
"                                                                                                                                                                                                                                                                                        V.S.n.n.Z.Z.Z.b.                                                                                                                                                                                                                        ",
"                                                                                                                                                                                                                                                                                        Z.n.n.n.n.n.n.Z.Z.x.                                                                                                                                                                                                                    ",
"                                                                                                                                                                                                                                                                                      A.C.b.b.b.b.b.n.n.C.Z.V.                                                                                                                                                                                                                  ",
"                                                                                                                                                                                                                                                                                      Z.b.b.b.b.b.b.b.b.n.n.C.Z.b.                                                                                                                                                                                                              ",
"                                                                                                                                                                                                                                                                                    Z.n.b.c.b.v.b.b.c.b.b.b.b.n.Z.Z.V.                                                                                                                                                                                                          ",
"                                                                                                                                                                                                                                                                                  V.C.v.c.c.c.c.l.l.l.l.c.b.b.b.n.n.Z.n.k.                                                                                                                                                                                                      ",
"                                                                                                                                                                                                                                                                                  A.v.l.l.l.l.j.l.l.l.l.l.l.c.c.b.b.b.n.Z.V.                                                                                                                                                                                                    ",
"                                                                                                                                                                                                                                                                                M.b.l.l.l.j.j.g.g.g.g.g.l.l.l.c.c.c.c.c.b.n.Z.c.                                                                                                                                                                                                ",
"                                                                                                                                                                                                                                                                                N.l.f.g.g.f.f.f.g.l.8.g.g.g.g.l.l.c.c.c.c.c.c.Z.n.l.                                                                                                                                                                                            ",
"                                                                                                                                                                                                                                                                              V.l.g.g.f.8.8.f.g.8.l.g.g.g.j.g.g.g.l.l.l.l.c.c.c.l.l.c.                                                                                                                                                                                          ",
"                                                                                                                                                                                                                                                                            m.b.f.f.f.8.f.f.8.f.g.i.8.l.g.8.g.g.l.l.l.g.l.l.c.l.g.g.g.j.f.                                                                                                                                                                                      ",
"                                                                                                                                                                                                                                                                            N.d.8.8.f.f.8.f.f.8.8.g.8.g.8.j.g.g.g.g.l.g.l.l.g.g.l.g.s.e.d.f.t.                                                                                                                                                                                  ",
"                                                                                                                                                                                                                                                                          x.d.7.7.8.8.f.8.8.8.f.i.8.g.8.8.g.g.g.s.g.g.l.g.l.g.g.f.s.s.7.5.6.e.d.r.                                                                                                                                                                              ",
"                                                                                                                                                                                                                                                                          g.2.2.7.7.7.8.8.8.8.8.y.i.f.8.f.i.f.8.f.s.f.f.g.g.f.s.a.a.a.a.e.5.<.4.e.e.                                                                                                                                                                            ",
"                                                                                                                                                                                                                                                                        k.3.,.2.2.2.3.7.8.7.6.8.8.y.8.f.f.8.g.8.s.s.s.s.f.f.s.s.a.a.d.a.a.e.w.3.2.                                                                                                                                                                              ",
"                                                                                                                                                                                                                                                                        i.3.,.,.2.,.*.2.2.2.4.6.7.8.y.8.8.f.8.i.s.s.s.s.a.a.a.s.f.d.d.d.a.d.i.6.$.                                                                                                                                                                              ",
"                                                                                                                                                                                                                                                                      i.2.2.,.,.,.,.*.*.*.,.2.2.3.3.8.8.8.8.f.8.8.s.s.s.8.8.a.a.a.a.e.a.a.d.s.2.                                                                                                                                                                                ",
"                                                                                                                                                                                                                                                                    p.y.*.*.*.*.*.*.2.*.,.,.2.2.2.2.7.7.8.8.8.y.s.s.s.s.s.a.8.6.e.7.e.7.e.e.5.                                                                                                                                                                                  ",
"                                                                                                                                                                                                                                                                    i.;.*.*.*.*.*.*.*.*.*.,.,.,.2.2.3.7.8.8.8.8.8.8.8.s.s.s.a.a.e.7.7.a.e.7.2.                                                                                                                                                                                  ",
"                                                                                                                                                                                                                                                                  p.2.#.#.%.*.%.*.,.2.2.,.,.%.%.,.2.2.3.6.8.8.8.8.8.8.s.s.f.d.a.a.a.a.a.7.5.                                                                                                                                                                                    ",
"                                                                                                                                                                                                                                                                  <.O.O.#.#.*.*.%.*.*.*.,.*.*.#.*.*.2.2.2.6.8.8.y.s.8.8.a.d.d.a.a.d.a.a.e.*.                                                                                                                                                                                    ",
"                                                                                                                                                                                                                                                                r.] _ [ [ O.#.#.#.#.%.%.%.%.*.$.#.#.*.,.2.3.3.8.8.8.8.8.7.8.8.i.8.s.s.8.2.                                                                                                                                                                                      ",
"                                                                                                                                                                                                                                                                <.( E W _ [ #.#.O.#.%.#.#.#.$.O.#.#.%.,.2.2.*.3.7.7.7.8.8.8.8.8.7.y.y.7.;.                                                                                                                                                                                      ",
"                                                                                                                                                                                                                                                              :.) ( W W W _ _ %.%.%.%.#.#.%.%.%.%.%.#.%.*.2.3.3.7.7.7.8.7.7.8.7.7.5.7.2.                                                                                                                                                                                        ",
"                                                                                                                                                                                                                                                              ^ I W ( ( W W W _ #.#.%.%.#.%.%.%.%.%.%.%.*.,.,.2.3.7.7.3.7.7.7.8.7.7.7.                                                                                                                                                                                          ",
"                                                                                                                                                                                                                                                              u l H E ~ W W W W ' #.#.#.#.#.$.$.#.O.%.%.*.*.,.2.2.2.3.3.3.7.7.8.e.7.2.                                                                                                                                                                                          ",
"                                                                                                                                                                                                                                                                  t b E W W W W _ [ [ #.#.o.o.#.#.%.#.%.%.%.*.*.2.2.2.2.3.6.7.7.7.2.                                                                                                                                                                                            ",
"                                                                                                                                                                                                                                                                      d m W W W ` [ ' [ [  .[ o.#.#.%.%.*.%.%.*.*.2.2.3.2.3.3.6.5.#.                                                                                                                                                                                            ",
"                                                                                                                                                                                                                                                                        9 l R _ _ [ [ ' [ [ o.#.O.#.#.%.%.%.%.%.*.%.*.2.2.2.3.2.*.                                                                                                                                                                                              ",
"                                                                                                                                                                                                                                                                            p F ~ ' ' ] [ o.o.o.o.#.#.%.#.%.#.#.%.%.%.%.%.,.*.%.'                                                                                                                                                                                               ",
"                                                                                                                                                                                                                                                                                f R [  .[ [ [ #.#.#.#.#.%.%.#._ #.%.*.%.%.%.%.#.                                                                                                                                                                                                ",
"                                                                                                                                                                                                                                                                                = ; z ~ [ o. .o.o.o.#.#.#.%.#.#.#.#.%.*.*.*.%.                                                                                                                                                                                                  ",
"                                                                                                                                                                                                                                                                              y O . # 8 F _ o.o.o.o.#.#.#.#.#.#.O.O.%.*.*.*.#.                                                                                                                                                                                                  ",
"                                                                                                                                                                                                                                                                              2 O O . o & t K [ o.o.o.o.#.#.#.#.O.O.%.%.%.#.                                                                                                                                                                                                    ",
"                                                                                                                                                                                                                                                                              < @ @ @ @ o @ ; f W [ o.o.#._ W #.O.O.O.O.O.P                                                                                                                                                                                                     ",
"                                                                                                                                                                                                                                                                            h = # # @ @ o o . @ 9 H _ o.O.W W O.W _ _ _ O.                                                                                                                                                                                                      ",
"                                                                                                                                                                                                                                                                            j < % # @ @ @ @ . .     x m W _ _ _ _ _ _ ~ H                                                                                                                                                                                                       ",
"                                                                                                                                                                                                                                                                          U d 1 = # # # @ # @ .         a G ~ ( R W ~ H                                                                                                                                                                                                         ",
"                                                                                                                                                                                                                                                                          L d q > = # @ # # #               g H W E P                                                                                                                                                                                                           ",
"                                                                                                                                                                                                                                                  d.d.                    J d e 9 1 = & $ # #                 t x H G                                                                                                                                                                                                           ",
"                                                                                                                                                                                                                                                r.4.t.a.p.              Y C f t e w 8 1 - *                       q                                                                                                                                                                                                             ",
"                                                                                                                                                                                                                                                q.;.*.,.a.d.d.          J c f d t w w w 1 1                                                                                                                                                                                                                                     ",
"                                                                                                                                                                                                                                              r.4.;.;.,.<.4.a.a.t.      b c z f d e e t e p                                                                                                                                                                                                                                     ",
"                                                                                                                                                                                                                                              t.;.;.;.,.2.2.3.5.a.a.e.=.Q G D C z d d g f                                                                                                                                                                                                                                       ",
"                                                                                                                                                                                                                                            r.w.2.2.2.2.3.4.3.8.e.e.a.s.w.=.) I C z d z D                                                                                                                                                                                                                                       ",
"                                                                                                                                                                                                                                            i.6.6.5.3.6.e.8.7.a.7.a.a.a.a.a.a.<.{ F p p J                                                                                                                                                                                                                                       ",
"                                                                                                                                                                                                                                          9.e.5.7.7.5.5.a.a.a.a.f.a.a.a.a.8.a.a.a.>./ C                                                                                                                                                                                                                                         ",
"                                                                                                                                                                                                                                          t.5.2.5.7.7.a.a.j.c.v.b.f.8.a.8.8.8.8.a.a.a.4.>.                                                                                                                                                                                                                                      ",
"                                                                                                                                                                                                                                          w.2.2.5.f.c.b.v.B.B.B.B.v.e.5.7.3.3.3.5.5.5.w.a.w.>.                                                                                                                                                                                                                                  ",
"                                                                                                                                                                                                                                        u.5.5.f.b.D.D.D.B.B.B.B.B.B.l.e.3.7.5.,.3.3.2.2.3.5.w.q.:.                                                                                                                                                                                                                              ",
"                                                                                                                                                                                                                                        d.g.C.G.G.G.F.D.B.B.B.B.B.n.v.g.5.3.5.,.%.;.,.2.4.2.<.3.4.>.:.                                                                                                                                                                                                                          ",
"                                                                                                                                                                                                                                      z.V.G.G.G.G.G.D.B.B.B.B.B.b.n.v.c.d.4.3.2.,.;.;.<.<.2.,.;.;.-.-.>.=.                                                                                                                                                                                                                      ",
"                                                                                                                                                                                                                                    A.G.G.G.G.G.G.G.D.B.B.B.b.b.v.c.c.h.e.<.2.2.,.,.;.,.2.2.,.;.&.-.-.-.:.=.                                                                                                                                                                                                                    ",
"                                                                                                                                                                                                                              B.D.G.G.G.Z.Z.Z.Z.Z.Z.Z.Z.n.b.b.b.l.a.4.o.| | 2.5.3.4.;.,.;.-.;.&.&.&.-.;.-.                                                                                                                                                                                                                      ",
"                                                                                                                                                                                                                          V.A.G.G.G.G.Z.Z.C.C.Z.Z.n.n.V.n.b.c.8.a.X._ _ ( _ ;.2.4.3.4.,.,.,.;.;.;.-.-.&.$.                                                                                                                                                                                                                      ",
"                                                                                                                                                                                                                      B.A.G.D.G.D.D.C.C.C.C.Z.V.n.n.n.n.b.i.,.O.| _ ~ W W ( o.2.,.2.2.,.,.,.<.;.;.&.X.o.                                                                                                                                                                                                                        ",
"                                                                                                                                                                                                                  A.A.G.D.D.D.D.D.Z.C.C.n.n.n.b.n.n.b.g.3.%.O.P ( W ~ ( ~ W | ;.2.,.,.,.;.;.,.;.&.-.;.&.                                                                                                                                                                                                                        ",
"                                                                                                                                                                                                              A.A.F.F.F.D.D.B.B.B.Z.B.B.n.n.b.b.l.8.2.O.O.W O.O.E W W W ~ R ( o.*.,.*.,.,.;.;.&.o.X.$. .                                                                                                                                                                                                                        ",
"                                                                                                                                                                                                          V.G.D.G.A.D.A.C.D.C.B.n.n.n.n.b.b.l.8.%.O.O._ O.W W W E R W R R E ~ %.;.&.;.;.;.;.&.&.X.o. .                                                                                                                                                                                                                          ",
"                                                                                                                                                                                                      N.A.F.D.D.D.D.D.C.C.C.B.n.v.c.c.l.8.7.#.O.W O.~ ~ I O.P O.R R R R H R ( o.&.;.;.,.;.;.;.&.;.| )                                                                                                                                                                                                                           ",
"                                                                                                                                                                                                    C.D.C.D.F.D.A.C.C.C.B.n.n.n.c.g.7.2.#.~ O.O.~ O.~ W O.E P P R H H H H ~ o.;.%.&.%.%.;.;.;.;.;.X.                                                                                                                                                                                                                            ",
"                                                                                                                                                                                                v.B.B.C.B.V.D.C.Z.n.C.n.n.n.v.l.s.2.$.] ` _ ~ ( O.P W O.H P E I R R G R _ $.$.%.&.%.%.&.&.;.,.,.-. .                                                                                                                                                                                                                            ",
"                                                                                                                                                                                              c.b.N.b.b.B.B.B.B.n.n.n.n.n.b.f.*.[ ~ ~ ~ _ ~ E E W W I P P P E I H G R ' &.&.$.$.$.$.&.&.&.&.&.&.$.                                                                                                                                                                                                                              ",
"                                                                                                                                                                                          z.l.l.c.b.b.b.b.v.v.b.b.c.c.j.s.,.[ _ ~ E E ~ ( ( E R I I P P P P H m E ' #.*.*.%.$.$.$.o.%.;.;.*.-.$.O.                                                                                                                                                                                                                              ",
"                                                                                                                                                                                        h.g.f.f.f.j.j.j.g.g.g.l.j.s.3.O.W E R E E E E W E ~ E E P H H m n m I O.o.%.*.*.&.$.$.$.$.$.&.;.*.*.%.-.                                                                                                                                                                                                                                ",
"                                                                                                                                                                                    t.i.e.e.e.w.w.4.6.w.5.6.a.6.#.E P n f n P P P P P I P I P G m m m x G O.O.$.#.%.%.&.%.$.$.$.o.o.$.&.&.$.$.o.                                                                                                                                                                                                                                ",
"                                                                                                                                                                                  4.6.2.%.O.&.1.2.&.o.%.=.| Q G m x l f s x P P P I P P P G G m m m P O.O.#.#.%.%.%.%.%.%.%.$.$.$.o.o.$.$.$.$.                                                                                                                                                                                                                                  ",
"                                                                                                                                                                                p.x.m.d.-.| / ) ) o.o.( R n z x n x l f l x z z b I P m G m m I E O.#.#.O.O.#.*.%.%.&.&.$.$.$.$.$.o.o.o.$.$.o.                                                                                                                                                                                                                                  ",
"                                                                                                                                                                                  s.h.j.x.h.d.r.:.} F G F n x l l l l x f f f s z m G n m G R ] O.O.O.#.#.#.#.$.%.%.%.%.&.$.*.$.$.$.$.$.o.o.}                                                                                                                                                                                                                                   ",
"                                                                                                                                                                                  4.6.6.e.2.6.e.w.;.L x n x l t t s p l l f t s g x x n T O.O.O.O.O.O.O.O.$.$.%.$.o.#.$.%.&.$.$.$.$.$.$.#. .                                                                                                                                                                                                                                    ",
"                                                                                                                                                                                  $.<.2.6.6.;.2.t.q.=.J l z f 0 r t 0 r r r r s s x I O.O.O.O.O.O.O.O.O.$.$.$.#.$.$.#.#. .o.o.o.#.$.#.#.#. .                                                                                                                                                                                                                                    ",
"                                                                                                                                                                                    ;.2.2.2.2.<.e.a.;.=.A e r 7 8 0 7 , 7 8 w f Z T ) ) O.O.O.O.O.O.O.O.#.$.$.$.$.o.o.$.o.o.o. .X.#.#.#.#.                                                                                                                                                                                                                                      ",
"                                                                                                                                                                                    $.;.;.;.5.5.4.e.4.;.X.M 7 7 , 6 8 7 7 t C R ~ ~ O.) O.O.O.O.O.O.O.O.#.#.$.$.#.$.o.#.o. . .o. .o. .o.|                                                                                                                                                                                                                                       ",
"                                                                                                                                                                                    } O.#.$.;.;.&.;.6.3.&.{ q - ; = > d v I ! ) ( O.) O.O.O.O.O.O.O.O.O.O.O.$.%.$.$.#.$.o. . . . .o.o. .                                                                                                                                                                                                                                        ",
"                                                                                                                                                                                    ^ ` }  . .O.o.o.,.6.;.$.D ; = = < S I / ) ) O.) O.) ) ] O.] _ O.O.O.O.O.#.#.$.$.$.$. .[  . . . . . .                                                                                                                                                                                                                                        ",
"                                                                                                                                                                                      I I Y ~ _ ` | o.3.,.%.| q * = 2 D / ( ) ` ) O.O.) O.O.] O.O.O.O.O.O.#.O.#.$.o. .o. .o. . . . . .                                                                                                                                                                                                                                          ",
"                                                                                                                                                                                      Z F n C P ! ~ ~ &.;.%.%.J * = w Y ) ) ) ` ) O.) O.) O.O.] O.O.O.O.O.O.#.#.o.o.o. .| [  . . . .|                                                                                                                                                                                                                                           ",
"                                                                                                                                                                                      b b n b P R R R O.<.$.$.O.h 4 N / ) ) ) ) ] ] ] O.] O.O.]  . .O.O.O.O.O.#.X.o.o. . .' [  . . .                                                                                                                                                                                                                                            ",
"                                                                                                                                                                                        b b k C H H P W *.,.*.*.U 4 S ) ) ) ) ) ) ) ) ] O.) ] ] ] |  . . . . . .o. . . .[ | | ' [ |                                                                                                                                                                                                                                             ",
"                                                                                                                                                                                        H I I G H m H R $.2.,.<.O.j S ) ) ) ( E ! ~ ~ ) ) O.] ] ] | | ] ` ] ' |  . . .[ ' ' [  .| [                                                                                                                                                                                                                                             ",
"                                                                                                                                                                                        D Y Y I P H G H ] 6.2.,.<.I S / ~ ! ! Q ! ! E / ) ) ) O.] ] ` ) ` _ ` ' |  . . .| ' | o. .|                                                                                                                                                                                                                                             ",
"                                                                                                                                                                                        j c C Z E P G H W 6.7.6.<.O.U T Y Y E Y ! ~ ! E ~ ) ) ) ` ) ` ` _ _ ` ' [ [  .O. .[ [  . . .                                                                                                                                                                                                                                            ",
"                                                                                                                                                                                          a d k m R P P P *.7.7.6.$.Y Y I I E Y R R ~ Q E ) ) ( ) ( ` ) ` ` ` ` ' ] ]  .#.| [  . . .                                                                                                                                                                                                                                            ",
"                                                                                                                                                                                          y d a g P H P P ] 6.6.6.2.T P I I I E Y R ! ! Q ! ) ) ) ( ( ( ( ` ` _ ` ' ' `  . .[ ' | |                                                                                                                                                                                                                                             ",
"                                                                                                                                                                                          4 4 a g m H H P E 2.6.7.6.) P I P I E R Y R ! ! R R ) ( ( ) ( ~ ~ ~ ( ( ` ' '  .| [ ` ' '                                                                                                                                                                                                                                             ",
"                                                                                                                                                                                            w e d m I I I P O.6.6.6.O.m P G I I Y I Y Y ! T E W ~ / ~ ~ W Q Q ~ ( ( ~ ~ ( ` ` ' ` }                                                                                                                                                                                                                                             ",
"                                                                                                                                                                                            4 e d g Z Y E P O.3.6.6.$.Z G G P I I I I I ! ( ~ ! Q ~ ~ ~ W Q R W ~ ( ~ E E ~ _ ` `                                                                                                                                                                                                                                               ",
"                                                                                                                                                                                              q a d g Z ~ W ) 2.7.3.<.Y Z m G G P I Z P P ~ ( ~ ! W ! ! R Q Q Q ! ~ ~ ~ W Q ~ / _                                                                                                                                                                                                                                               ",
"                                                                                                                                                                                              8 w a 9 g Y ` _ ,.7.6.4.` G Z P P G G I P P P T ! ~ ! Q Q R Q R E E ! ! ! ~ ~ ~ ` `                                                                                                                                                                                                                                               ",
"                                                                                                                                                                                                8 q 9 e Z ) ~ O.6.7.6.O.Z b G H P G G G P P I Y ~ ^ ! ! Q R R E ! ! Q ! ! ~ ( _ `                                                                                                                                                                                                                                               ",
"                                                                                                                                                                                                , q a e b Q R ( 2.6.6.O.m b n G G G G Z Z P I I Q Q ~ ~ ~ W Q Q ! ! ! E W ! ~ ( _                                                                                                                                                                                                                                               ",
"                                                                                                                                                                                                  8 w w g P P I *.3.7.=.n b b m G P Z m m Z P I R Q Q ~ ~ Q Q Q ! E E Q Q Q ~ ~ `                                                                                                                                                                                                                                               ",
"                                                                                                                                                                                                  3 8 8 d G P P O.6.6.<.Z b v b Z Z I G n n G G K K R Q ! W Q K R R P Q Q E ! ( )                                                                                                                                                                                                                                               ",
"                                                                                                                                                                                                    8 q t G P m ` 2.6.2.Q c v c v m G P C C n G G P I I Q Q R R K K K E R R Q ! /                                                                                                                                                                                                                                               ",
"                                                                                                                                                                                                    1 1 w Z G m ! <.7.6.) z c v x n n n G P G n n G H I K R R K R K R K K E Q W ^                                                                                                                                                                                                                                               ",
"                                                                                                                                                                                                      < q C I G P %.6.6. .z x c b v b b n G P P G C G H R K K H G H K K K R Q Q !                                                                                                                                                                                                                                               ",
"                                                                                                                                                                                                      1 8 c I H H [ 6.6.=.c f l z c c b b b C G H G H H K Y K K H G G H H H K R R                                                                                                                                                                                                                                               ",
"                                                                                                                                                                                                      8 1 a I I P ` 2.2.-.J f f f g g z g x n m G G G G H H H H J G H G F H H H                                                                                                                                                                                                                                                 ",
"                                                                                                                                                                                                        < 8 V I H E &.<.$.Y c d f f g f f a z n C C G G J H K H H G G K G G G H                                                                                                                                                                                                                                                 ",
"                                                                                                                                                                                                        < > w G H H | *.$.Q c f f f s f f s s f b n F G G G H G F G G H G F F G                                                                                                                                                                                                                                                 ",
"                                                                                                                                                                                                          > < a g f I $.$.} c z f f f f g f a a f x n n F F G H G F F G G F F G                                                                                                                                                                                                                                                 ",
"                                                                                                                                                                                                          ; , 1 8 8 z  .$.| v f l f p p s l f f p f z c v F F G G G F F F F F F                                                                                                                                                                                                                                                 ",
"                                                                                                                                                                                                            ; 7 r r f ) =.X.C t l z t t t p l f p c G v l v n F G G F F F F F J                                                                                                                                                                                                                                                 ",
"                                                                                                                                                                                                            = ; r f c Q $.$.S < 7 w w w t t t p v ~ } ! c l v v C C C C v B F F                                                                                                                                                                                                                                                 ",
"                                                                                                                                                                                                              = , t z H X.$.Y < ; < y p p 7 7 p C } ..X.Q f d f l x z z z l l R                                                                                                                                                                                                                                                 ",
"                                                                                                                                                                                                              & - 7 s v | $./ 8 7 2 u A L S p 0 8 K X.X.o.^ J C C F B j p p l ^ e.w.                                                                                                                                                                                                                                            ",
"                                                                                                                                                                                                                $ = 8 r Q  .} q < 7 q c V p f 8 , e { X.-.$.$.-.X.X.;.>.X.o...-.e.y.i.                                                                                                                                                                                                                                          ",
"                                                                                                                                                                                                                $ $ $ , p Q Y q & 2 2 t w ; : 7 : < l } -.-.-.;.5.q.w.w.w.q.q.w.w.y.d.d.y.                                                                                                                                                                                                                                      ",
"                                                                                                                                                                                                                  # # & ; 1 8 < & & : < $ $ - 7 1 7 w F #.:.;.1.,.a.a.w.a.w.2.4.w.y.y.i.d.i.t.                                                                                                                                                                                                                                  ",
"                                                                                                                                                                                                                  @ O % #     < - % % # # & : , 1 9 0 t I -.;.;.q.a.a.a.t.w.q.q.q.w.t.t.i.d.d.e.                                                                                                                                                                                                                                ",
"                                                                                                                                                                                                                                = $ O @ % $ & - 1 8 8 9 f ) >.1.2.w.d.d.t.t.e.q.5.q.w.e.i.i.i.d.y.w.                                                                                                                                                                                                                            ",
"                                                                                                                                                                                                                                & % @ % $ & & - > : > 9 w g | 1.4.>.r.d.t.a.a.w.q.1.q.w.w.e.t.t.d.y.y.w.                                                                                                                                                                                                                        ",
"                                                                                                                                                                                                                                  % O % & & & = ; 7 1 : 9 t n $.4.4.q.t.a.t.t.w.q.1.4.6.6.w.e.e.y.s.y.y.t.                                                                                                                                                                                                                      ",
"                                                                                                                                                                                                                                          & = = * ; 1 1 8 e t I >.4.q.q.a.a.e.w.w.w.>.<.q.w.w.e.t.y.i.i.i.y.6.                                                                                                                                                                                                                  ",
"                                                                                                                                                                                                                                          % = $ = = > : 1 9 8 a / ,.5.4.q.e.t.e.e.w.1.>.4.6.w.w.w.y.y.i.d.7.6.6.1.                                                                                                                                                                                                              ",
"                                                                                                                                                                                                                                            $ = * = = > : 8 1 0 z ' 2.4.5.a.e.e.w.e.t.>.:.<.4.4.4.w.u.y.i.i.7.6.4.4.                                                                                                                                                                                                            ",
"                                                                                                                                                                                                                                              & * = ; > , , 1 8 r v o.4.q.5.q.a.e.t.t.w.&.&.>.<.<.1.6.r.y.i.i.7.w.6.w.w.                                                                                                                                                                                                        ",
"                                                                                                                                                                                                                                                = & - ; 1 : 1 : 6 r m %.3.5.6.w.t.e.t.t.q.#.-.;.;.<.1.1.6.t.i.i.e.w.e.6.w.6.                                                                                                                                                                                                    ",
"                                                                                                                                                                                                                                                  = = = ; 1 : : , 8 t R ;.4.3.w.7.i.i.i.t.=.} $.;.<.<.1.1.6.w.y.i.y.e.e.e.e.t.                                                                                                                                                                                                  ",
"                                                                                                                                                                                                                                                  & = - ; < ; , : , 8 t ! <.4.4.7.t.d.d.t.t.+.) X.-.1.<.1.1.1.w.y.t.r.6.w.e.e.y.r.                                                                                                                                                                                              ",
"                                                                                                                                                                                                                                                    & ; ; ; ; ; , : , 8 l ' 3.3.5.6.e.i.d.d.w.^ I } $.;.<.<.1.4.6.6.q.4.4.e.e.y.d.e.                                                                                                                                                                                            ",
"                                                                                                                                                                                                                                                      - ; ; ; ; , , : , 0 x $.3.5.4.7.t.d.d.i.:.j b ^  .-.<.1.1.1.1.q.1.1.q.w.r.i.i.d.i.                                                                                                                                                                                        ",
"                                                                                                                                                                                                                                                        = = - ; : : : : 6 r m %.4.4.5.w.y.y.d.h...1 9 J ) O.;.<.;.-.1.1.1.1.4.4.w.t.t.y.i.u.                                                                                                                                                                                    ",
"                                                                                                                                                                                                                                                          ; ; ; - : : : : 6 t R ;.4.5.6.t.e.d.d.i.T * = f Q } $.-.=.=.:.-.:.1.1.6.q.w.e.i.i.u.                                                                                                                                                                                  ",
"                                                                                                                                                                                                                                                          ; = ; - : : , : : 8 s ~ 4.4.2.7.t.y.d.d.y.D * $ 7 D ^ | $.=.=.=.=.:.1.1.4.w.w.w.e.i.i.                                                                                                                                                                                ",
"                                                                                                                                                                                                                                                            - ; ; - ; ; , : , 7 l [ 3.2.7.e.y.d.d.d.q.h @ # - a I ) ..=.-.$.+.=.1.q.q.q.w.w.e.y.t.r.                                                                                                                                                                            ",
"                                                                                                                                                                                                                                                              ; ; ; - ; , , : , 9 n #.2.4.5.e.y.d.d.d.:.3 O # # , j Y { +.=.+.+.:.1.1.6.w.w.w.t.e.t.r.                                                                                                                                                                          ",
"                                                                                                                                                                                                                                                                = = ; ; ; ; : : 6 r H *.2.4.6.t.i.d.d.f.{ = # # # = q C ^ | +.+.+.=.>.1.4.4.4.w.e.t.e.r.                                                                                                                                                                        ",
"                                                                                                                                                                                                                                                                < ; ; ; ; - : : : 8 r E ;.5.3.w.i.i.d.h.i.I * # # # * > d J ^ ..+.+.+.=.=.-.1.1.w.w.e.e.t.1.                                                                                                                                                                    ",
"                                                                                                                                                                                                                                                                  = ; ; ; , : : - : 8 s ' 2.2.6.6.y.i.g.g.w.V # # # & # = 7 j Y ^ ..X.+.@.=.=.;.1.w.w.r.w.r.r.                                                                                                                                                                  ",
"                                                                                                                                                                                                                                                                    ; ; ; ; : ; : : , 8 f  .4.2.6.6.y.i.h.f.1.e # $ $ * $ $ ; e d B J ^ | +.=.-.;.1.6.6.e.w.w.9.                                                                                                                                                                ",
"                                                                                                                                                                                                                                                                      ; ; ; ; : : : ; 6 8 v %.2.2.6.6.y.i.d.d.@.3 # * # & * = - & & - w h V J / X.-.>.1.6.6.4.9.                                                                                                                                                                ",
"                                                                                                                                                                                                                                                                        ; ; ; ; ; : : : 8 8 H ;.2.6.6.6.y.i.h.d.{ < # & $ & & $ # @ 1 F Y c 1 1 d ^ $.$.$.-.-.>.                                                                                                                                                                ",
"                                                                                                                                                                                                                                                                        = ; ; ; > ; : : , 6 8 E 2.6.7.6.e.e.y.f.i.L - = & & # # . - n ! _ ~ z & ; v ~ ~ ~ `  .=.                                                                                                                                                                ",
"                                                                                                                                                                                                                                                                          ; > > > ; ; : : : : 0 ] 6.7.6.7.e.e.s.d.r.k & & $ #     8 d G m R R l , p G R E ~ `  .                                                                                                                                                                ",
"                                                                                                                                                                                                                                                                            > < > ; > ; : : : : d O.6.e.w.7.e.e.y.i.1.y #       y 8 9 x m m m m l t v E W Q ~ ) )                                                                                                                                                               ",
"                                                                                                                                                                                                                                                                              ; ; > ; > - : ; ; ; c ;.6.e.e.e.e.e.i.i.q.      M i q 8 f m m m m v x c F R R Q ! ^                                                                                                                                                               ",
"                                                                                                                                                                                                                                                                                = > = > : > > ; = : P 2.7.e.e.e.e.e.a.t.      M f p e s n F G m v F H m n G G K I                                                                                                                                                               ",
"                                                                                                                                                                                                                                                                                < > < > ; ; ; - ; ; 1 ^ 6.e.y.e.e.e.e.e.    A B j f d f m G m m G R G v x v n F H                                                                                                                                                               ",
"                                                                                                                                                                                                                                                                                  ; > = ; ; ; ; ; = ; w } 6.y.e.e.w.e.e.-.J S B c v c v m H H H R G v m F v n n C                                                                                                                                                               ",
"                                                                                                                                                                                                                                                                                    = > = ; = ; ; ; = = e +.w.e.e.7.7.w.:.J C F D F G m m H R H m x x m F x x l f                                                                                                                                                               ",
"                                                                                                                                                                                                                                                                                      < = < = = = ; = ; = f $.w.6.6.6.q.>.Q J K G R R G H H R l 0 r t l l v l w                                                                                                                                                                 ",
"                                                                                                                                                                                                                                                                                      = = = ; = ; = = = * * j &.6.4.4.3.4./ K R R R R G H G l 9 8 0 9 8 7 e q                                                                                                                                                                   ",
"                                                                                                                                                                                                                                                                                        * = = = = = = & # # # c -.4.4.4.4.} K K R G G H H x 7 8 8 8 6 < < 1                                                                                                                                                                     ",
"                                                                                                                                                                                                                                                                                          % & = * & # # @ o o - C $.<.,.,.$.E H m R R R x 0 8 7 : - - ; <                                                                                                                                                                       ",
"                                                                                                                                                                                                                                                                                            & % % # o o   $ 8 t f K -.,.,.&.~ R R R R m r 0 6 , = = ; ;                                                                                                                                                                         ",
"                                                                                                                                                                                                                                                                                              #         : p x m F v ~ &.*.&.` R R R m r 9 1 : : ; < ;                                                                                                                                                                           ",
"                                                                                                                                                                                                                                                                                                      1 t n v F G F F ` %.&._ R R R s r , , < ; ; <                                                                                                                                                                             ",
"                                                                                                                                                                                                                                                                                                  j p p F F m R Q K R K ' #.[ R R t 6 6 , 1 ; < =                                                                                                                                                                               ",
"                                                                                                                                                                                                                                                                                              U U J C G I I ~ ) ~ ! / ) ` O.| I t 8 6 , 7 1 ;                                                                                                                                                                                   ",
"                                                                                                                                                                                                                                                                                            } { ` ) ) ) ( ) O.( ` ] O.O.+.` ] b 7 1 6 6 q ;                                                                                                                                                                                     ",
"                                                                                                                                                                                                                                                                                        +.&.&.&.$.$.$.O.O.O.O.O.` ) ( ` | ` ` C 8 1 ; < <                                                                                                                                                                                       ",
"                                                                                                                                                                                                                                                                                    :.-.<.-.:.;.;.<.-.$.;.+.` ) Y Y E / ) ` ` I 7 < = <                                                                                                                                                                                         ",
"                                                                                                                                                                                                                                                                                  1.1.1.1.<.<.<.1.1.1.<.O.` Y I I I I I ) ) ) R q ; ;                                                                                                                                                                                           ",
"                                                                                                                                                                                                                                                                              1.1.1.1.1.1.2.2.1.2.2.-.| Y I Y I I I I Q ^ ~ ! ! p ;                                                                                                                                                                                             ",
"                                                                                                                                                                                                                                                                          1.4.q.4.4.4.6.2.6.4.1.-.) I C G Z I I I Q I I ! ( ) ~ v                                                                                                                                                                                               ",
"                                                                                                                                                                                                                                                                        9.q.w.4.w.4.4.6.6.2.&.` P k d g b m m G I I Q I I ^ ) ) I                                                                                                                                                                                               ",
"                                                                                                                                                                                                                                                                    1.r.w.6.6.6.w.w.6.4.&.) Z x s s s s f g b b C G I P G I ^ / Q                                                                                                                                                                                               ",
"                                                                                                                                                                                                                                                                9.r.w.w.w.w.0.w.w.6.@./ m z g g g g d a a f z z k b b b C Z G                                                                                                                                                                                                   ",
"                                                                                                                                                                                                                                                              9.r.w.w.w.0.w.6.6.&./ Z x x l g f s a a e w t a d d g b c f                                                                                                                                                                                                       ",
"                                                                                                                                                                                                                                                          9.r.t.e.w.q.w.w.4.-.) m z z z g g s a t t w 9 9 9 q e a e w 3                                                                                                                                                                                                         ",
"                                                                                                                                                                                                                                                      :.4.q.q.w.6.4.6.4.-./ m z g g g g s a a e 0 9 9 8 8 1 9 8 1 < <                                                                                                                                                                                                           ",
"                                                                                                                                                                                                                                                    ;.1.1.1.6.6.q.1.:.` Z g g g g g s a a e 9 w q w w 8 7 8 3 1 < <                                                                                                                                                                                                             ",
"                                                                                                                                                                                                                                                -.1.1.1.4.1.1.4.:.} G z g g g s a a a 9 9 9 9 w w q 9 8 q q 1 < ;                                                                                                                                                                                                               ",
"                                                                                                                                                                                                                                              ;.1.1.1.1.1.1.-.} H z g g g s a t a 9 9 a a q w w s x e 3 8 1 < ;                                                                                                                                                                                                                 ",
"                                                                                                                                                                                                                                          -.;.>.;.;.;.;.;. .I c l f f f t t e e t t t w 8 8 e C P d > ; < ; =                                                                                                                                                                                                                   ",
"                                                                                                                                                                                                                                      -.:.;.;.;.-.;.-. .P b f f s t t w e w t t e q 7 w p l v G a > = = ; =                                                                                                                                                                                                                     ",
"                                                                                                                                                                                                                                    :.:.:.*.-.:.&.| K v f s f t t t 9 9 9 e w 8 8 t f p d x F f 3 > ; ; ;                                                                                                                                                                                                                       ",
"                                                                                                                                                                                                                                -.:.;.;.&.;.*. .R v s t t e 0 9 9 8 7 8 8 7 w p z c c l z v p , = ; = =                                                                                                                                                                                                                         ",
"                                                                                                                                                                                                                            @.-.-.=.o.o.%.' H x s t r r 0 8 8 6 , , 7 , , q B B B z f z v f ; & * * =                                                                                                                                                                                                                           ",
"                                                                                                                                                                                                                          @.=.=.$. .| ^ F l t r r t 0 9 6 6 , : , , >     S C c z j l c p ; & & *                                                                                                                                                                                                                               ",
"                                                                                                                                                                                                                      ..X.+.X.| ` R m s r 0 r r r 9 6 6 6 : : ,         B c c x p p z p , & & &                                                                                                                                                                                                                                 ",
"                                                                                                                                                                                                                    A { ....{ Q m t 6 6 9 9 9 8 6 6 6 : : :             p p p p t p p : - & &                                                                                                                                                                                                                                   ",
"                                                                                                                                                                                                                    i A ^ ^ F p 6 , : - : : 6 6 , : >                 = < 4 w e p e ; % # %                                                                                                                                                                                                                                     ",
"                                                                                                                                                                                                                    5 h j w 7 , ; - - - : - : , ;                       = 2 8 w q & # # #                                                                                                                                                                                                                                       ",
"                                                                                                                                                                                                                      2 - $ - : ; , - - : - -                             = 1 1 & # @ %                                                                                                                                                                                                                                         ",
"                                                                                                                                                                                                                      % # # $ $ - - - -                                     & % O O #                                                                                                                                                                                                                                           ",
"                                                                                                                                                                                                                        @ @ $ - * $                                           X O O                                                                                                                                                                                                                                             ",
"                                                                                                                                                                                                                        @ @ #                                                                                                                                                                                                                                                                                                   ",
"                                                                                                                                                                                                                                                                                                                                                                                                                                                                                                                                ",
"                                                                                                                                                                                                                                                                                                                                                                                                                                                                                                                                "
};
