/* XPM */
static char *out[] = {
/* columns rows colors chars-per-pixel */
"256 256 149 2 ",
"   c None",
".  c #1C130E",
"X  c #1E1612",
"o  c #201711",
"O  c #241A14",
"+  c #2A1E16",
"@  c #261D19",
"#  c #2B1F18",
"$  c #2E2017",
"%  c #2E211A",
"&  c #302117",
"*  c #33251C",
"=  c #39271C",
"-  c #36281E",
";  c #3B2A1E",
":  c #342621",
">  c #362922",
",  c #3C2C21",
"<  c #3F3027",
"1  c #3D312A",
"2  c #402D1F",
"3  c #412E21",
"4  c #443224",
"5  c #4A3525",
"6  c #4E3827",
"7  c #45352A",
"8  c #4A372A",
"9  c #4D392B",
"0  c #503927",
"q  c #523C2C",
"w  c #583F2C",
"e  c #4D3C31",
"r  c #533F32",
"t  c #57402F",
"y  c #5A412E",
"u  c #564132",
"i  c #5B4433",
"p  c #5F4936",
"a  c #55453A",
"s  c #5A4639",
"d  c #5E4A3D",
"f  c #614732",
"g  c #634A35",
"h  c #694D36",
"j  c #654C39",
"k  c #694F3A",
"l  c #6C523D",
"z  c #71553E",
"x  c #5D4940",
"c  c #634F41",
"v  c #675042",
"b  c #6D5441",
"n  c #6F5847",
"m  c #65534A",
"M  c #6C5649",
"N  c #6F5948",
"B  c #715641",
"V  c #755A44",
"C  c #7A5D46",
"Z  c #745C49",
"A  c #7A5F49",
"S  c #7D6047",
"D  c #7D614B",
"F  c #7D6452",
"G  c #82654D",
"H  c #86684E",
"J  c #88694F",
"K  c #836751",
"L  c #856952",
"P  c #8A6D55",
"I  c #856C5A",
"U  c #8A6E59",
"Y  c #8E7056",
"T  c #8E715A",
"R  c #907257",
"E  c #93755B",
"W  c #97785E",
"Q  c #997A5E",
"!  c #867161",
"~  c #8D7462",
"^  c #8F7864",
"/  c #937761",
"(  c #967961",
")  c #9B7D63",
"_  c #947C6B",
"`  c #997D69",
"'  c #A07F63",
"]  c #9E8065",
"[  c #9E826B",
"{  c #9E8370",
"}  c #9E8578",
"|  c #A28266",
" . c #A4856A",
".. c #A8876A",
"X. c #A6886E",
"o. c #AA8A6D",
"O. c #A48770",
"+. c #A68972",
"@. c #AC8D72",
"#. c #A58A78",
"$. c #AC8F7A",
"%. c #B08F72",
"&. c #AE9076",
"*. c #A59078",
"=. c #AE917A",
"-. c #B29275",
";. c #B4957A",
":. c #B8977A",
">. c #B7987D",
",. c #BB9A7D",
"<. c #C09E7F",
"1. c #AD9381",
"2. c #AF9986",
"3. c #B29682",
"4. c #B69A82",
"5. c #BB9D83",
"6. c #B59F8F",
"7. c #BA9F8B",
"8. c #BEA185",
"9. c #BDA28A",
"0. c #BEA792",
"q. c #C09F81",
"w. c #C3A385",
"e. c #C3A68A",
"r. c #C6A98C",
"t. c #C9AB8C",
"y. c #C5AA91",
"u. c #CCAE91",
"i. c #CEB193",
"p. c #C7B39C",
"a. c #CDB39B",
"s. c #D2B495",
"d. c #D3B699",
"f. c #D6BA9B",
"g. c #D9BD9E",
"h. c #D3BDA3",
"j. c #DABFA0",
"k. c #DBC09F",
"l. c #D6C2A6",
"z. c #DDC3A4",
"x. c #D7C6AC",
"c. c #DCC6A9",
"v. c #DEC9AB",
"b. c #DCC9B0",
"n. c #E0C7A7",
"m. c #E0C8A7",
"M. c #E0C7A8",
"N. c #E2CBAB",
"B. c #E2CFB2",
/* pixels */
"                                                                                                                                                                                                                                                                                                                                                                                                                                                                                                                                ",
"                                                                                                                                                                                                                                                                                                                                                                                                                                                                                                                                ",
"                                                                                                                                                                                                                                                                                                                                                                                                                                                                                                                                ",
"                                                                                                                                                                                                                                                                                                                                                                                                                                                                                                                                ",
"                                                                                                                                                                                                                                                                                                                                                                                                                                                                                                                                ",
"                                                                                                                                                                                                                                                                                                                                                                                                                                                                                                                                ",
"                                                                                                                                                                                                                                                                                                                                                                                                                                                                                                                                ",
"                                                                                                                                                                                                                                                                                                                                                                                                                                                                                                                                ",
"                                                                                                                                                                                                                                                                                                                                                                                                                                                                                                                                ",
"                                                                                                                                                                                                                                                                                                                                                                                                                                                                                                                                ",
"                                                                                                                                                                                                                                                                                                                                                                                                                                                                                                                                ",
"                                                                                                                                                                                                                                                                                                                                                                                                                                                                                                                                ",
"                                                                                                                                                                                                                                                                                                                                                                                                                                                                                                                                ",
"                                                                                                                                                                                                                                                                                                                                                                                                                                                                                                                                ",
"                                                                                                                                                                                                                                                                                                                                                                                                                                                                                                                                ",
"                                                                                                                                                                                                                                                                                                                                                                                                                                                                                                                                ",
"                                                                                                                                                                                                                                                                                                                                                                                                                                                                                                                                ",
"                                                                                                                                                                                                                                                                                                                                                                                                                                                                                                                                ",
"                                                                                                                                                                                                                                                                                                                                                                                                                                                                                                                                ",
"                                                                                                                                                                                                                                                                                                                                                                                                                                                                                                                                ",
"                                                                                                                                                                                                                                                                                                                                                                                                                                                                                                                                ",
"                                                                                                                                                                                                                                                                                                                                                                                                                                                                                                                                ",
"                                                                                                                                                                                                                                                                                                                                                                                                                                                                                                                                ",
"                                                                                                                                                                                                                                                                                                                                                                                                                                                                                                                                ",
"                                                                                                                                                                                                                                                                                                                                                                                                                                                                                                                                ",
"                                                                                                                                                                                                                                                                                                                                                                                                                                                                                                                                ",
"                                                                                                                                                                                                                                                                                                                                                                                                                                                                                                                                ",
"                                                                                                                                                                                                                                                                                                                                                                                                                                                                                                                                ",
"                                                                                                                                                                                                                                                                                                                                                                                                                                                                                                                                ",
"                                                                                                                                                                                                                                                                                                                                                                                                                                                                                                                                ",
"                                                                                                                                                                                                                                                                                                                                                                                                                                                                                                                                ",
"                                                                                                                                                                                                                                                                                                                                                                                                                                                                                                                                ",
"                                                                                                                                                                                                                                                                                                                                                                                                                                                                                                                                ",
"                                                                                                                                                                                                                                                                                                                                                                                                                                                                                                                                ",
"                                                                                                                                                                                                                                                                                                                                                                                                                                                                                                                                ",
"                                                                                                                                                                                                                                                                                                                                                                                                                                                                                                                                ",
"                                                                                                                                                                                                                                                                                                                                                                                                                                                                                                                                ",
"                                                                                                                                                                                                                                                                                                                                                                                                                                                                                                                                ",
"                                                                                                                                                                                                                                                                                                                                                                                                                                                                                                                                ",
"                                                                                                                                                                                                                                                                                                                                                                                                                                                                                                                                ",
"                                                                                                                                                                                                                                                                                                                                                                                                                                                                                                                                ",
"                                                                                                                                                                                                                                                                                                                                                                                                                                                                                                                                ",
"                                                                                                                                                                                                                                                                                                                                                                                                                                                                                                                                ",
"                                                                                                                                                                                                                                                                                                                                                                                                                                                                                                                                ",
"                                                                                                                                                                                                                                                                                                                                                                                                                                                                                                                                ",
"                                                                                                                                                                                                                                                                                                                                                                                                                                                                                                                                ",
"                                                                                                                                                                                                                                                                                                                                                                                                                                                                                                                                ",
"                                                                                                                                                                                                                                                                                                                                                                                                                                                                                                                                ",
"                                                                                                                                                                                                                                                                                                                                                                                                                                                                                                                                ",
"                                                                                                                                                                                                                                                                                                                                                                                                                                                                                                                                ",
"                                                                                                                                                                                                                                                                                                                                                                                                                                                                                                                                ",
"                                                                                                                                                                                                                                                      B.B.v.                                                                                                                                                                                                                                                                    ",
"                                                                                                                                                                                                                                                      c.m.N.B.B.N.x.                                                                                                                                                                                                                                                            ",
"                                                                                                                                                                                                                                                    h.k.k.k.k.k.v.N.B.N.v.x.                                                                                                                                                                                                                                                    ",
"                                                                                                                                                                                                                                                    l.k.f.k.k.k.k.k.k.z.m.v.N.N.c.l.                                                                                                                                                                                                                                            ",
"                                                                                                                                                                                                                                                    c.k.k.f.f.f.f.g.f.k.k.k.z.z.v.N.N.v.v.                                                                                                                                                                                                                                      ",
"                                                                                                                                                                                                                                                  p.k.k.i.k.k.k.f.k.f.f.k.i.k.k.k.k.k.k.k.m.m.m.f.                                                                                                                                                                                                                              ",
"                                                                                                                                                                                                                                                  p.k.i.k.k.t.k.s.s.s.f.k.k.i.k.i.k.k.i.k.k.k.k.g.g.g.a.y.                                                                                                                                                                                                                      ",
"                                                                                                                                                                                                                                                  l.i.k.t.i.i.i.i.s.i.s.k.i.s.k.i.k.k.i.k.k.k.i.s.s.s.t.a.u.u.y.0.                                                                                                                                                                                                              ",
"                                                                                                                                                                                                                                                  k.k.t.k.t.i.i.t.t.t.t.t.i.t.i.t.k.i.i.<.k.s.k.d.s.t.e.q.q.q.q.r.y.                                                                                                                                                                                                            ",
"                                                                                                                                                                                                                                                l.k.u.u.k.<.r.r.t.t.t.<.i.t.i.i.i.i.i.i.i.k.i.s.s.t.t.r.w.w.q.5.5.3.                                                                                                                                                                                                            ",
"                                                                                                                                                                                                                                                a.s.u.t.t.r.<.t.r.r.t.t.i.t.t.t.i.i.i.i.i.t.k.i.t.r.t.t.t.t.t.e.q.                                                                                                                                                                                                              ",
"                                                                                                                                                                                                                                                k.i.9.t.t.<.<.t.<.t.t.t.<.t.t.t.<.i.i.k.i.t.i.i.t.t.t.u.t.t.u.t.e.                                                                                                                                                                                                              ",
"                                                                                                                                                                                                                                                i.t.t.r.<.<.0.<.r.<.<.t.t.t.t.t.t.t.<.t.<.k.i.<.t.t.t.t.t.t.t.e.5.                                                                                                                                                                                                              ",
"                                                                                                                                                                                                                                              p.k.<.<.t.<.8.<.0.w.w.w.r.<.t.t.w.<.k.i.<.t.t.<.t.r.t.r.r.w.w.e.e.5.                                                                                                                                                                                                              ",
"                                                                                                                                                                                                                                              p.<.<.<.<.<.<.>.<.<.<.w.w.t.w.w.r.<.<.<.<.t.<.t.t.q.q.q.q.w.t.e.w.                                                                                                                                                                                                                ",
"                                                                                                                                                                                                                                              u.<.<.<.<.<.<.<.<.w.<.w.w.w.w.t.r.t.<.<.k.<.t.<.t.r.q.w.w.w.t.r.<.                                                                                                                                                                                                                ",
"                                                                                                                                                                                                                                            9.5.-.<.-.-.<.<.,.>.>.<.<.<.<.w.<.r.<.t.<.i.<.i.t.<.t.t.w.t.r.t.e.5.                                                                                                                                                                                                                ",
"                                                                                                                                                                                                                                            7.&.%.%.-.%.%.%.-.-.-.:.,.,.<.<.<.w.<.t.<.t.t.<.k.k.t.t.w.t.t.r.w.                                                                                                                                                                                                                  ",
"                                                                                                                                                                                                                                            4.o.o.%.%.%...%.%.%.*.:.-.:.,.,.<.<.t.<.t.<.<.t.<.<.t.t.t.w.r.t.w.                                                                                                                                                                                                                  ",
"                                                                                                                                                                                                                                            4.o.%.%.%.o.o.o.%.%.%.-.-.:.:.,.<.<.<.<.<.t.t.<.t.<.w.t.w.q.w.r.w.                                                                                                                                                                                                                  ",
"                                                                                                                                                                                                                                          2.-.o.o.......o.%.o.%.%.o.*.-.-.:.,.<.<.<.0.<.8.<.<.t.w.t.w.w.w.e.5.                                                                                                                                                                                                                  ",
"                                                                                                                                                                                                                                          3......... ...o.%.%.%.-.....o.o.-.-.:.:.:.<.<.<.<.<.<.w.w.w.w.t.w.                                                                                                                                                                                                                    ",
"                                                                                                                                                                                                                                          $.| ...... . ...%.%.-.o.-.o.....o.%.:.:.:.<.<.<.<.<.<.q.w.w.t.w.w.                                                                                                                                                                                                                    ",
"                                                                                                                                                                                                                                          +.' | .... .| ....o.%.o.......| ..o.%.-.:.:.<.<.<.<.<.<.w.w.w.w.q.                                                                                                                                                                                                                    ",
"                                                                                                                                                                                                                                        =...Q Q Q | | | | ..........o.o.o.o.o.o.%.-.-.:.<.<.<.<.<.q.q.w.q.:.                                                                                                                                                                                                                    ",
"                                                                                                                                                                                                                                        { E Q Q E Q ' ' ' ........o.o.o.o.o.o.o.%.%.%.-.:.:.:.<.,.<.<.<.,.                                                                                                                                                                                                                      ",
"                                                                                                                                                                                                                                        ( J J J R R Q ................o.o...o.o.o.%.%.%.:.:.-.:.:.,.<.,.:.                                                                                                                                                                                                                      ",
"                                                                                                                                                                                                                                        ` L J J J H J R ' ........] ........o.o.%.%.%.%.%.:.%.-.%.:.-.-.-.                                                                                                                                                                                                                      ",
"                                                                                                                                                                                                                                      _ P P P J H H H H R Q | | ..| | | | ....o.o.%.o.%.o.o.%.-.%.-.:.:.                                                                                                                                                                                                                        ",
"                                                                                                                                                                                                                                      I C G J L J H H H J W ) ) ] ] ] ] | ......o.%...%.....%.%.:.:.:.%.                                                                                                                                                                                                                        ",
"                                                                                                                                                                                                                                      a r g z C H J J J J E ' ' ] ] ] ] ..| | ..o.o.%.%.%.....o.-.:.-.o.                                                                                                                                                                                                                        ",
"                                                                                                                                                                                                                                            4 9 i l C H R R Q ' Q | ] ] | ......o.o.%.%.%.....o.-.-.%. .                                                                                                                                                                                                                        ",
"                                                                                                                                                                                                                                                    9 y h G Y ) | | | | | | ......o.o.o...o.....o.o.o.                                                                                                                                                                                                                          ",
"                                                                                                                                                                                                                                                          4 8 s S H ] ] ] | X.........| | | | | | ' |                                                                                                                                                                                                                           ",
"                                                                                                                                                                                                                                                            o X $ 2 t l S ] ] X.......| | | | | ' | )                                                                                                                                                                                                                           ",
"                                                                                                                                                                                                                                                          > o . . . o O & 4 p D R | ..| ' | ' R ) Q E                                                                                                                                                                                                                           ",
"                                                                                                                                                                                                                                                          > O X . o . O . . .     h z z H R Q Q W E                                                                                                                                                                                                                             ",
"                                                                                                                                                                                                                                                          1 O O o o X X X . O             l N D P U                                                                                                                                                                                                                             ",
"                                                                                                                                                                                                                                                          1 # # $ O O X X $                     r                                                                                                                                                                                                                               ",
"                                                                                                                                                                                                                                                          7 7 , - * % $ $ *                                                                                                                                                                                                                                                     ",
"                                                                                                                                                                                                                                                        m u u r 8 5 < < > u                                                                                                                                                                                                                                                     ",
"                                                                                                                                                                                                                                                        m j j j p a t t a N                                                                                                                                                                                                                                                     ",
"                                                                                                                                                                                                                                                        N B v b l k k j N F                                                                                                                                                                                                                                                     ",
"                                                                                                                                                                                                                                                        A D V B b l N S F [                                                                                                                                                                                                                                                     ",
"                                                                                                                                                                                                                                6.y.0.                  F K A A n b V F ]                                                                                                                                                                                                                                                       ",
"                                                                                                                                                                                                                                4.;.q.r.y.e.e.          B K K L F S D Y ]                                                                                                                                                                                                                                                       ",
"                                                                                                                                                                                                                                3.o.' ;.;.q.q.q.e.6.1.! K L L U P G F T {                                                                                                                                                                                                                                                       ",
"                                                                                                                                                                                                                              1.;.o.o.%.@.%.:.:.<.q.q.7.5.&.+.| ( T D H [                                                                                                                                                                                                                                                       ",
"                                                                                                                                                                                                                              1.;.o.%.%.%.-.-.<.:.,.:.<.q.q.e.q.8.=.{ W ]                                                                                                                                                                                                                                                       ",
"                                                                                                                                                                                                                              7.;.%.%.;.:.:.<.q.q.q.q.q.<.<.<.<.<.r.w.w.5.;.1.                                                                                                                                                                                                                                                  ",
"                                                                                                                                                                                                                              5.:.:.:.;.:.q.q.q.<.<.<.q.<.<.<.<.<.q.,.<.5.8.8.5.3.$.                                                                                                                                                                                                                                            ",
"                                                                                                                                                                                                                            1.5.<.<.<.:.<.q.q.q.<.q.<.:.<.,.,.:.:.<.,.,.,.,.,.5.4.5.3.;.$.}                                                                                                                                                                                                                                     ",
"                                                                                                                                                                                                                            3.>.-.:.:.:.-.:.:.q.q.5.,.<.<.<.<.,.-.-.-.;.;.,.,.,.>.;.;.=.3.;.;.                                                                                                                                                                                                                                  ",
"                                                                                                                                                                                                                            4.-.%.:.:.-.:.q.u.a.d.r.>.,.<.<.,.,.<.-.-.-.;.:.,.:.:.=.=.;.$.;.$.                                                                                                                                                                                                                                  ",
"                                                                                                                                                                                                                            4.-.%.%.-.q.u.d.d.j.z.k.t.>.:.,.,.:.:.,.:.-.;.;.:.;.;.;.&.&.;.=.$.                                                                                                                                                                                                                                  ",
"                                                                                                                                                                                                                          1.,.%.%.%.e.j.j.j.j.j.g.z.k.i.>.:.,.:.,.5.5.,.:.:.;.;.:.;.;.;.%.%.                                                                                                                                                                                                                                    ",
"                                                                                                                                                                                                                          1.%.o.:.i.M.M.M.z.j.j.f.g.k.f.i.8.:.,.:.,.,.,.,.:.:.4.3.:.;.$.;.;.                                                                                                                                                                                                                                    ",
"                                                                                                                                                                                                                          3.%.5.j.N.M.M.M.z.j.j.g.f.f.d.s.t.,.,.:.,.:.,.,.,.:.>.:.:.3.%.%.$.                                                                                                                                                                                                                                    ",
"                                                                                                                                                                                                                          4.u.m.N.N.N.z.j.j.j.j.h.d.s.s.<...| -.:.:.:.:.;.>.:.:.;.;.@.@.@.O.                                                                                                                                                                                                                                    ",
"                                                                                                                                                                                                                        7.f.N.N.B.N.M.M.j.j.h.g.g.d.u.3.| ] ] ..:.;.-.:.-.:.;.;.;.-.$.@.`                                                                                                                                                                                                                                       ",
"                                                                                                                                                                                                                        h.m.N.N.N.N.M.M.n.j.j.f.d.u.;.' ] Q Q | -.-.-.-.-.;.;.:.;.$.-.@.O.                                                                                                                                                                                                                                      ",
"                                                                                                                                                                                                                      N.N.M.n.n.n.z.z.n.z.z.f.f.<.%.| ] R ] R ] +.;.-.;.%.;.;.:.;.;.>.$.+.                                                                                                                                                                                                                                      ",
"                                                                                                                                                                                                                  j.N.B.N.N.n.z.z.z.z.z.g.j.d.q...] ] ] ] ] ] R ) %.%.%.%.%.;.;.;.>.>.;.+.                                                                                                                                                                                                                                      ",
"                                                                                                                                                                                                                j.M.n.M.M.n.n.z.g.z.g.g.f.i.:.o.| ] R ] R R ] ] ) o.%.%.;.%.%.%.-.;.;.;.                                                                                                                                                                                                                                        ",
"                                                                                                                                                                                                              c.M.M.n.z.n.j.g.j.f.f.f.f.r.%.' ..| ] ] R R ] R R o.-.@.%.@.%.;.%.;.%.%.;.                                                                                                                                                                                                                                        ",
"                                                                                                                                                                                                          h.m.m.n.z.n.M.z.g.g.g.g.d.u.,...'  .| ] ] R R R R E ] %.-.@.@.o.%.;.;.-.;.;.@.                                                                                                                                                                                                                                        ",
"                                                                                                                                                                                                        c.M.m.z.z.z.g.j.z.g.g.g.s.t.&. .| ' ' ' R ] R ] R R ] %.%.%.%.@.o.%.%.;.%.%.%.#.                                                                                                                                                                                                                                        ",
"                                                                                                                                                                                                    h.z.M.M.z.z.z.g.f.g.g.g.d.u.5.@. .| | ' ) ) ] R ] R R ] %.-.-.@.%.@.o.o.@.;.%.%.%.                                                                                                                                                                                                                                          ",
"                                                                                                                                                                                                  z.c.M.z.z.z.z.z.z.g.s.i.t.w.;...| | | ) ) Q ( R ] E Y ] ..%.%.%.@.%.@.+.o.o.@.@.@.@.                                                                                                                                                                                                                                          ",
"                                                                                                                                                                                                l.M.z.m.n.n.j.z.j.g.g.s.t.,.@. .| ) Q ) ] E E E Q R E ] ..%.%.%.%.%.%.@.@.o.o.@.@.@.o.                                                                                                                                                                                                                                          ",
"                                                                                                                                                                                              z.z.z.z.z.z.z.j.j.g.f.f.i.,...' ' ] Q Q Q Q W R R J R | ..o.%.%.%.-.@.%.@.&.@.@.@.@.@. .                                                                                                                                                                                                                                          ",
"                                                                                                                                                                                            j.z.z.z.z.z.n.g.g.g.g.f.r.%.' W Q ' ] ] Q W E R Y J R | ....%.o.%.%.%.%.%.%.%.%.%.@.@.@.                                                                                                                                                                                                                                            ",
"                                                                                                                                                                                          j.j.g.j.j.z.j.g.g.g.f.f.t.%.' Q Q Q Q Q Q W E R J J E | ..o...*.o.o.o.@.@.@.@.@.@.@.@.@.@.                                                                                                                                                                                                                                            ",
"                                                                                                                                                                                        f.f.f.d.f.g.j.g.d.d.s.i.q...Q Q Q R Q W W E Y Y Y Y ] | ....o.o.@.o.o.o.+...o.o.o.o.+.o.@.@.                                                                                                                                                                                                                                            ",
"                                                                                                                                                                                      s.s.s.d.d.d.s.s.s.s.u.w.o.W R R R R R R R R R Y R W | |  .....@.o.o.o.o...o... ...o.o.o.o.+. .                                                                                                                                                                                                                                            ",
"                                                                                                                                                                                  e.u.t.u.s.s.u.u.t.e.t.e.%.) J C G J R R R R R R Y Y Q |  . . ...X.o.o.@.o.o...o.o. . . .o.o.o.o.                                                                                                                                                                                                                                              ",
"                                                                                                                                                                                9.e.8.5.5.w.e.9.5.;.;.,.| P G C z G H G H R R R P Y Q  . . .|  ...X.X.o.*.o.o.o.o.o. .o.| .. .o.@.                                                                                                                                                                                                                                              ",
"                                                                                                                                                                              4.4.,.;.;.-.+.@.+.X. .] H S S C C C C C C S H P P Y ( ]  . . . . .' %.@.%.o.%.@.@.@.+.' O....... . .                                                                                                                                                                                                                                              ",
"                                                                                                                                                                            &.;.%.X. . .@.o.) ( ] ] S C S S C S S C V V C S D F W ]  . .[ ]  . .O.O.O.' o.o.o.@.o.o...O. . ...O. .                                                                                                                                                                                                                                              ",
"                                                                                                                                                                          #.$.=. .U K I R E ) ( P S D S S C V V C C z z C S F ] ] ] ]  . .] |  .' o.@.@.' @.' @. .' ....O.'  ...                                                                                                                                                                                                                                                ",
"                                                                                                                                                                          9.u.a.p.9.2.1.#.` _ D D D S z z z z h h h h h C ] ] ] W ] ] ] | ]  . ...O.' @.o.o.@.@... .' ' ....' O.                                                                                                                                                                                                                                                ",
"                                                                                                                                                                            >.w.w.e.4.5.8.5.;._ S V S V h h l p y p h D T ] ] ] ] ] ] ] | ' |  .....O...@.' @.%.o.O.' O.'  .' O.                                                                                                                                                                                                                                                ",
"                                                                                                                                                                             .+.+.%.@...o.,.4.;.X.N l z h f p h g h D ] Y ] ] Y ] ] ] ] ) [ [ | ' +. . .' @.' ' ' O.' ' ' +.O.'                                                                                                                                                                                                                                                 ",
"                                                                                                                                                                            /  .o.+.%.@.o.>.8.>.-.{ N p p 0 5 < p D ] ] ] T Y ] W ] ] ] ' | ` ' ' ' ) ) ` ' ' ' ....' ' ' ..o.O.                                                                                                                                                                                                                                                ",
"                                                                                                                                                                              ) | | o.@.o.@.>.<.>.*.[ Z , * * % d F ] F T T Y ] T ( ( ] ` ) ' | ` ( ( ) ' ` ' ` ' O.@.' ' ..o.O.                                                                                                                                                                                                                                                ",
"                                                                                                                                                                              T ( ] ]  .o. . .&.8.;.@.] t % % % d ] ] ] U U Y T U T ] W ] ] ] W ' ( ) ( Q ' ' ' ' O.+.O.'  .O.o.                                                                                                                                                                                                                                                ",
"                                                                                                                                                                                P P T T W W Q ] :.,.o.X.Z % % % d T F I P P Y T Y U T W W W ] E ( Q Q ' ) ) ) ' ' ' ' o.O.' ' +.                                                                                                                                                                                                                                                ",
"                                                                                                                                                                                S D D H L Y Y R ..>.%.@.[ a % % d Y P P F F P Y Y Y U T W W E W Q / Q Q / ) Q ' ' ' ' +. .' ' '                                                                                                                                                                                                                                                 ",
"                                                                                                                                                                                d k p p l S S G P -.&.o.@.I 1 1 l P F D P P H H U Y Y U U W ^ W Q E E T E E Q Q ( W W ' ` ' ' '                                                                                                                                                                                                                                                 ",
"                                                                                                                                                                                  p i y i B S D D ] -.@.@.X.d < d F D H H P P H L P Y P U Y W W / E R Y P Y E Q W E R R ( ' ) '                                                                                                                                                                                                                                                 ",
"                                                                                                                                                                                  a a y u l z S S T -.-.&.-.I t d S H F D F P I L I Y Y U Y Y T E E E Y Y Y R E W W E Y E E ) )                                                                                                                                                                                                                                                 ",
"                                                                                                                                                                                  u p j p j B z S S @.>.>.;.@.j a N S D D H L H F H P W T W T Y Y T Y U Y Y Y T T E E E E W ' `                                                                                                                                                                                                                                                 ",
"                                                                                                                                                                                    l Z V B V l V C W ,.,.>.-.I d S S S F D L D H D D L Y T T W Y Y Y P P P T R R T E E E / ) '                                                                                                                                                                                                                                                 ",
"                                                                                                                                                                                    s d j l D S V V H -.<.,.,.[ N D D S A D D D G G G G J P T T T E T Y P P Y Y E T Y T Y W / )                                                                                                                                                                                                                                                 ",
"                                                                                                                                                                                      8 t u N S C S S | 9.<.9.>.F D F D Z D D F G G Z G K K P U T E E E Y T T T E T Y R Y W / )                                                                                                                                                                                                                                                 ",
"                                                                                                                                                                                      < < t p N V S S J >.<.9.,.] N S S V S D D Z Z V G G G K P P T T E T T P U Y P Y Y Y R ( )                                                                                                                                                                                                                                                 ",
"                                                                                                                                                                                        , t t l V V S G  .<.<.9.[ N B B B N S D G G C V C G K K J J P T T P P P L J P U U Y R (                                                                                                                                                                                                                                                 ",
"                                                                                                                                                                                        < 8 t s C S D S E ,.,.9.*.S z z z z N Z G G G V V V G G K J P U P P P J L L J L P T T /                                                                                                                                                                                                                                                 ",
"                                                                                                                                                                                          4 7 u l S H D H -.<.8.<.F j l z z B B V G Z G G C V Z G K K L P J K J K J L J P U Y R                                                                                                                                                                                                                                                 ",
"                                                                                                                                                                                          < 7 t i g S P P ] <.<.<.] p p c z B B B V B G G G G V V A G K L K K K G G K L G J P U                                                                                                                                                                                                                                                 ",
"                                                                                                                                                                                            4 t 5 t k I Y ] ,.<.<.*.z p j l z z B B b B V Z G G G A G G K P K K A G G G G K J U                                                                                                                                                                                                                                                 ",
"                                                                                                                                                                                            < 4 4 4 u S Y H *.<.9.>.A p p p k l b b b b B V G Z A K A G G K G G G G G G A G G K                                                                                                                                                                                                                                                 ",
"                                                                                                                                                                                              < 4 4 t l F S ] ,.<.<.] j p j j g k k k k h l B C A A A K G K K G G G G G G Z G K                                                                                                                                                                                                                                                 ",
"                                                                                                                                                                                              < < 4 4 j S S D -.8.<.*.z j l l p c k k j g f k b C C A A A G K K Z A G G G Z A K                                                                                                                                                                                                                                                 ",
"                                                                                                                                                                                                ; < < u S S C ] ,.9.*.Z p j l j g g g j k g f j b B C C A C A G G V A A G G Z G                                                                                                                                                                                                                                                 ",
"                                                                                                                                                                                                  < , t V S V ] >.<.<.U i p l h j g g j k j f f j k B B B C A G G Z G Z Z G G G                                                                                                                                                                                                                                                 ",
"                                                                                                                                                                                                  < * t B S z D *.<.9.] k j j k c f f f f j k g j j h l b B C Z G G V G V V Z A                                                                                                                                                                                                                                                 ",
"                                                                                                                                                                                                    * ; l D V V ] <.9.*.l f p p k j i i f g c j f b A b k b B V B V Z V B b M Z                                                                                                                                                                                                                                                 ",
"                                                                                                                                                                                                    - ; i D S S R ,.,.>.l < < t q r r 8 9 r w j V ~ ` L f i j k k j j g g f g v                                                                                                                                                                                                                                                 ",
"                                                                                                                                                                                                      > 4 B G D G +.,.-.F 4 1 , 7 e 1     1 u g V `  .[ I A A A Z Z Z K s : >                                                                                                                                                                                                                                                   ",
"                                                                                                                                                                                                      > > q C S C W -.&./ e 9 e e d M   g k j 9 i ~ O.O.O.O.O.+.' ` ` 1.5.                                                                                                                                                                                                                                                      ",
"                                                                                                                                                                                                        * > i Z l D X.+. .d 7 8 e a j q 4 4 q 6 6 b { @.+.O.+.@.3.' 1.3.q.7.                                                                                                                                                                                                                                                    ",
"                                                                                                                                                                                                        * * 4 t q y E &.+.Z 8 7 7 , * # # & 5 5 4 u / @.@.@.%.&.3.-.q.3.7.q.9.                                                                                                                                                                                                                                                  ",
"                                                                                                                                                                                                          * > 4 6 9 S O.&.U 9 1 7 $ . O $ ; 8 6 q w V O.$.-.;.>.q.q.3.q.q.q.e.6.                                                                                                                                                                                                                                                ",
"                                                                                                                                                                                                          $ = 5 y y l ] @.` a , 7 5 X O # * 3 9 i i k / ;.=.>.5.3.q.3.7.7.q.q.e.9.                                                                                                                                                                                                                                              ",
"                                                                                                                                                                                                            $ ; 6 i k T @.+.c > 7 9 * O @ $ , 5 8 q i A #.;.;.8.e.e.q.7.3.7.q.7.r.9.                                                                                                                                                                                                                                            ",
"                                                                                                                                                                                                              $ - q f S +.+.F , 1 7 7 + @ # $ 5 4 5 y g ( ;.;.>.q.y.e.q.q.7.q.e.r.y.9.                                                                                                                                                                                                                                          ",
"                                                                                                                                                                                                              + + ; q f ( O.~ 7 < 7 8 > @ $ $ > 8 < 9 y Z +.;.;.4.e.9.8.9.5.5.9.r.r.y.9.                                                                                                                                                                                                                                        ",
"                                                                                                                                                                                                                + # * 4 b E I 7 * < 9 e % $ % $ 4 5 6 p k E ,.>.>.8.e.8.7.7.5.5.9.0.r.y.9.                                                                                                                                                                                                                                      ",
"                                                                                                                                                                                                                + + + & , u e > $ % > e < $ % % - 4 8 t y D &.,.4.5.8.8.5.5.7.4.8.9.r.r.y.                                                                                                                                                                                                                                      ",
"                                                                                                                                                                                                                  O @ % %   * > $ + * 7 7 * % % * < 4 6 9 g W >.:.,.5.8.7.5.7.5.8.9.9.r.r.r.                                                                                                                                                                                                                                    ",
"                                                                                                                                                                                                                              > % @ % > 4 , % % * ; 4 4 6 p S o.:.:.4.q.8.5.5.5.4.5.8.9.r.r.9.                                                                                                                                                                                                                                  ",
"                                                                                                                                                                                                                                % @ @ > 7 8 % $ % ; 4 4 4 6 g R ;.,.5.5.8.5.5.7.4.5.8.8.9.r.e.9.                                                                                                                                                                                                                                ",
"                                                                                                                                                                                                                                  @ O >     * % * - < 4 ; 4 t z o.:.,.,.5.5.5.7.7.4.5.8.8.9.r.e.e.                                                                                                                                                                                                                              ",
"                                                                                                                                                                                                                                              : * - ; 4 ; ; 6 f Y -.;.>.,.5.8.9.9.4.4.5.8.9.e.r.e.9.                                                                                                                                                                                                                            ",
"                                                                                                                                                                                                                                              * * - - = 2 2 2 y z o.:.:.4.q.e.7.7.5.4.4.5.5.9.e.e.e.8.                                                                                                                                                                                                                          ",
"                                                                                                                                                                                                                                                * * * * 2 2 2 5 f P %.:.:.5.e.e.9.7.3.;.>.4.9.e.r.9.5.4.                                                                                                                                                                                                                        ",
"                                                                                                                                                                                                                                                - - * * ; 4 2 3 0 z  .:.:.4.5.r.e.9.5.;.;.;.4.9.9.e.5.4.4.                                                                                                                                                                                                                      ",
"                                                                                                                                                                                                                                                  - * * * ; 3 ; 5 f R %.:.:.4.e.e.y.9.3.&.;.;.4.9.y.e.5.,.4.                                                                                                                                                                                                                    ",
"                                                                                                                                                                                                                                                  > * * * ; ; 2 3 0 z ' ;.:.4.5.e.e.y.7.=.;.=.;.5.9.y.9.4.5.5.                                                                                                                                                                                                                  ",
"                                                                                                                                                                                                                                                    > * * * 2 4 2 5 f P %.:.:.5.5.9.e.9.3.@.;.;.=.5.9.e.w.5.5.5.                                                                                                                                                                                                                ",
"                                                                                                                                                                                                                                                    = * * * ; 2 2 2 q l ' :.;.:.5.e.e.e.5.+.;.=.;.4.5.9.e.9.5.8.8.                                                                                                                                                                                                              ",
"                                                                                                                                                                                                                                                      - * * * , 3 = 5 w P &.;.:.4.5.e.r.e.#. .=.;.=.4.5.5.8.5.5.8.8.                                                                                                                                                                                                            ",
"                                                                                                                                                                                                                                                      > * - * ; 2 2 2 6 h | :.:.:.5.e.e.e.7.` O.=.=.;.;.4.>.4.5.9.8.9.                                                                                                                                                                                                          ",
"                                                                                                                                                                                                                                                        - * * = = 2 = 4 w J %.-.;.5.9.e.e.e.+.E X.;.=.&.=.>.;.5.8.9.9.5.                                                                                                                                                                                                        ",
"                                                                                                                                                                                                                                                        - * * * 2 = 2 2 0 h ' :.;.,.5.e.e.y.3.L T  .+.X.&.=.;.;.4.5.9.r.7.                                                                                                                                                                                                      ",
"                                                                                                                                                                                                                                                          > - - = = 2 = 4 w G %.;.;.4.8.e.e.e.I M T  .O.+.#.#.=.=.4.9.e.y.9.                                                                                                                                                                                                    ",
"                                                                                                                                                                                                                                                          - - * = , ; ; 2 6 g ' -.:.:.5.7.e.y.=.u l ~  .#.+.#.&.;.3.4.5.9.9.9.                                                                                                                                                                                                  ",
"                                                                                                                                                                                                                                                            > * * = = ; 2 4 0 G %.;.:.4.5.e.r.e.F - b T  .O.O.#.=.3.>.4.5.9.e.6.                                                                                                                                                                                                ",
"                                                                                                                                                                                                                                                            , - * * ; , 2 2 5 f ) -.;.:.5.w.e.y.=.9 > n ~ +.+.[ +.>.4.4.5.5.5.9.9.                                                                                                                                                                                              ",
"                                                                                                                                                                                                                                                              > > = ; = 2 2 4 0 C %.-.;.:.4.9.r.e.F $ , n T [ { [ =.2.;.4.5.5.9.9.5.                                                                                                                                                                                            ",
"                                                                                                                                                                                                                                                                , > ; - ; 3 2 5 y Q -.:.>.,.,.8.y.;.8 O , Z ~ { { O.;.3.4.4.4.5.5.9.6.                                                                                                                                                                                          ",
"                                                                                                                                                                                                                                                                7 > - ; ; 2 2 3 5 V &.>.>.>.4.8.9.y.I O O 4 V T [ [ O.$.;.:.4.4.5.5.7.4.                                                                                                                                                                                        ",
"                                                                                                                                                                                                                                                                  > - - ; 2 4 ; 3 y ) >.>.>.>.5.8.e.3.e X + 4 Z ~ `  .[ O.$.;.4.4.5.5.5.2.                                                                                                                                                                                      ",
"                                                                                                                                                                                                                                                                  > - - ; ; ; 4 2 3 z &.:.>.>.5.5.8.e.T + o $ q Z I _ `  .O.#.3.4.4.5.4.4.2.                                                                                                                                                                                    ",
"                                                                                                                                                                                                                                                                    > * - - 4 5 2 ; 0 W >.>.,.>.5.5.8.>.r o @ * 3 j F U ` O.#.$.;.4.4.4.4.5.1.                                                                                                                                                                                  ",
"                                                                                                                                                                                                                                                                    > - - * - , 2 ; 2 b &.,.8.>.,.4.5.5.! # O + # & 8 v D ~ ' $.=.;.>.4.4.4.4.                                                                                                                                                                                  ",
"                                                                                                                                                                                                                                                                      > - * * ; ; , ; 9 E 4.5.>.,.,.4.q.;.9 O + O O @ * 9 b D ( O.@.;.;.;.;.3.                                                                                                                                                                                  ",
"                                                                                                                                                                                                                                                                      * * * * * - ; ; ; k &.4.4.,.4.,.5.4.Z       O O O + * 7 A ) ] [ X.X.+.$.                                                                                                                                                                                  ",
"                                                                                                                                                                                                                                                                        * * % * * * * * 4 P >.>.,.>.>.5.,.=.      : @ O @ + * j P Y P R ( '  .O.                                                                                                                                                                                ",
"                                                                                                                                                                                                                                                                        * * % * * % * % * u o.>.>.>.>.>.>.=.      7 : # O + # r V L J P E ( ` `                                                                                                                                                                                 ",
"                                                                                                                                                                                                                                                                          : * % * * * * % - D =.;.;.>.;.>.;.    r 7 : : 3 = & 9 B L R Y R R E /                                                                                                                                                                                 ",
"                                                                                                                                                                                                                                                                          % % * % * % % * * q ) =.-.;.;.>.>.    r 9 3 3 5 5 6 w k A P P P P P U                                                                                                                                                                                 ",
"                                                                                                                                                                                                                                                                            % % % % % % $ * ; B +.$.%.;.;.;.` x s r 9 9 y f g h V z z G G G G P                                                                                                                                                                                 ",
"                                                                                                                                                                                                                                                                            % % $ $ % $ $ * - 5 P @.@.;.@.%.` c c j s w h l l z G G z z A G G K                                                                                                                                                                                 ",
"                                                                                                                                                                                                                                                                                $ $ @ $ $ $ * ; i ) +.%.%.%. .M v k h h l l z G G G G G A A A A                                                                                                                                                                                 ",
"                                                                                                                                                                                                                                                                                      @ $ $ & ; 4 Z | #.@.@.O.A b B k h z z C G C C G H G A C l                                                                                                                                                                                 ",
"                                                                                                                                                                                                                                                                                        > = * ; 2 q P  .o.o.o.L b b l l z G G z z z S G G K k                                                                                                                                                                                   ",
"                                                                                                                                                                                                                                                                                      e e i y 5 4 4 j E  . . .T b b l l z G z h h z z h k B                                                                                                                                                                                     ",
"                                                                                                                                                                                                                                                                                    d s u g k k z j i D W  . .E S C z z z C h f h z h f f i                                                                                                                                                                                     ",
"                                                                                                                                                                                                                                                                                  m v d g k C A D L F F L W ] E D S V V G h y h h f w y f                                                                                                                                                                                       ",
"                                                                                                                                                                                                                                                                                F A Z b k A K J L ( [ ] Y Y W W G B z G C g h h y w q r                                                                                                                                                                                         ",
"                                                                                                                                                                                                                                                                              ~ ^ U K D K U U U E ( ] ] ( Y T E G V C G z h h h w w i i                                                                                                                                                                                         ",
"                                                                                                                                                                                                                                                                            _ _ _ / U R E E E E T T T ( ] ( T T L V G C h h f y w w r                                                                                                                                                                                           ",
"                                                                                                                                                                                                                                                                            #. .` ) ) E ) ` / E P L P T / E E T P G G z h h y y w r                                                                                                                                                                                             ",
"                                                                                                                                                                                                                                                                          #.+.X. .' ) )  .` / P L L G T E W ( E R J G h h y g k i q                                                                                                                                                                                             ",
"                                                                                                                                                                                                                                                                        *.&.+.+.+.+. .|  .( U K L L L L T ( ( ] R J h g f f j i u                                                                                                                                                                                               ",
"                                                                                                                                                                                                                                                                      O.+.o.X.o.@.@.@. ./ P P P P T P P T T W ] Y C g f f h j 8                                                                                                                                                                                                 ",
"                                                                                                                                                                                                                                                                    +.&.+.+.*.o.@.+.+./ P K K K G I P Y I L U P G g f f g V j 8                                                                                                                                                                                                 ",
"                                                                                                                                                                                                                                                                  #.&.@.@.@.@.X.o.[ T D V D D D S D D F K G G G z f f y q r 9                                                                                                                                                                                                   ",
"                                                                                                                                                                                                                                                                @.=.$.@.*.@.o.@.{ T S l l b b b Z Z D D D C G C g h f y r 9                                                                                                                                                                                                     ",
"                                                                                                                                                                                                                                                              $.$.=.=.&.&.@.%.[ T z l l l l l b n B V D V D G z g g g f i u                                                                                                                                                                                                     ",
"                                                                                                                                                                                                                                                            *.=.=.=.=.@.&.&.[ L n z z l k j j k j b Z V V K C h g j f y u                                                                                                                                                                                                       ",
"                                                                                                                                                                                                                                                            >.=.=.=.=.&.&.[ F z V z l l k j p p h n S l D H z g g g i t                                                                                                                                                                                                         ",
"                                                                                                                                                                                                                                                          =.=.=.=.&.=.*.[ D B V l l l k g p a p N D b S D V p p i y u i                                                                                                                                                                                                         ",
"                                                                                                                                                                                                                                                        2.=.=.=.=.&.=.] D V B z l k j g g p j S F N l F S j p j p t i                                                                                                                                                                                                           ",
"                                                                                                                                                                                                                                                      =.=.=.=.=.&.&.( D V V l l h j j j j l F F S z S F z p g l g i                                                                                                                                                                                                             ",
"                                                                                                                                                                                                                                                    *.=.=.&.=.=.*.] D V z l l l j p k j M L L D n S D S k g k k i p                                                                                                                                                                                                             ",
"                                                                                                                                                                                                                                                  #.=.=.=.&.*.&.( D l z l l h j k k i b I F Z l k S D l g g k p u                                                                                                                                                                                                               ",
"                                                                                                                                                                                                                                                #.=.=.=.*.&.*.W V l l l l j h k k u u I K D b k l F S h k l a u                                                                                                                                                                                                                 ",
"                                                                                                                                                                                                                                              #.&.+.*.#.*.+.E D n l l k j j l p 9     U F N l l D D k g k j t t                                                                                                                                                                                                                 ",
"                                                                                                                                                                                                                                            [ #.+. .#.+.X.^ S l z k k j k j p t     I L A b b V G B j k j i u                                                                                                                                                                                                                   ",
"                                                                                                                                                                                                                                          [ [  .+.+. .+.T S l l l h j j k i 9       F V b l B S D k j k p t                                                                                                                                                                                                                     ",
"                                                                                                                                                                                                                                          O.O.O. . . .T N l l k g p j j u         Z Z l l l V S l j j d u 9                                                                                                                                                                                                                     ",
"                                                                                                                                                                                                                                         .@.O. .[  .T z l l h p i p p u           n v l B l S Z j j j i e                                                                                                                                                                                                                       ",
"                                                                                                                                                                                                                                       .O. . .[  .T Z l l h g i i i t           D V b l b V S l y p u t                                                                                                                                                                                                                         ",
"                                                                                                                                                                                                                                    [ O. . .| [ Y l l l g f f q t 8             D b b l l C z q 6 7 < <                                                                                                                                                                                                                         ",
"                                                                                                                                                                                                                                  [ O. . .| ` P z h j i y t q q 5             M b b l j b Z t 4 , , -                                                                                                                                                                                                                           ",
"                                                                                                                                                                                                                                [ O.O.|  .| P l h g f y q q q                 j d l j p V l q 5 5 5                                                                                                                                                                                                                             ",
"                                                                                                                                                                                                                              [ O.`  .o.O.U z f f f w 0 0 9                   g g i i k B i 0 q 8 5                                                                                                                                                                                                                             ",
"                                                                                                                                                                                                                            ` O.' ' ' ` H l h g f y w 0 5                   b c s w r k i 3 ; , ,                                                                                                                                                                                                                               ",
"                                                                                                                                                                                                                          _ O.` ) W Q G g f f f w w 6 2                     c g f w j j 5 ; ; >                                                                                                                                                                                                                                 ",
"                                                                                                                                                                                                                        ^ [ ) ) R P z f f f y w 0 6 3                     j c f r s j q 5 3 3 3                                                                                                                                                                                                                                 ",
"                                                                                                                                                                                                                        / ` / R G h y y y f 0 6 5                         j s f f f r 3 3 2 >                                                                                                                                                                                                                                   ",
"                                                                                                                                                                                                                      U ~ U U A h 0 0 6 5 0 0 6                         c c w r f i 6 4 3 ,                                                                                                                                                                                                                                     ",
"                                                                                                                                                                                                                    I T I K A g 0 2 2 2 2 4 5                           r f r q r 6 3 , > >                                                                                                                                                                                                                                     ",
"                                                                                                                                                                                                                  c K I I K j 5 2 2 2 2 2 2                           7 9 9 6 q r 3 $ + *                                                                                                                                                                                                                                       ",
"                                                                                                                                                                                                                  1 e M A j 9 3 3 3 ; 3                               : > 1 8 9 3 $ $ *                                                                                                                                                                                                                                         ",
"                                                                                                                                                                                                                  : > 7 9 , 3 3 3 3 =                                 X @ : 4 3 $ + * %                                                                                                                                                                                                                                         ",
"                                                                                                                                                                                                                    : : & & * = = &                                       @ > % + + @                                                                                                                                                                                                                                           ",
"                                                                                                                                                                                                                      X o + & = -                                           X X X O                                                                                                                                                                                                                                             ",
"                                                                                                                                                                                                                        X o @ +                                                                                                                                                                                                                                                                                                 ",
"                                                                                                                                                                                                                                                                                                                                                                                                                                                                                                                                ",
"                                                                                                                                                                                                                                                                                                                                                                                                                                                                                                                                ",
"                                                                                                                                                                                                                                                                                                                                                                                                                                                                                                                                "
};
