/* XPM */
static char *out[] = {
/* columns rows colors chars-per-pixel */
"256 256 148 2 ",
"   c None",
".  c #1D140F",
"X  c #161111",
"o  c #1C1512",
"O  c #21170F",
"+  c #23180F",
"@  c #211712",
"#  c #241A14",
"$  c #2A1E16",
"%  c #251C18",
"&  c #2A1F1A",
"*  c #2E2017",
"=  c #2E211A",
"-  c #33251C",
";  c #36281F",
":  c #3B2A1E",
">  c #322621",
",  c #362921",
"<  c #3C2C22",
"1  c #3F3025",
"2  c #3F3228",
"3  c #412F23",
"4  c #443225",
"5  c #493526",
"6  c #45342A",
"7  c #49362A",
"8  c #47382E",
"9  c #4D392C",
"0  c #533D2D",
"q  c #453630",
"w  c #4E3C31",
"e  c #523E31",
"r  c #583F30",
"t  c #57402F",
"y  c #59412F",
"u  c #554133",
"i  c #5C4433",
"p  c #5F4836",
"a  c #574538",
"s  c #5A4639",
"d  c #5E493A",
"f  c #614733",
"g  c #634A35",
"h  c #684D37",
"j  c #644C3B",
"k  c #694F3A",
"l  c #67503E",
"z  c #6C523D",
"x  c #72553E",
"c  c #75583F",
"v  c #634E40",
"b  c #665143",
"n  c #6C5442",
"m  c #6F5845",
"M  c #6B5448",
"N  c #6F594B",
"B  c #715642",
"V  c #755A44",
"C  c #7A5D46",
"Z  c #755C4A",
"A  c #7A5E49",
"S  c #755E51",
"D  c #766047",
"F  c #7E6047",
"G  c #7D614B",
"H  c #776150",
"J  c #7C6351",
"K  c #7B635B",
"L  c #83654D",
"P  c #86684E",
"I  c #89694F",
"U  c #826651",
"Y  c #866952",
"T  c #8A6D54",
"R  c #866D5A",
"E  c #8A6E59",
"W  c #8E7057",
"Q  c #8E715A",
"!  c #917156",
"~  c #93755C",
"^  c #96785F",
"/  c #99795E",
"(  c #8D7462",
")  c #8E7862",
"_  c #927761",
"`  c #967962",
"'  c #9B7C63",
"]  c #9B7F6A",
"[  c #A07F63",
"{  c #9E8066",
"}  c #9E816A",
"|  c #9D8471",
" . c #9B8378",
".. c #A28266",
"X. c #A4856A",
"o. c #A8876B",
"O. c #A6886D",
"+. c #AA8A6D",
"@. c #A28672",
"#. c #A68972",
"$. c #AD8D72",
"%. c #A58B7A",
"&. c #AA8E78",
"*. c #B08F72",
"=. c #AF9075",
"-. c #AE927A",
";. c #B29275",
":. c #B4957A",
">. c #B89779",
",. c #B6987E",
"<. c #BA9A7D",
"1. c #C19E7E",
"2. c #AD9581",
"3. c #B39681",
"4. c #B69982",
"5. c #BB9D82",
"6. c #B59F89",
"7. c #B99F89",
"8. c #BEA185",
"9. c #BEA28A",
"0. c #BAA693",
"q. c #BEA892",
"w. c #C09F81",
"e. c #C3A485",
"r. c #C4A689",
"t. c #C8A788",
"y. c #C6A98B",
"u. c #CAAB8C",
"i. c #C1A791",
"p. c #C5AB91",
"a. c #CCAE91",
"s. c #CEB193",
"d. c #CDB399",
"f. c #D2B495",
"g. c #D5B897",
"h. c #D3B699",
"j. c #D6BA9A",
"k. c #D9BD9D",
"l. c #D7BCA1",
"z. c #D9BEA1",
"x. c #DBC09F",
"c. c #DDC3A3",
"v. c #DFC7A9",
"b. c #D7C6B0",
"n. c #E0C6A6",
"m. c #E0C9AA",
"M. c #E4D2B5",
"N. c #E6D6BA",
/* pixels */
"                                                                                                                                                                                                                                                                                                                                                                                                                                                                                                                                ",
"                                                                                                                                                                                                                                                                                                                                                                                                                                                                                                                                ",
"                                                                                                                                                                                                                                                                                                                                                                                                                                                                                                                                ",
"                                                                                                                                                                                                                                                                                                                                                                                                                                                                                                                                ",
"                                                                                                                                                                                                                                                                                                                                                                                                                                                                                                                                ",
"                                                                                                                                                                                                                                                                                                                                                                                                                                                                                                                                ",
"                                                                                                                                                                                                                                                                                                                                                                                                                                                                                                                                ",
"                                                                                                                                                                                                                                                                                                                                                                                                                                                                                                                                ",
"                                                                                                                                                                                                                                                                                                                                                                                                                                                                                                                                ",
"                                                                                                                                                                                                                                                                                                                                                                                                                                                                                                                                ",
"                                                                                                                                                                                                                                                                                                                                                                                                                                                                                                                                ",
"                                                                                                                                                                                                                                                                                                                                                                                                                                                                                                                                ",
"                                                                                                                                                                                                                                                                                                                                                                                                                                                                                                                                ",
"                                                                                                                                                                                                                                                                                                                                                                                                                                                                                                                                ",
"                                                                                                                                                                                                                                                                                                                                                                                                                                                                                                                                ",
"                                                                                                                                                                                                                                                                                                                                                                                                                                                                                                                                ",
"                                                                                                                                                                                                                                                                                                                                                                                                                                                                                                                                ",
"                                                                                                                                                                                                                                                                                                                                                                                                                                                                                                                                ",
"                                                                                                                                                                                                                                                                                                                                                                                                                                                                                                                                ",
"                                                                                                                                                                                                                                                                                                                                                                                                                                                                                                                                ",
"                                                                                                                                                                                                                                                                                                                                                                                                                                                                                                                                ",
"                                                                                                                                                                                                                                                                                                                                                                                                                                                                                                                                ",
"                                                                                                                                                                                                                                                                                                                                                                                                                                                                                                                                ",
"                                                                                                                                                                                                                                                                                                                                                                                                                                                                                                                                ",
"                                                                                                                                                                                                                                                                                                                                                                                                                                                                                                                                ",
"                                                                                                                                                                                                                                                                                                                                                                                                                                                                                                                                ",
"                                                                                                                                                                                                                                                                                                                                                                                                                                                                                                                                ",
"                                                                                                                                                                                                                                                                                                                                                                                                                                                                                                                                ",
"                                                                                                                                                                                                                                                                                                                                                                                                                                                                                                                                ",
"                                                                                                                                                                                                                                                                                                                                                                                                                                                                                                                                ",
"                                                                                                                                                                                                                                                                                                                                                                                                                                                                                                                                ",
"                                                                                                                                                                                                                                                                                                                                                                                                                                                                                                                                ",
"                                                                                                                                                                                                                                                                                                                                                                                                                                                                                                                                ",
"                                                                                                                                                                                                                M.N.N.N.N.N.N.N.N.N.N.N.N.N.N.m.N.N.N.M.N.N.M.n.m.c.x.x.l.h.h.d.                                                                                                                                                                                                                                                ",
"                                                                                                                                                                                                                x.v.x.c.M.m.c.c.m.v.x.n.m.n.x.x.m.m.x.c.m.n.g.g.j.s.p.y.e.w.e.t.                                                                                                                                                                                                                                                ",
"                                                                                                                                                                                                                d.x.x.x.x.x.k.x.x.x.x.x.x.x.x.x.x.x.x.x.x.x.g.g.f.a.y.y.u.t.e.1.                                                                                                                                                                                                                                                ",
"                                                                                                                                                                                                                p.x.d.x.x.g.x.x.x.x.x.f.x.x.x.x.x.x.x.1.x.x.x.g.f.a.u.s.s.s.s.t.                                                                                                                                                                                                                                                ",
"                                                                                                                                                                                                                x.x.d.x.g.x.g.g.g.g.g.g.x.x.q.x.x.x.x.x.g.g.g.g.a.a.f.f.s.s.f.a.                                                                                                                                                                                                                                                ",
"                                                                                                                                                                                                                q.x.x.u.g.g.g.g.s.x.s.f.x.u.u.x.x.x.x.1.g.g.g.u.s.s.s.f.s.f.u.u.                                                                                                                                                                                                                                                ",
"                                                                                                                                                                                                                q.s.x.s.s.s.u.s.u.u.a.u.u.1.x.x.1.1.x.x.u.g.g.g.s.s.u.u.1.s.u.t.                                                                                                                                                                                                                                                ",
"                                                                                                                                                                                                                p.x.u.s.y.u.y.y.y.y.u.u.u.u.u.u.u.g.u.u.s.g.u.u.u.u.r.t.r.u.u.r.                                                                                                                                                                                                                                                ",
"                                                                                                                                                                                                                q.s.y.y.y.y.y.e.1.y.u.u.u.u.u.u.t.u.t.u.u.e.u.u.t.r.t.r.r.u.u.r.                                                                                                                                                                                                                                                ",
"                                                                                                                                                                                                                y.p.y.y.e.e.e.e.u.t.t.t.1.x.u.1.u.t.t.t.u.t.t.t.r.t.u.r.u.u.a.u.                                                                                                                                                                                                                                                ",
"                                                                                                                                                                                                                y.y.y.y.e.<.8.e.1.t.1.8.1.1.u.u.t.t.t.t.u.u.u.u.a.u.t.u.u.u.a.u.                                                                                                                                                                                                                                                ",
"                                                                                                                                                                                                                0.p.1.6.1.,.1.1.1.1.1.y.1.1.u.q.t.e.t.t.u.u.u.u.a.a.u.t.t.u.a.u.                                                                                                                                                                                                                                                ",
"                                                                                                                                                                                                                ,.y.y.e.1.1.1.1.1.1.q.1.q.1.x.1.t.t.e.t.t.t.u.u.u.a.f.u.t.e.u.u.                                                                                                                                                                                                                                                ",
"                                                                                                                                                                                                                1.q.1.q.1.,.,.<.1.q.1.6.1.1.1.1.e.e.t.t.t.t.u.e.t.u.u.u.y.y.u.u.                                                                                                                                                                                                                                                ",
"                                                                                                                                                                                                                <.6.<.,.1.,.<.<.<.<.<.<.1.1.1.1.e.e.e.e.t.e.e.u.t.t.u.t.u.y.u.u.                                                                                                                                                                                                                                                ",
"                                                                                                                                                                                                                8.<.,.>.;.>.<.<.>.>.>.>.>.1.1.1.1.1.1.e.e.y.e.e.t.t.t.y.u.t.u.y.                                                                                                                                                                                                                                                ",
"                                                                                                                                                                                                                -.,.>.;.;.$.;.;.*.*.*.;.*.>.>.>.1.1.1.1.e.e.e.u.t.t.t.t.t.t.t.y.                                                                                                                                                                                                                                                ",
"                                                                                                                                                                                                                #.$.+.=.+.O.+.$.*.*.*.*.*.>.>.1.>.>.1.>.1.e.e.e.t.e.1.t.t.y.y.t.                                                                                                                                                                                                                                                ",
"                                                                                                                                                                                                                } X.O.+.*.+.O.+.+.*.*.*.+.*.+.*.;.>.<.>.1.1.e.1.1.e.e.w.e.t.y.e.                                                                                                                                                                                                                                                ",
"                                                                                                                                                                                                                ..o.o.+.O.+.+.+.+.*.*.*.o.+.+.+.;.;.;.>.>.1.1.1.1.1.e.1.e.e.e.8.                                                                                                                                                                                                                                                ",
"                                                                                                                                                                                                                ..o...+.....o.+.*.*.*.*.*.o.o.o.+.+.*.;.;.>.;.1.1.<.1.1.<.1.1.8.                                                                                                                                                                                                                                                ",
"                                                                                                                                                                                                                { ............+.*.*.*.*.*.o.+.+.+.+.*.*.;.>.;.1.<.<.>.>.>.<.<.w.                                                                                                                                                                                                                                                ",
"                                                                                                                                                                                                                { { ..........o.o.+.+.o.o.*.*.+.+.*.*.*.;.;.;.>.>.>.>.<.<.<.e.<.                                                                                                                                                                                                                                                ",
"                                                                                                                                                                                                                { { { { ......{ o.+.o.o.+.+.+.*.+.+.+.*.;.;.;.;.;.;.;.>.<.1.1.<.                                                                                                                                                                                                                                                ",
"                                                                                                                                                                                                                { F I { { { ..! ..+.+.o.o.o.o.o.+.+.+.*.*.;.;.>.;.*.;.;.>.<.<.<.                                                                                                                                                                                                                                                ",
"                                                                                                                                                                                                                J { I { ! ........+.+.o.o.o.o...o.o.+.*.*.;.;.>.;.*.*.*.;.<.<.,.                                                                                                                                                                                                                                                ",
"                                                                                                                                                                                                                G { { F I ! ! ! ..o.o...o.o.o.o.o.o.o.+.*.*.*.>.>.;.*.*.;.;.$.;.                                                                                                                                                                                                                                                ",
"                                                                                                                                                                                                                D F I I I I I I ! / ............o.o.o.+.*.*.*.;.*.*.*.*.*.o.$.$.                                                                                                                                                                                                                                                ",
"                                                                                                                                                                                                                I I I I I I I I I ! ..........o.o.o.+.+.+.*.*.;.*.o.o.+.+.+.+.O.                                                                                                                                                                                                                                                ",
"                                                                                                                                                                                                                D P I I I I I I I ! ! ..........o.o.o.+.+.*.*.:.*.o.o.+.o.....X.                                                                                                                                                                                                                                                ",
"                                                                                                                                                                                                                z D F F F I I F I I ! / ..........o.o.o.+.+.+.*.*.......o.....X.                                                                                                                                                                                                                                                ",
"                                                                                                                                                                                                                e e r u u i i p i h k j j j h j k b z b V G L Y U Z C G G J G H                                                                                                                                                                                                                                                 ",
"                                                                                                                                                                                                                                      o X . @ o @ @ # # >                                                                                                                                                                                                                                                                       ",
"                                                                                                                                                                                                                                      # # # & * $ $ & > q                                                                                                                                                                                                                                                                       ",
"                                                                                                                                                                                                                                      = 4 4 7 7 7 7 0 a M                                                                                                                                                                                                                                                                       ",
"                                                                                                                                                                                                                                      , 9 p i j j j j V R                                                                                                                                                                                                                                                                       ",
"                                                                                                                                                                                                                                      2 i l m V Z Z n J |                                                                                                                                                                                                                                                                       ",
"                                                                                                                                                                                                                                      w n G L G U U G Q %.                                                                                                                                                                                                                                                                      ",
"                                                                                                                                                                                                                                      d G E R Y E Q W } 2.                                                                                                                                                                                                                                                                      ",
"                                                                                                                                                                                                                                      M T _ ~ W ~ ` ] #.4.                                                                                                                                                                                                                                                                      ",
"                                                                                                                                                                                                                                      Z ! ` _ ' ' } O.;.7.                                                                                                                                                                                                                                                                      ",
"                                                                                                                                                                                                                                      J ' _ ` ~ ~ ' O.:.7.                                                                                                                                                                                                                                                                      ",
"                                                                                                                                                                                                                                      G [ ' ' ' ~ ' O.:.8.                                                                                                                                                                                                                                                                      ",
"                                                                                                                                                                                                                                      m ~ ` ' ] ] ^ ..,.8.                                                                                                                                                                                                                                                                      ",
"                                                                                                                                                                                                                  p.0.                M T ~ ' X...[ ~ X.3.                                                                                                                                                                                                                                                                      ",
"                                                                                                                                                                                                                3.:.7.i.w.w.w.w.9.9.7.-.&.-.:.3.:.&.#.@.&.                                                                                                                                                                                                                                                                      ",
"                                                                                                                                                                                                                @.o.o.+.+.$.:.1.,.1.<.1.w.e.e.u.t.u.t.y.y.r.9.7.7.3.2.%.%. .                                                                                                                                                                                                                                                    ",
"                                                                                                                                                                                                                &.o.o.#.+.+.*.;.<.9.8.,.<.1.1.1.1.1.1.1.1.1.1.q.e.r.7.5.4.4.3.3.                                                                                                                                                                                                                                                ",
"                                                                                                                                                                                                                &.$.+.+.*.*.*.>.a.d.d.q.8.1.<.<.1.1.q.1.1.1.1.1.5.5.4.4.4.4.>.3.                                                                                                                                                                                                                                                ",
"                                                                                                                                                                                                                =.*.*.$.;.>.>.r.d.j.x.x.x.d.8.,.1.<.<.<.<.<.1.1.w.w.<.<.4.>.4.3.                                                                                                                                                                                                                                                ",
"                                                                                                                                                                                                                :.>.>.*.;.>.w.s.d.d.x.x.c.x.x.s.p.1.<.,.,.,.<.q.5.w.4.>.>.4.>.-.                                                                                                                                                                                                                                                ",
"                                                                                                                                                                                                              @.:.>.>.>.;.>.u.s.d.h.d.s.s.x.x.x.x.1.,.<.,.,.,.<.4.w.4.w.:.3.>.-.                                                                                                                                                                                                                                                ",
"                                                                                                                                                                                                              @.:.*.*.>.;.t.l.j.j.j.g.d.q.x.1.s.<.-.-.<.1.1.1.<.w.w.w.4.4.>.4.3.                                                                                                                                                                                                                                                ",
"                                                                                                                                                                                                              @.*.+.+.*.1.f.l.c.l.j.g.h.x.1.x.q.:.=.=.=.<.1.1.1.5.w.4.w.4.:.3.                                                                                                                                                                                                                                                  ",
"                                                                                                                                                                                                              @.*.*.+.*.u.j.j.j.k.j.h.h.q.x.1.,.$.+.=.+.=.<.1.1.5.4.w.4.>.*.*.                                                                                                                                                                                                                                                  ",
"                                                                                                                                                                                                              %.>.+.+.5.k.k.j.j.h.h.s.f.f.f.e.:.+.;.+.+.+.<.<.<.w.w.w.4.,.:.$.                                                                                                                                                                                                                                                  ",
"                                                                                                                                                                                                              #.+.o.>.h.j.k.l.k.j.h.f.f.a.p.4.*.+.;.;.+.+.<.<.<.<.4.w.4.4.3.:.                                                                                                                                                                                                                                                  ",
"                                                                                                                                                                                                              @.o.o.u.c.k.k.k.k.k.j.j.h.a.5.:.+.+.+.+.+.;.<.<.<.4.w.5.5.5.5.,.                                                                                                                                                                                                                                                  ",
"                                                                                                                                                                                                              #.+.<.h.k.l.j.j.g.j.j.j.h.u.:.>.*.+.+.+.+.>.,.>.>.<.<.5.5.w.w.4.                                                                                                                                                                                                                                                  ",
"                                                                                                                                                                                                              X.*.a.g.g.g.h.h.h.g.f.f.a.5.:.>.*.$.O.+.*.;.,.;.,.>.>.4.<.<.5.4.                                                                                                                                                                                                                                                  ",
"                                                                                                                                                                                                              #.u.n.z.h.f.f.h.f.f.f.a.8.>.>.;.*.+.+.+.+.;.;.>.,.>.>.>.>.<.4.<.                                                                                                                                                                                                                                                  ",
"                                                                                                                                                                                                              5.k.n.n.k.j.f.s.f.a.f.e.>.;.;.>.+.$.+.$.;.;.;.;.;.;.4.5.4.<.5.4.                                                                                                                                                                                                                                                  ",
"                                                                                                                                                                                                              a.k.k.k.h.g.g.f.u.u.t.<.>.;.>.;.*.;.$.;.>.;.;.;.;.;.>.w.<.,.<.,.                                                                                                                                                                                                                                                  ",
"                                                                                                                                                                                                            s.j.h.h.g.f.f.h.f.a.x.;.;.>.;.;.*.*.*.+.;.>.;.;.:.=.*.;.4.>.>.>.-.                                                                                                                                                                                                                                                  ",
"                                                                                                                                                                                                            j.k.k.k.k.j.f.f.f.a.1.>.;.;.;.;.*.+.+.*.>.>.;.;.=.;.*.*.:.>.>.4.:.                                                                                                                                                                                                                                                  ",
"                                                                                                                                                                                                          j.k.j.h.h.j.k.g.a.a.e.<.>.>.;.;.*.+.+.O.*.;.>.=.;.=.>.*.*.;.;.:.,.:.                                                                                                                                                                                                                                                  ",
"                                                                                                                                                                                                          j.k.g.h.f.a.g.h.f.t.<.;.;.*.*.*.*.+...+.;.;.>.=.>.;.=.;.;.;.-.:.,.                                                                                                                                                                                                                                                    ",
"                                                                                                                                                                                                        j.j.j.h.g.f.f.u.t.e.,.:.;.;.*.*.+.+.o.+.*.;.;.;.>.;.>.=.;.:.>.:.>.:.                                                                                                                                                                                                                                                    ",
"                                                                                                                                                                                                      h.l.k.g.j.g.j.g.a.t.<.>.;.;.;.;.*.*.+.o.$.;.;.;.;.>.>.>.>.:.:.;.:.>.:.                                                                                                                                                                                                                                                    ",
"                                                                                                                                                                                                      j.j.h.h.j.h.f.f.g.s.<.*.*.;.;.;.*.+.o.+.+.;.;.;.;.;.>.;.;.>.*.:.:.>.,.                                                                                                                                                                                                                                                    ",
"                                                                                                                                                                                                    j.l.j.k.j.j.f.g.a.a.t.>.+.+.;.;.+.+.+.o.$.+.;.;.;.;.;.*.;.*.*.*.;.;.*.:.                                                                                                                                                                                                                                                    ",
"                                                                                                                                                                                                  d.j.j.k.j.j.g.g.g.f.u.>.*.+.*.*.+.+.+.+.o.$.*.$.;.*.;.;.;.*.$.$.*.:.*.:.:.                                                                                                                                                                                                                                                    ",
"                                                                                                                                                                                                  j.h.j.j.g.g.g.f.f.f.u.>.*.+.+.+.$.+.+.o.+.$.$.;.;.;.$.+.$.;.$.$.$.*.=.=.:.                                                                                                                                                                                                                                                    ",
"                                                                                                                                                                                                h.h.j.j.j.j.g.f.a.u.t.>.+.+.+.+.$.+.o.X.+.+.$.;.$.;.;.;.;.;.;.$.$.$.*.*.$.:.                                                                                                                                                                                                                                                    ",
"                                                                                                                                                                                              a.h.h.g.j.g.d.s.a.u.t.>.o.o.+.o.+.+.+...o.O.+.$.$.;.;.;.$.;.;.;.+.$.*.&.$.*.:.                                                                                                                                                                                                                                                    ",
"                                                                                                                                                                                              s.f.f.s.s.s.f.s.u.1.>.............o.o.X.o.O.+.=.=.=.;.;.;.;.;.;.;.$.$.$.*.*.=.                                                                                                                                                                                                                                                    ",
"                                                                                                                                                                                            p.f.s.u.u.a.a.u.u.t.>...../ [ [ / / ....o.O.+.+.+.=.=.$.;.;.;.+.;.+.+.$.$.$.*.&.                                                                                                                                                                                                                                                    ",
"                                                                                                                                                                                            u.u.y.y.a.y.t.8.1.1.+.../ / / / / / { X.X.O.O.+.$.=.;.+.=.;.;.*.=.+.+.+.$.+.*.&.                                                                                                                                                                                                                                                    ",
"                                                                                                                                                                                          7.e.e.y.a.y.e.<.*.;.+...../ ../ / / / ..O.O.O.O.O.+.+.$.=.;.+.$.;.$.$.+.+.+.$.+.$.                                                                                                                                                                                                                                                    ",
"                                                                                                                                                                                          5.,.>.5.r.e.,.=.X...' / / / / / ! ~ / X.O.X.O.O.+.$.$.$.$.*.=.*.+.;.+.O.o.$.$.$.$.                                                                                                                                                                                                                                                    ",
"                                                                                                                                                                                        ,.,.:.#.X.X.$.+.....` ! / / / ! ! ! ! ..X.O.X.X.X.O.+.$.=.+.+.+.=.$.+.+.o.O.$.*.$.:.                                                                                                                                                                                                                                                    ",
"                                                                                                                                                                                      &.*.#.o...} { ' ^ ^ ' ^ ~ ! ! ! W I T / ..X.X.X.X.X.O.O.O.O.X.X.+.+.+.=.=.*.#.+.$.:.=.                                                                                                                                                                                                                                                    ",
"                                                                                                                                                                                      #.O.' ~ ~ ' ..` ] ] ' ~ ^ ! W W W ! ~ { ..X.X.X.X.X.O.O.{ ..X...X.X.+.+.=.:.*.$.#.*.*.                                                                                                                                                                                                                                                    ",
"                                                                                                                                                                                    ] } #.] R U R Q E ' ' ~ ^ ^ ! T P P W ' ' { X.X.} } X.O.O.{ X.....X.+.X.+.X.$.*.$.#.+.$.                                                                                                                                                                                                                                                    ",
"                                                                                                                                                                                    i.d.d.a.i.9.7.7.3.3.} T W ! W Y L P Q ~ ~ ' { { { { { { X.......X.....X.+.+.o.$.*.+.O.$.                                                                                                                                                                                                                                                    ",
"                                                                                                                                                                                    :.,.4.<.:.$.$.*.$.$.4.&.E L L Y L W ~ ~ ~ ~ { { { { { { { { ..{ ........X.....X.o.#.+.+.                                                                                                                                                                                                                                                    ",
"                                                                                                                                                                                      O.X.O.#...' #.,.5.=.*.#._ G G Y Q ~ ~ ~ ~ Q Q { { { { { { ' / ' / ] ....{ ' ' ..X.X.O.                                                                                                                                                                                                                                                    ",
"                                                                                                                                                                                      ' ....o.$.X.X.,.w.:.O.O.O.] ( T E T W Q ~ ~ ~ ~ { { { { { ^ ^ ~ ~ ^ { { ..' / / ....X.                                                                                                                                                                                                                                                    ",
"                                                                                                                                                                                      ~ ] ....O.$.$.*.:.e.:.#.+.o.] E E E Q W ~ ~ ~ ~ ~ ~ { { ^ { ~ { ~ ^ ' ' { ] [ ' ] X.+.O.                                                                                                                                                                                                                                                  ",
"                                                                                                                                                                                        ^ ' ' ..+.o.[ [ :.5.;.+.$.X.W E W W W W ~ ~ ~ { ~ ~ ~ { { ^ Q ~ ` ' / ' / [ ] [ ..O.#.                                                                                                                                                                                                                                                  ",
"                                                                                                                                                                                        E E W _ ' ^ ' ' +.5.:.$.$.+.! I T W E T W W ~ { { { ~ W ~ ^ ~ ~ ~ ~ ' ' ^ / / ' } ..O.                                                                                                                                                                                                                                                  ",
"                                                                                                                                                                                        G G L T E ! ! ^ ..>.:.*.+.$.~ Y T T Y T Y Y W ~ { ~ ~ { { ~ ~ ~ ~ / ' ' ' ~ ' ' ] X.X.                                                                                                                                                                                                                                                  ",
"                                                                                                                                                                                          m l k C I I T E $.:.$.$.$.' P Y Y Y Y Y T W W Q ~ { ~ / { { ~ ~ ` / ' ^ ' ~ ` ' ..X.                                                                                                                                                                                                                                                  ",
"                                                                                                                                                                                          l j j n L U Y I ..:.$.$.*.X.U U Y Y Y Y W T W W W ~ { ~ { ^ ` / ~ ~ ~ ! ` ~ ^ ' ' }                                                                                                                                                                                                                                                   ",
"                                                                                                                                                                                          j j j j C C P P / >.;.*.*.+.U L T Y L G G G Y W W Q Q ~ ~ ^ ^ _ ~ ~ Q ~ ! ~ ~ ^ ' }                                                                                                                                                                                                                                                   ",
"                                                                                                                                                                                          m H G D D C C L W ;.,.:.>.=.T G G L Y U L L L U T E E ~ ! / ~ ~ ~ ~ ~ ! ~ W ~ ` ` [                                                                                                                                                                                                                                                   ",
"                                                                                                                                                                                            H U L L G F F P $.,.<.>.;.Q Z G L P T U U L L U I I E E ~ ~ ! E T T E ~ Q W ~ ^ '                                                                                                                                                                                                                                                   ",
"                                                                                                                                                                                            d l V G I L L L X.1.8.<.>./ Z V G G U U U U U L U L I T E ! ~ ~ ! E Y T E Y E ! ~                                                                                                                                                                                                                                                   ",
"                                                                                                                                                                                            w u i l L L P P { 1.e.8.1...Z C Z F A L L U U T T U U T E E ! E T E T T T T W E !                                                                                                                                                                                                                                                   ",
"                                                                                                                                                                                              e u d m G L I W ;.e.8.9.=.Z C C C A A A A L L L I Y T T T E ! T T T E E T T T E                                                                                                                                                                                                                                                   ",
"                                                                                                                                                                                              w u i m G G L L +.1.8.8.-.Z V V V B A Z V L L L U I U T T E Q E T Y Y T Y Y T T                                                                                                                                                                                                                                                   ",
"                                                                                                                                                                                                u u l G I P G { 1.1.1.,.G z l c B B B B n B V L L U U Y U T T T U Y Y T T U Y E                                                                                                                                                                                                                                                 ",
"                                                                                                                                                                                                8 t p D G W I ~ ,.<.8.8.W V z z n B n B n k B V L L U U Y Y T T Y U T U U Y E R                                                                                                                                                                                                                                                 ",
"                                                                                                                                                                                                8 t i p x W W W ;.1.8.<.~ V V l z k B B B z k B B V L L L L U Y T Y Y U U Y Y R                                                                                                                                                                                                                                                 ",
"                                                                                                                                                                                                  u 9 9 s L ^ ^ =.e.8.8.{ z V z z B k n n z z k B B B V B L A L Y U U U G C G U                                                                                                                                                                                                                                                 ",
"                                                                                                                                                                                                  5 7 9 t D ~ W X.8.8.8.| x z m B h k k k k B k n n B B B B L L L U L C V V V Z                                                                                                                                                                                                                                                 ",
"                                                                                                                                                                                                    7 t u z Y Y ~ >.e.8.=.m z z B n k g k k n B B V A B g n n k j g d r e w e a                                                                                                                                                                                                                                                 ",
"                                                                                                                                                                                                    9 9 u j G L I ;.<.8.:.B g r f g r 0 r B B A _ ] [ E Z A U V a                                                                                                                                                                                                                                                               ",
"                                                                                                                                                                                                    7 9 7 d G G P +.8.e.3.g , - : 3 5 5 r L n B ` ] ] %.O.] O.] K                                                                                                                                                                                                                                                               ",
"                                                                                                                                                                                                      9 9 d G F L ..5.5.5.M < < O $ 3 3 7 h g k Q %.#.o.#.$.#.O.( K                                                                                                                                                                                                                                                             ",
"                                                                                                                                                                                                      6 6 i D F F ^ ,.8.e.J : 3 # + 5 0 r g g g Y $.&.#.#.$.*.&.] (                                                                                                                                                                                                                                                             ",
"                                                                                                                                                                                                      2 6 u G F F W >.1.9.) - 4 = + 3 5 y h h z Y &.=.$.$.&.;.>.%.|                                                                                                                                                                                                                                                             ",
"                                                                                                                                                                                                        9 w Z L F P =.8.8.} ; , & + - 4 y z c C P #.:.=.:.:.4.4.-.@.&.                                                                                                                                                                                                                                                          ",
"                                                                                                                                                                                                        9 9 z Y L I +.<.8.#.2 - - + $ - t g z Z U #.:.,.4.5.5.5.4.&.:.                                                                                                                                                                                                                                                          ",
"                                                                                                                                                                                                          2 u G L L } <.,.#.u - ; $ * $ 0 p f c L X.:.,.5.w.5.5.7.-.7.                                                                                                                                                                                                                                                          ",
"                                                                                                                                                                                                          1 4 l L F ~ -.-.=.a = < = & $ 4 p p x V ..:.:.4.e.w.5.7.,.,.9.                                                                                                                                                                                                                                                        ",
"                                                                                                                                                                                                          1 : 7 z z D X.-.=.b = 2 < = = : p p z B ' :.:.7.y.7.5.5.4.7.e.                                                                                                                                                                                                                                                        ",
"                                                                                                                                                                                                            < < 5 5 y / -.-.H = 4 2 , - : p k B C ~ :.:.,.e.r.5.4.4.5.e.9.                                                                                                                                                                                                                                                      ",
"                                                                                                                                                                                                            - : 5 0 y Y =.-.R - 1 6 < : 4 y g z B ! :.:.:.5.7.5.5.4.5.e.r.                                                                                                                                                                                                                                                      ",
"                                                                                                                                                                                                              - 0 y h L O.-.` , > 6 6 , 7 u p f z W ;.:.,.5.5.4.5.7.5.r.r.                                                                                                                                                                                                                                                      ",
"                                                                                                                                                                                                              - : t h D X.-.| 6 - 8 6 6 e u y f x Y $.:.,.5.8.5.4.4.9.r.p.0.                                                                                                                                                                                                                                                    ",
"                                                                                                                                                                                                              = - 4 f c ] &.&.a = w w e e r u p z P +.>.;.<.5.5.,.4.e.r.p.p.                                                                                                                                                                                                                                                    ",
"                                                                                                                                                                                                                * = 5 y E &.&.b = 6 w a e u y 0 f V ..;.>.:.<.5.,.4.4.e.y.y.9.                                                                                                                                                                                                                                                  ",
"                                                                                                                                                                                                                $ $ - 4 m } X.N > < w a 9 5 0 0 f c / >.:.<.,.,.,.4.6.8.e.p.i.                                                                                                                                                                                                                                                  ",
"                                                                                                                                                                                                                  $ $ - : m Z v 2 1 e a 4 4 0 0 f c / ;.;.<.<.<.,.4.5.8.9.r.p.                                                                                                                                                                                                                                                  ",
"                                                                                                                                                                                                                  @ o % % =   q 6 < u e 5 5 y y y x ! *.;.:.<.,.4.4.4.5.9.r.y.7.                                                                                                                                                                                                                                                ",
"                                                                                                                                                                                                                                6 < u w 9 7 y y y z I +.;.;.>.<.<.7.4.,.8.9.r.9.                                                                                                                                                                                                                                                ",
"                                                                                                                                                                                                                                , > w w w 7 e u y h I +.*.>.<.,.5.4.4.5.4.8.r.r.                                                                                                                                                                                                                                                ",
"                                                                                                                                                                                                                                  & w e w 7 0 r y h F o.;.;.<.<.8.4.6.5.4.8.9.r.8.                                                                                                                                                                                                                                              ",
"                                                                                                                                                                                                                                    u e 9 9 0 y y h F ..;.>.>.e.9.5.4.5.8.8.9.r.9.                                                                                                                                                                                                                                              ",
"                                                                                                                                                                                                                                      e 9 7 0 i y h c ..*.;.>.<.9.5.7.,.,.8.r.9.9.8.                                                                                                                                                                                                                                            ",
"                                                                                                                                                                                                                                      u e 9 9 u 0 f c / *.;.:.<.5.9.7.:.:.4.9.r.e.7.                                                                                                                                                                                                                                            ",
"                                                                                                                                                                                                                                      s u w 0 i 0 f x ! *.;.;.,.5.9.9.:.-.5.8.r.e.8.                                                                                                                                                                                                                                            ",
"                                                                                                                                                                                                                                      s u w 0 0 r f x ! +.;.;.5.5.5.8.4.=.,.6.9.9.,.:.                                                                                                                                                                                                                                          ",
"                                                                                                                                                                                                                                      d u 0 7 0 y y h I +.*.;.,.4.8.8.4.;.:.,.8.8.>.,.                                                                                                                                                                                                                                          ",
"                                                                                                                                                                                                                                      s u u 0 0 y y h P o.*.;.:.,.8.8.5.-.-.3.8.9.,.,.                                                                                                                                                                                                                                          ",
"                                                                                                                                                                                                                                      d s a u 0 0 y h C o.;.*.;.4.4.8.6.-.=.,.8.r.5.,.:.                                                                                                                                                                                                                                        ",
"                                                                                                                                                                                                                                        s 9 9 0 r r h c ..*.*.:.5.5.8.8.;.=.-.4.9.8.4.4.                                                                                                                                                                                                                                        ",
"                                                                                                                                                                                                                                        s u 9 0 r y g x ' $.*.:.,.8.8.8.;.=.=.,.9.r.5.5.4.                                                                                                                                                                                                                                      ",
"                                                                                                                                                                                                                                        d u 0 0 y y f h / *.*.;.,.8.8.8.:.=.=.,.4.8.8.,.,.                                                                                                                                                                                                                                      ",
"                                                                                                                                                                                                                                        v j s 0 y y f h ! +.+.>.,.5.8.7.:.$.=.-.:.:.5.4.4.                                                                                                                                                                                                                                      ",
"                                                                                                                                                                                                                                        N b a u y y g h I +.*.;.,.,.8.5.=.O.$.#.&.=.:.4.5.4.                                                                                                                                                                                                                                    ",
"                                                                                                                                                                                                                                        v a u 0 y y f h I o.*.*.:.,.8.5.$.' { X.#.=.:.5.5.7.                                                                                                                                                                                                                                    ",
"                                                                                                                                                                                                                                        d a u u y f y g C O.$.$.-.>.8.8.=.~ { } #.=.-.,.8.6.                                                                                                                                                                                                                                    ",
"                                                                                                                                                                                                                                        d a u u f h f g V X.*.;.;.:.4.8.-.Q } } X.#.=.-.5.8.4.                                                                                                                                                                                                                                  ",
"                                                                                                                                                                                                                                          a u u f g f h x ..;.;.-.:.,.8.:.~ ~ X.X.} #.-.:.9.9.                                                                                                                                                                                                                                  ",
"                                                                                                                                                                                                                                          a w w j z k g x [ ;.;.;.:.:.8.5._ R } } | =.-.-.5.9.9.                                                                                                                                                                                                                                ",
"                                                                                                                                                                                                                                          s w w u h k f k ^ *.;.-.:.>.4.5.Q U ] } } #.-.-.-.4.9.                                                                                                                                                                                                                                ",
"                                                                                                                                                                                                                                          a w 9 r u j h h W $.;.;.:.:.,.5._ Z Q } ` #.:.-.,.2.9.                                                                                                                                                                                                                                ",
"                                                                                                                                                                                                                                          w 9 9 9 u h l z Y &.:.:.;.>.,.5.] m U { { #.-.-.,.4.8.9.                                                                                                                                                                                                                              ",
"                                                                                                                                                                                                                                          w w 7 7 e i k l L $.:.:.;.;.:.,.} i G ^ } | -.-.-.,.3.6.                                                                                                                                                                                                                              ",
"                                                                                                                                                                                                                                          u w 8 9 9 u i g Z O.:.:.;.;.:.:.X.i z E } } =.-.-.,.:.,.4.                                                                                                                                                                                                                            ",
"                                                                                                                                                                                                                                          w 8 8 7 9 t 0 0 z } ;.-.;.;.:.:.$.s t J ` } | =.:.:.,.3.4.                                                                                                                                                                                                                            ",
"                                                                                                                                                                                                                                            9 7 9 9 0 0 t p ^ -.-.;.;.:.:.=.l 4 M Q ` { #.-.-.,.,.3.3.                                                                                                                                                                                                                          ",
"                                                                                                                                                                                                                                            w 7 6 7 0 u y p W =.=.-.-.;.:.;.n 5 p U ` } } =.-.:.:.3.:.                                                                                                                                                                                                                          ",
"                                                                                                                                                                                                                                            9 8 < 4 9 0 r f U $.*.=.=.;.:.;.b : 9 V Q } #.=.-.-.:.-.3.-.                                                                                                                                                                                                                        ",
"                                                                                                                                                                                                                                            1 < , < 4 9 r f L @.O.+.=.;.;.:.Z - : 0 J { O.&.-.:.,.-.:.2.                                                                                                                                                                                                                        ",
"                                                                                                                                                                                                                                            , > > < 3 9 r u V [ O.#.=.-.=.;.G = - : l Q X.X.#.=.-.-.:.-.                                                                                                                                                                                                                        ",
"                                                                                                                                                                                                                                            8 6 4 3 , 3 0 0 g ^ O.O.O.=.=.;.U - * ; 5 G ` { } O.#.#.#.$.                                                                                                                                                                                                                        ",
"                                                                                                                                                                                                                                              w 8 3 < 4 5 0 r T [ X.#.$.$.*.E - $ * 3 k Y ! ! ! ' ' { ..}                                                                                                                                                                                                                       ",
"                                                                                                                                                                                                                                              w 6 6 6 7 5 0 0 L ' ] X.$.$.$._ - $ $ - g L I T T ! ' ' ] ]                                                                                                                                                                                                                       ",
"                                                                                                                                                                                                                                              w 6 6 3 , 3 0 0 V ` ` [ [ O.+.` 3 - * * r B T ^ ^ ~ ' ` ' `                                                                                                                                                                                                                       ",
"                                                                                                                                                                                                                                              8 1 3 , ; : 5 9 n W ` ` ] [ O.` q - - - 7 n Y ^ ` ~ ! ~ _ '                                                                                                                                                                                                                       ",
"                                                                                                                                                                                                                                              q 6 6 6 4 < < 5 k L T ~ ` [ [ ` e 3 < < 5 k L L I E ! ~ ~ ~                                                                                                                                                                                                                       ",
"                                                                                                                                                                                                                                              s s v v j 0 4 9 n L P P ! ~ [ ` f 4 4 7 r x L L I ! ~ ~ ^ ~                                                                                                                                                                                                                       ",
"                                                                                                                                                                                                                                              M N S V B B V B A E T T P ~ ` ^ j 5 0 0 f V T ! ! ^ ~ ~ ' E                                                                                                                                                                                                                       ",
"                                                                                                                                                                                                                                              S S A C A L L T ' [ ' ` ' ! ! ` n e r r g C T W / [ [ ] ' W                                                                                                                                                                                                                       ",
"                                                                                                                                                                                                                                            S H Z m D Y G J Q } @.] @.[ ] ~ ~ Z u u y k C T ! ! ^ ^ ^ `                                                                                                                                                                                                                         ",
"                                                                                                                                                                                                                                            S J Z D J W W W Q { [ [ [ [ X.@.] Z u u y x C I I I ! / ~ W                                                                                                                                                                                                                         ",
"                                                                                                                                                                                                                                            H H G Z J W T Y R Q ` ` [ @.#.#.] k r 0 y B C L L ! ^ ! ! W                                                                                                                                                                                                                         ",
"                                                                                                                                                                                                                                            R J G U R W W T { Q _ _ ] [ X.#.U u 0 0 i x C L I ! ! ! ! E                                                                                                                                                                                                                         ",
"                                                                                                                                                                                                                                          R Q J U R Y T K { Q Q ~ ^ ' { ] _ n r r r i B c L I I T T ! W                                                                                                                                                                                                                         ",
"                                                                                                                                                                                                                                          R R W Q Y Y W Q { { Q ] } } { ] L d s f i f B L I I I T E !                                                                                                                                                                                                                           ",
"                                                                                                                                                                                                                                          Q R Y W Y L W Q } { ~ ' { ] ] ` V j j h f h c L I I ! ! ! E                                                                                                                                                                                                                           ",
"                                                                                                                                                                                                                                        R Q Q Q T Y U W { { Q { ~ ' ] ] R v j g f y z c L I I I ! T T                                                                                                                                                                                                                           ",
"                                                                                                                                                                                                                                        ) _ E Q W W Q Q { { { Q ~ _ ' ` Z j d s y p x F I I I I ! W I                                                                                                                                                                                                                           ",
"                                                                                                                                                                                                                                        Q Q E ~ W W ~ ^ Q R Q W ~ ) ' ) M j s t 0 t x C I I I ! ^ ~ W                                                                                                                                                                                                                           ",
"                                                                                                                                                                                                                                      R Q ! T E W R T Q W T R W Q Q ~   m k j s p g V L I I I ! ~ T                                                                                                                                                                                                                             ",
"                                                                                                                                                                                                                                      E Q E E E T W Q W T T T T Q Q E   m l j l g g C P I I I ! ^ R                                                                                                                                                                                                                             ",
"                                                                                                                                                                                                                                      ~ ~ ~ Q E Q Q ^ W T T T T R W     n l j d i h C L I I I / ] !                                                                                                                                                                                                                             ",
"                                                                                                                                                                                                                                    R ~ ~ Q ~ ! Q ~ Q R T W T T T Y     b n b j y g C L I I I Y R E                                                                                                                                                                                                                             ",
"                                                                                                                                                                                                                                    E _ ~ ~ _ W Q ~ T W W T T Q Q       m n l d p h C L I I I P Y Q                                                                                                                                                                                                                             ",
"                                                                                                                                                                                                                                    _ ~ _ _ _ ~ ^ Q T T T T T Q T       z n j j f z C P I I T E !                                                                                                                                                                                                                               ",
"                                                                                                                                                                                                                                    ` ` ` ~ ~ ` ~ E T T T T E Q         m m j j g z F I I T E ! Q                                                                                                                                                                                                                               ",
"                                                                                                                                                                                                                                  _ ] ` ` ` ` ` Q T T T T T Q T         m b d j i m C P I E ! E E                                                                                                                                                                                                                               ",
"                                                                                                                                                                                                                                  ) ` ` ` ` ` ` W Y T T Y W ~           m b d d g V F P Y E ! W E                                                                                                                                                                                                                               ",
"                                                                                                                                                                                                                                  ` ` ` ` ) ` Q T T T T T ~ Y           m b d p g Z L P Y T W W Q                                                                                                                                                                                                                               ",
"                                                                                                                                                                                                                                ] ] ] ` ` _ Q Q Y T T Y W Q             m b d i p C F L I E W W                                                                                                                                                                                                                                 ",
"                                                                                                                                                                                                                                ` ] ) ` _ _ Q W Y Y Y T W R             N b d u p C F P T ! W W                                                                                                                                                                                                                                 ",
"                                                                                                                                                                                                                                ` ` ) ` ` _ Q Y Y Y Y T T             m m j p u j C F P E ~ ~ Q                                                                                                                                                                                                                                 ",
"                                                                                                                                                                                                                              ) ) ` ] ` _ _ W Y W Y T Q R             B m j s e h C L P T _ ~ E                                                                                                                                                                                                                                 ",
"                                                                                                                                                                                                                              ( ) ` ` ) ~ W Y Y Y Y R W               B m j s u z D L L T ~ ~ Q                                                                                                                                                                                                                                 ",
"                                                                                                                                                                                                                              ` { { ) Q Q W W Y Y Y W R               M m d i u z D L P Q Q W                                                                                                                                                                                                                                   ",
"                                                                                                                                                                                                                            ( ` ) _ ) ~ Q Y Y Y P Y T                 m b j u u x F L Y Q Q Q                                                                                                                                                                                                                                   ",
"                                                                                                                                                                                                                            _ ) Q Q Q Q Q Y P Y L Y U                 M j u 7 0 V F L P Q ~ W                                                                                                                                                                                                                                   ",
"                                                                                                                                                                                                                            ~ Q Q T Q Q Y P L L J Y                   l j 9 9 u c G L R Q Q T                                                                                                                                                                                                                                   ",
"                                                                                                                                                                                                                            E W Q R R T Y Y Y J G G                   m j 0 0 f m F L W Q W R                                                                                                                                                                                                                                   ",
"                                                                                                                                                                                                                          T E W ~ E R P P L P L L G                   b d e 0 g V F J T Q Q                                                                                                                                                                                                                                     ",
"                                                                                                                                                                                                                          E E E Y T ~ P L U L G G                     b u 0 9 h V F Y W Q Q                                                                                                                                                                                                                                     ",
"                                                                                                                                                                                                                          W ! W Y T Y P L G F G F                     d 0 7 9 g V F U R Q Y                                                                                                                                                                                                                                     ",
"                                                                                                                                                                                                                        Y E T Y T T L L L G F F                       u 7 9 0 k c F G G G F                                                                                                                                                                                                                                     ",
"                                                                                                                                                                                                                        T E T I Y P G L G F F Z                       9 6 9 u k V V V z B Z                                                                                                                                                                                                                                     ",
"                                                                                                                                                                                                                        Y E Y Y Y J F F F F F                         e 9 7 0 k c z z V F                                                                                                                                                                                                                                       ",
"                                                                                                                                                                                                                      U E Y I T I L C L F C c                         r 9 7 0 h z c V F F                                                                                                                                                                                                                                       ",
"                                                                                                                                                                                                                      U T Y I W I C L C F F                           e 9 6 0 k m F C F G                                                                                                                                                                                                                                       ",
"                                                                                                                                                                                                                      U I L Y ! L c C F C V                           9 7 5 0 g z c z z m                                                                                                                                                                                                                                       ",
"                                                                                                                                                                                                                      U L L I P C c F C C                             6 4 < 0 f g g g z                                                                                                                                                                                                                                         ",
"                                                                                                                                                                                                                    U U L V L V c C C c c                             4 < : 0 f k k z B                                                                                                                                                                                                                                         ",
"                                                                                                                                                                                                                    U G V n h x x x c L                               9 3 3 0 f x z z z                                                                                                                                                                                                                                         ",
"                                                                                                                                                                                                                    C V V z f z x h x x                             e 6 3 3 r y f h k z                                                                                                                                                                                                                                         ",
"                                                                                                                                                                                                                  V Z V x f f f f f g                               9 7 3 3 r y g z z n                                                                                                                                                                                                                                         ",
"                                                                                                                                                                                                                  n b b g f f y y h h                               7 6 3 5 r y h g g                                                                                                                                                                                                                                           ",
"                                                                                                                                                                                                                  v k f r f f y r i                                 9 6 : 4 0 r r 0 f                                                                                                                                                                                                                                           ",
"                                                                                                                                                                                                                j j g g h f y f f y                                 7 6 : 3 9 r 0 0 i                                                                                                                                                                                                                                           ",
"                                                                                                                                                                                                                s j j k k f y y f                                   3 , : 4 5 0 5 r u                                                                                                                                                                                                                                           ",
"                                                                                                                                                                                                                , 6 7 u i r 0 y r                                   > & & 3 4 5 5 0 0                                                                                                                                                                                                                                           ",
"                                                                                                                                                                                                                o o # > 5 5 0 r                                     o # % , : 5 7 6                                                                                                                                                                                                                                             ",
"                                                                                                                                                                                                                  X X # - 3 3 5                                       X X $ $ $ = =                                                                                                                                                                                                                                             ",
"                                                                                                                                                                                                                        . # -                                                                                                                                                                                                                                                                                                   ",
"                                                                                                                                                                                                                                                                                                                                                                                                                                                                                                                                ",
"                                                                                                                                                                                                                                                                                                                                                                                                                                                                                                                                ",
"                                                                                                                                                                                                                                                                                                                                                                                                                                                                                                                                ",
"                                                                                                                                                                                                                                                                                                                                                                                                                                                                                                                                "
};
