/* XPM */
static char *out[] = {
/* columns rows colors chars-per-pixel */
"256 256 153 2 ",
"   c None",
".  c #120D0D",
"X  c #1B130D",
"o  c #171110",
"O  c #1C1512",
"+  c #21160F",
"@  c #24180F",
"#  c #201712",
"$  c #241A14",
"%  c #2A1D15",
"&  c #251D19",
"*  c #2A1E18",
"=  c #2E2017",
"-  c #2E2219",
";  c #34251C",
":  c #38271C",
">  c #37281E",
",  c #3A291E",
"<  c #352721",
"1  c #362A22",
"2  c #3C2C22",
"3  c #3F3026",
"4  c #412E1F",
"5  c #412F22",
"6  c #443225",
"7  c #493526",
"8  c #44342A",
"9  c #4A372A",
"0  c #4D392C",
"q  c #533D2D",
"w  c #443831",
"e  c #4E3C31",
"r  c #523E31",
"t  c #57402E",
"y  c #59412F",
"u  c #564133",
"i  c #5B4434",
"p  c #5E4836",
"a  c #574439",
"s  c #5B4639",
"d  c #5E493A",
"f  c #614633",
"g  c #634936",
"h  c #694D37",
"j  c #644C3B",
"k  c #694F3B",
"l  c #66503E",
"z  c #6C523E",
"x  c #71553E",
"c  c #5F4B40",
"v  c #634E42",
"b  c #665043",
"n  c #6C5443",
"m  c #6B5648",
"M  c #6E594B",
"N  c #715641",
"B  c #755A44",
"V  c #7A5D46",
"C  c #745C4A",
"Z  c #7A5E49",
"A  c #765E50",
"S  c #7E6047",
"D  c #7E624C",
"F  c #7C6453",
"G  c #82654C",
"H  c #86684E",
"J  c #88694F",
"K  c #826651",
"L  c #866953",
"P  c #8A6D54",
"I  c #846B59",
"U  c #8A6F59",
"Y  c #8D7057",
"T  c #8E715A",
"R  c #917156",
"E  c #93755C",
"W  c #96785F",
"Q  c #99795E",
"!  c #8C7362",
"~  c #927661",
"^  c #967962",
"/  c #9B7C63",
"(  c #967D6C",
")  c #9C7F68",
"_  c #A07F63",
"`  c #9E8066",
"'  c #9E816A",
"]  c #9C8371",
"[  c #9F8878",
"{  c #A28266",
"}  c #A4856A",
"|  c #A8876B",
" . c #A6886E",
".. c #AB8A6E",
"X. c #A28671",
"o. c #A58972",
"O. c #AD8D72",
"+. c #A58C78",
"@. c #A98E79",
"#. c #B08F72",
"$. c #AF9075",
"%. c #AE927A",
"&. c #B29275",
"*. c #B4957A",
"=. c #B8977A",
"-. c #B6987E",
";. c #BA9A7D",
":. c #C19E7E",
">. c #AF9481",
",. c #B29681",
"<. c #B69A81",
"1. c #BC9D82",
"2. c #B69C8A",
"3. c #BC9F89",
"4. c #BEA185",
"5. c #B7A08C",
"6. c #BDA28A",
"7. c #BCA592",
"8. c #C09F81",
"9. c #C3A385",
"0. c #C4A689",
"q. c #C8A789",
"w. c #C6A88B",
"e. c #CAAB8D",
"r. c #C2A690",
"t. c #C5AB93",
"y. c #CCAE91",
"u. c #C6B097",
"i. c #CEB192",
"p. c #CDB399",
"a. c #D2B495",
"s. c #D4B897",
"d. c #D3B699",
"f. c #D5BA9A",
"g. c #D9BD9D",
"h. c #CDB9A0",
"j. c #D5BCA1",
"k. c #D8BEA2",
"l. c #DBC09F",
"z. c #D7C1A6",
"x. c #DCC2A2",
"c. c #D8C1A9",
"v. c #DCC9AB",
"b. c #D9C7B2",
"n. c #DDCBB3",
"m. c #DFD0BB",
"M. c #E0C8A7",
"N. c #E3CCAC",
"B. c #E2CFB6",
"V. c #E5D2B4",
"C. c #E8D5B7",
"Z. c #E5D5BB",
"A. c #E8D8BC",
/* pixels */
"                                                                                                                                                                                                                                                                                                                                                                                                                                                                                                                                ",
"                                                                                                                                                                                                                                                                                                                                                                                                                                                                                                                                ",
"                                                                                                                                                                                                                                                                                                                                                                                                                                                                                                                                ",
"                                                                                                                                                                                                                                                                                                                                                                                                                                                                                                                                ",
"                                                                                                                                                                                                                                                                                                                                                                                                                                                                                                                                ",
"                                                                                                                                                                                                                                                                                                                                                                                                                                                                                                                                ",
"                                                                                                                                                                                                                                                                                                                                                                                                                                                                                                                                ",
"                                                                                                                                                                                                                                                                                                                                                                                                                                                                                                                                ",
"                                                                                                                                                                                                                                                                                                                                                                                                                                                                                                                                ",
"                                                                                                                                                                                                                                                                                                                                                                                                                                                                                                                                ",
"                                                                                                                                                                                                                                                                                                                                                                                                                                                                                                                                ",
"                                                                                                                                                                                                                                                                                                                                                                                                                                                                                                                                ",
"                                                                                                                                                                                                                                                                                                                                                                                                                                                                                                                                ",
"                                                                                                                                                                                                                                                                                                                                                                                                                                                                                                                                ",
"                                                                                                                                                                                                                                                                                                                                                                                                                                                                                                                                ",
"                                                                                                                                                                                                                                                                                                                                                                                                                                                                                                                                ",
"                                                                                                                                                                                                                                                                                                                                                                                                                                                                                                                                ",
"                                                                                                                                                                                                                                                                                                                                                                                                                                                                                                                                ",
"                                                                                                                                                                                                                                                                                                                                                                                                                                                                                                                                ",
"                                                                                                                                                                                                                                                                                                                                                                                                                                                                                                                                ",
"                                                                                                                                                                                                                                                                                                                                                                                                                                                                                                                                ",
"                                                                                                                                                                                                                                                                                                                                                                                                                                                                                                                                ",
"                                                                                                                                                                                                                                                                                                                                                                                                                                                                                                                                ",
"                                                                                                                                                                                                                                                                                                                                                                                                                                                                                                                                ",
"                                                                                                                                                                                                                                                                                                                                                                                                                                                                                                                                ",
"                                                                                                                                                                                                                                                                                                                                                                                                                                                                                                                                ",
"                                                                                                                                                                                                                                                                                                                                                                                                                                                                                                                                ",
"                                                                                                                                                                                                                                                                                                                                                                                                                                                                                                                                ",
"                                                                                                                                                                                                                                                                                                                                                                                                                                                                                                                                ",
"                                                                                                                                                                                                                                                                                                                                                                                                                                                                                                                                ",
"                                                                                                                                                                                                                    Z.A.Z.V.m.n.                                                                                                                                                                                                                                                                                                ",
"                                                                                                                                                                                                                  h.v.M.N.B.V.V.C.C.A.Z.V.m.n.b.                                                                                                                                                                                                                                                                                ",
"                                                                                                                                                                                                                  h.l.l.l.l.l.l.x.x.M.M.N.N.N.N.V.V.V.N.V.N.M.l.                                                                                                                                                                                                                                                                ",
"                                                                                                                                                                                                                  s.l.l.l.l.l.l.l.l.l.l.l.l.M.l.l.l.M.l.M.N.M.M.x.x.x.k.j.p.p.u.                                                                                                                                                                                                                                                ",
"                                                                                                                                                                                                                  V.l.l.l.l.l.l.l.l.l.s.l.l.l.l.l.l.l.l.l.l.l.s.s.s.a.e.y.y.y.i.i.                                                                                                                                                                                                                                              ",
"                                                                                                                                                                                                                  v.l.s.l.l.s.s.l.s.l.s.s.l.s.s.l.l.s.l.l.l.l.s.s.a.e.w.8.8.8.8.0.                                                                                                                                                                                                                                              ",
"                                                                                                                                                                                                                  v.l.l.s.s.e.s.s.s.s.s.s.s.s.s.s.s.s.s.s.s.s.s.s.y.e.e.e.e.q.q.4.                                                                                                                                                                                                                                              ",
"                                                                                                                                                                                                                  M.l.l.s.s.u.e.e.e.e.e.i.i.i.s.s.s.s.s.s.s.s.s.i.e.y.i.a.a.i.a.w.                                                                                                                                                                                                                                              ",
"                                                                                                                                                                                                                u.e.:.u.s.w.u.w.e.e.w.e.e.e.e.s.e.s.e.s.s.s.s.e.e.y.i.i.e.i.y.e.0.                                                                                                                                                                                                                                              ",
"                                                                                                                                                                                                                u.l.l.e.w.w.9.w.w.9.e.e.e.e.e.e.e.e.s.e.e.e.s.s.y.y.y.e.e.e.e.q.4.                                                                                                                                                                                                                                              ",
"                                                                                                                                                                                                                u.s.e.e.w.9.9.9.9.e.e.9.e.e.e.e.q.q.e.e.e.e.e.e.e.q.q.0.q.w.w.w.3.                                                                                                                                                                                                                                              ",
"                                                                                                                                                                                                                u.e.w.9.9.;.:.9.9.9.9.9.9.9.e.e.q.q.q.q.q.q.q.9.q.8.0.q.q.q.w.w.                                                                                                                                                                                                                                                ",
"                                                                                                                                                                                                                u.e.u.9.9.9.:.9.:.:.w.w.e.:.9.e.e.9.e.q.e.q.e.q.q.q.q.w.q.w.e.w.                                                                                                                                                                                                                                                ",
"                                                                                                                                                                                                                u.w.9.9.:.:.4.4.9.:.:.w.:.e.9.9.9.e.9.q.e.e.e.e.y.e.w.q.e.q.e.t.                                                                                                                                                                                                                                                ",
"                                                                                                                                                                                                                u.9.:.:.9.;.;.;.:.:.9.:.9.9.e.9.9.e.9.q.e.e.e.e.e.i.e.q.w.e.e.w.                                                                                                                                                                                                                                                ",
"                                                                                                                                                                                                                9.:.-.;.-.:.:.;.;.;.:.:.:.9.:.9.9.9.9.q.w.:.w.e.e.e.y.e.q.q.e.e.                                                                                                                                                                                                                                                ",
"                                                                                                                                                                                                              5.:.;.;.=.&.&.=.=.&.-.=.;.;.:.:.9.w.w.9.w.:.e.w.:.q.e.e.q.9.9.w.w.                                                                                                                                                                                                                                                ",
"                                                                                                                                                                                                              -.&...&.&.....&.&.&.&.&.=.&.;.:.:.:.:.9.9.e.9.w.w.q.w.w.q.w.w.e.r.                                                                                                                                                                                                                                                ",
"                                                                                                                                                                                                              %. .....#.#.....#.#.#.&.&.&.;.;.;.;.:.:.:.w.:.w.w.q.9.q.q.q.q.e.9.                                                                                                                                                                                                                                                ",
"                                                                                                                                                                                                              %.O.....#...| ....#.#.#.#.#.#.&.=.=.;.=.:.:.w.w.:.9.9.9.q.q.q.w.                                                                                                                                                                                                                                                  ",
"                                                                                                                                                                                                              %...| ..| | | ..#...#.&.} ....#.&.&.;.=.;.:.:.:.:.9.:.9.q.q.q.q.                                                                                                                                                                                                                                                  ",
"                                                                                                                                                                                                              +.| | | { { | ..#.&.&.O.&...| | ..&.&.=.;.;.:.:.:.:.9.9.9.9.q.9.                                                                                                                                                                                                                                                  ",
"                                                                                                                                                                                                               .{ { | { { | | ..&.&.......| | ....&.&.=.=.=.:.:.:.:.:.9.9.9.:.                                                                                                                                                                                                                                                  ",
"                                                                                                                                                                                                              ` { { | { | { | ....| | ....O.#.......#.=.&.=.:.=.;.:.;.:.4.:.;.                                                                                                                                                                                                                                                  ",
"                                                                                                                                                                                                            [ ` { ` { { { ` { | ..| | ............#.#.#.&.&.:.:.=.=.=.=.;.;.;.                                                                                                                                                                                                                                                  ",
"                                                                                                                                                                                                            ] ` ` R J ` { ` { | ....|  .......| #...&.&.&.&.#.&.=.&.=.=.;.;.-.                                                                                                                                                                                                                                                  ",
"                                                                                                                                                                                                            ! P J J J R { { { | ....| | | | | ....#.#.#.&.&.&...&.&.=.;.;.;.*.                                                                                                                                                                                                                                                  ",
"                                                                                                                                                                                                            ! L J J J J J R { { | | | | { | { | | ....#.#.&.&.#.#.#.=.=.;.=.                                                                                                                                                                                                                                                    ",
"                                                                                                                                                                                                            ^ Y J J J J J J J R Q { { { { | | | | | #.#.&.&.#.#.#.#.#.=.=.=.                                                                                                                                                                                                                                                    ",
"                                                                                                                                                                                                            F H J J J J J J J J Q { { { { { { | ..| ..#.#.&.&.&.....#.#.&.&.                                                                                                                                                                                                                                                    ",
"                                                                                                                                                                                                            m N S S G P J J J J E { { { { { { | | ....#...#.#.......| | ....                                                                                                                                                                                                                                                    ",
"                                                                                                                                                                                                            9 9 t y p x x S J J Y Q { { { { | | | ......#.#...{ | ..| | ..}                                                                                                                                                                                                                                                     ",
"                                                                                                                                                                                                                            q y l z x G R R Q { | ....#.O.&...{ | | { { { `                                                                                                                                                                                                                                                     ",
"                                                                                                                                                                                                                                  $ @ = : 4 7 f h x S R Q } / Q { { { { { `                                                                                                                                                                                                                                                     ",
"                                                                                                                                                                                                                                  O X X X # # # # $ <     l l z B D L P T                                                                                                                                                                                                                                                       ",
"                                                                                                                                                                                                                                  - $ $ # # # # O X -                                                                                                                                                                                                                                                                           ",
"                                                                                                                                                                                                                                  1 < 2 ; ; ; ; - ; w                                                                                                                                                                                                                                                                           ",
"                                                                                                                                                                                                                                  w 8 q r 0 q 9 8 u F                                                                                                                                                                                                                                                                           ",
"                                                                                                                                                                                                                                  a u j k j v j p C ]                                                                                                                                                                                                                                                                           ",
"                                                                                                                                                                                                                                  d n V B B C B B I [                                                                                                                                                                                                                                                                           ",
"                                                                                                                                                                                                                                  b V L L F D K L ~ @.                                                                                                                                                                                                                                                                          ",
"                                                                                                                                                                                                                                  m L T P L P T E ) >.                                                                                                                                                                                                                                                                          ",
"                                                                                                                                                                                                                                  C T T Y P P T / } ,.                                                                                                                                                                                                                                                                          ",
"                                                                                                                                                                                                                                  C ~ E E T U P ^ O.1.                                                                                                                                                                                                                                                                          ",
"                                                                                                                                                                                                                                  b Y T T ^ ~ T W o.<.                                                                                                                                                                                                                                                                          ",
"                                                                                                                                                                                                                                  d D T ~ _ / / W ^ %.                                                                                                                                                                                                                                                                          ",
"                                                                                                                                                                                                              7.7.7.5.2.2.2.2.2.,.[ ' o.@.*.*.*.O.O.,.,.                                                                                                                                                                                                                                                                        ",
"                                                                                                                                                                                                            +.#.&.-.;.;.8.8.8.8.1.9.9.0.0.w.q.e.w.w.q.q.w.w.0.0.0.1.1.<.,.,.                                                                                                                                                                                                                                                    ",
"                                                                                                                                                                                                            ( } } } | | | &.=.=.;.=.;.;.:.:.:.:.9.8.8.8.8.8.9.0.1.1.<.;.<.<.                                                                                                                                                                                                                                                    ",
"                                                                                                                                                                                                            ( | } | | O.| #.=.r.0.0.8.8.;.:.:.=.8.9.8.8.1.8.8.8.1.<.<.=.1.<.                                                                                                                                                                                                                                                    ",
"                                                                                                                                                                                                            ( $...| O.#.#.=.8.j.z.l.p.7.:.-.:.:.;.;.-.;.:.:.0.5.1.<.=.<.<.<.                                                                                                                                                                                                                                                    ",
"                                                                                                                                                                                                            ) $.#.O.O.&.=.8.d.j.f.x.v.z.l.l.u.6.:.;.-.-.-.;.;.:.1.1.=.<.*.<.                                                                                                                                                                                                                                                    ",
"                                                                                                                                                                                                            X.*.&.=.#.&.=.8.y.y.d.p.s.l.l.l.l.7.:.;.;.-.;.:.;.:.8.8.1.<.=.<.                                                                                                                                                                                                                                                    ",
"                                                                                                                                                                                                            X.&.&.=.=.#.=.e.y.y.i.y.e.e.i.u.l.4.-.-.:.:.5.:.5.:.8.8.8.<.1.1.                                                                                                                                                                                                                                                    ",
"                                                                                                                                                                                                            } #.....#.#.:.f.d.a.i.i.i.e.:.l.:.-.*.$.*.;.:.;.:.:.<.8.<.<.#.*.                                                                                                                                                                                                                                                    ",
"                                                                                                                                                                                                            ) | ......#.y.g.k.f.a.p.i.p.l.u.-.&.$.$.$.$.-.:.:.:.8.<.8.<.&.O.                                                                                                                                                                                                                                                    ",
"                                                                                                                                                                                                            X.O.| | _ =.a.d.d.a.a.p.p.i.6.:.;.$.&.&.$...$.-.;.;.8.8.<.,.,.@.                                                                                                                                                                                                                                                    ",
"                                                                                                                                                                                                            o.#.| _ | q.a.a.i.i.i.i.e.e.l.6.;.&.&.&.#...$.;.;.:.3.<.8.8.8.>.                                                                                                                                                                                                                                                    ",
"                                                                                                                                                                                                            ) } { Q $.a.p.f.s.i.i.i.y.e.e.<.=.&.&.&.....&.:.;.:.1.1.8.8.8.1.                                                                                                                                                                                                                                                    ",
"                                                                                                                                                                                                            ) | { ` w.a.i.a.f.s.s.a.i.a.0.-.&.&...&...&.&.=.=.;.;.1.1.1.1.<.                                                                                                                                                                                                                                                    ",
"                                                                                                                                                                                                            ) } ` &.a.s.s.i.a.s.a.a.a.y.9.;.=.=.......&.=.=.;.=.;.=.;.1.1.1.                                                                                                                                                                                                                                                    ",
"                                                                                                                                                                                                            ^ / { ;.y.a.i.i.e.i.i.i.e.w.4.;.=.&.&.&...&.&.=.-.&.;.1.1.<.1.1.                                                                                                                                                                                                                                                    ",
"                                                                                                                                                                                                            / / O.e.e.e.e.e.i.e.y.e.e.:.=.=.=.&.&.&...&.&.&.&.&.;.1.;.;.1.1.                                                                                                                                                                                                                                                    ",
"                                                                                                                                                                                                            ^ / 0.g.s.i.e.e.e.e.e.e.0.;.=.;.=.=.&.&.&.&.&.$.&.&.=.;.1.=.=.<.                                                                                                                                                                                                                                                    ",
"                                                                                                                                                                                                            ^ O.a.g.g.a.i.e.0.9.9.4.;.;.=.=.&.=.&.$.&.-.&.&.&.$.&.=.=.=.;.-.                                                                                                                                                                                                                                                    ",
"                                                                                                                                                                                                            / 1.y.a.i.y.y.y.e.e.0.:.=.;.=.=.&.&.$.&.-.&.&.&.&.&.&.&.*.*.=.;.                                                                                                                                                                                                                                                    ",
"                                                                                                                                                                                                            o.e.y.e.y.e.e.e.e.w.9.;.;.-.=.=.&.&...&.=.&.&.&.&.&.O.&.*.=.*.,.                                                                                                                                                                                                                                                    ",
"                                                                                                                                                                                                            3.i.i.i.a.d.i.e.w.9.:.=.;.-.=.&.&.#...=.&.=.*.&.-.&.&.*.&.*.=.*.                                                                                                                                                                                                                                                    ",
"                                                                                                                                                                                                            y.a.i.i.i.i.s.e.w.1.-.-.&.=.&.&.&...#.=.=.=.&.*.=.&.*.*.*.=.=.=.                                                                                                                                                                                                                                                    ",
"                                                                                                                                                                                                          t.a.y.e.e.9.9.e.w.9.=.=.=.=.&.&.&.#...&.=.&.&.=.=.=.;.*.=.=.=.=.<.                                                                                                                                                                                                                                                    ",
"                                                                                                                                                                                                          t.y.y.e.e.e.e.9.=.*.&.=.=.=.=.&.#...#.&.&.&.&.&.=.&.&.*.*.*.*.*.*.                                                                                                                                                                                                                                                    ",
"                                                                                                                                                                                                        t.a.a.y.i.i.i.y.e.9.;.*.&.=.=.=.&.#.#...&.&.&.&.&.#.&.#.#.&.&.*.*.*.                                                                                                                                                                                                                                                    ",
"                                                                                                                                                                                                        i.i.i.y.i.y.y.e.e.e.;.&.&.=.&.&.&.#.#.#.&.&.&.#.&.&.#.$.#.#.&.&.*.%.                                                                                                                                                                                                                                                    ",
"                                                                                                                                                                                                        a.y.y.i.i.y.e.w.w.9.=.&.&.&.&.&.#...#.$.&.&.&.&.#.&.#.$.#.#.&.#.&.-.                                                                                                                                                                                                                                                    ",
"                                                                                                                                                                                                      y.a.i.i.i.i.e.i.i.e.:.=.&.#.#.#.#.#...#.&.&.&.$.&.O.=.&.O.O.O.#.#.&.%.                                                                                                                                                                                                                                                    ",
"                                                                                                                                                                                                      i.e.i.i.y.i.e.e.e.e.:.&.&.#.#.#.#.....$...&.*.&.&.&.*.&.O.O.#.#.@.&.%.                                                                                                                                                                                                                                                    ",
"                                                                                                                                                                                                    u.i.i.y.y.i.i.e.q.9.:.=.#.#.#.#.#...| ..$.$.&.&.=.&.&.=.=...O.#.#.#.&.&.                                                                                                                                                                                                                                                    ",
"                                                                                                                                                                                                    y.y.i.i.i.y.q.q.:.:.#.....#.| ..#.| ....O.&...$.&.&.&.O.#.O.O.O.#.O.&.&.                                                                                                                                                                                                                                                    ",
"                                                                                                                                                                                                  t.e.y.i.y.e.e.e.:.:.&...{ { | { { { |  . ...$.&.#.#.$.&.&...O.o.O.O.O.O.#.                                                                                                                                                                                                                                                    ",
"                                                                                                                                                                                                  e.e.w.4.w.9.e.w.:.=...| { { { { { { | .. .O.O.$.$.#.&.&.&.&.....O.O.@.O.O.                                                                                                                                                                                                                                                    ",
"                                                                                                                                                                                                4.0.0.4.4.9.4.:.;.:.#.{ { ` { { { Q ` |  .O. .$.$.$.#.$.$.O.O.O.| | O.&.#.@.                                                                                                                                                                                                                                                    ",
"                                                                                                                                                                                                4.4.:.4.4.4.;.&.O.=.{ { { ` ` ` ` ` }  . . .O.$.........O...O.O.O...O.#.$.*.                                                                                                                                                                                                                                                    ",
"                                                                                                                                                                                              ,.;.;.4.9.9.-.*.} _ } _ _ _ / _ Q R {  . . . .o. . .} | ....O.O.$.#.O...O.&.*.                                                                                                                                                                                                                                                    ",
"                                                                                                                                                                                              *.$.$.$.-.;.*...` / W / _ _ / Q R E | { { {  . .} } } } |  .....O.$.#.O.O.#.&.                                                                                                                                                                                                                                                    ",
"                                                                                                                                                                                              @. .} W T ` { / ^ / / Q Q W Q R E _ { }  .}  .} } { } { |  .| ....O.#.#.O.| #.                                                                                                                                                                                                                                                    ",
"                                                                                                                                                                                            o. .' / W W W T R E / _ Q W R E E E { { {  .} { } ` { } } } } } ....o.O.O.O.o.O.                                                                                                                                                                                                                                                    ",
"                                                                                                                                                                                            _ / T L L E Q E ) ' / / W R R P P E ^ ` ` ` ' ` } ` { _ { { { {  .} { | | ..o...                                                                                                                                                                                                                                                    ",
"                                                                                                                                                                                          U ^ ) T D D F Y Y ) ^ W ^ Q W P J Y E E W / ` ` ` ` ` _ / ^ / ) { _ { / / _ } }  .                                                                                                                                                                                                                                                    ",
"                                                                                                                                                                                          2.0.r.t.6.3.3.3.*.%.o.^ P U U R L R W W E W / / ` ` ` / / Q Q ^ { { { _ / / _ } | o.                                                                                                                                                                                                                                                  ",
"                                                                                                                                                                                          ,.;.<.<.O.}  . .} o.,.,.{ L G H J U E E W E W W / / ` / ^ W ^ ^ / / _ / ) / _ } o. .                                                                                                                                                                                                                                                  ",
"                                                                                                                                                                                            { / / { / W { =.*.O. .O. .^ U U U R E W W W W W W ` W W E W Q ^ / / / / _ / }  .o.                                                                                                                                                                                                                                                  ",
"                                                                                                                                                                                            ^ ^ ^ _ } / ` *.;.*.o.o.o. ./ E U U T E ^ ^ ` W ^ W ^ W E W W ^ / / / / / / { } o.                                                                                                                                                                                                                                                  ",
"                                                                                                                                                                                            U ^ ^ W _  .} } #.;.=.O.o...} E P P P P T W W ` W ` / W W W Q W / / / / / / { {  .                                                                                                                                                                                                                                                  ",
"                                                                                                                                                                                              E E E Q } } Q Q *.1.*.O.O.o.E L L P P Y T E W W W ` / ` W Q ^ Q / ^ ^ Q W / '  .                                                                                                                                                                                                                                                  ",
"                                                                                                                                                                                              L L L T E R E W } 1.*.@.#.O.^ L K H L P T T T E W W ^ / / W E E E E W W W ) / {                                                                                                                                                                                                                                                   ",
"                                                                                                                                                                                              C V Z J L P P R ` =.*.&.O.#.{ P K H D H J Y Y T T E W ^ W W E E T Y E E W ^ / '                                                                                                                                                                                                                                                   ",
"                                                                                                                                                                                                n j j B G H H J O.*.&.#.#.{ L K L F D G G P T T T E W W W E E E E E U E ^ / /                                                                                                                                                                                                                                                   ",
"                                                                                                                                                                                                j p i k S G H G { *.#.#.&...P L P P H F D H H P Y Y E E T T E P Y T E E R ^ ^                                                                                                                                                                                                                                                   ",
"                                                                                                                                                                                                d d p l x V D S W -.&.&.&.O.I D K K L L L J K G L P T E E E R R P P U P U E E                                                                                                                                                                                                                                                   ",
"                                                                                                                                                                                                  B D B B V S S P &.-.;.;.&.Y S G G K K L L P L L P P T E U U U P P P P R U R                                                                                                                                                                                                                                                   ",
"                                                                                                                                                                                                  D D F D S S S G O.;.4.;.*.T B B G G B K L K J P P P P U R P U P P T U P P Y                                                                                                                                                                                                                                                   ",
"                                                                                                                                                                                                  d p l S P D S G | :.4.;.=.` D C B B N G K G G L L P P U R U P P P P U P P U U                                                                                                                                                                                                                                                 ",
"                                                                                                                                                                                                  u u u l D D D G ` :.:.4.:. .B N N N N N N G G K K L L P P U P L L L P P K L !                                                                                                                                                                                                                                                 ",
"                                                                                                                                                                                                    w u p B S D G P =.:.4.w.$.S n N N N N h N G G G K L L L P U L L L L K P L U                                                                                                                                                                                                                                                 ",
"                                                                                                                                                                                                    t 9 i l D S D H ..:.4.4.-.S z z N N N N h N N G G G K K K L U L K K P L U L                                                                                                                                                                                                                                                 ",
"                                                                                                                                                                                                      u t l D D H D ` ;.4.4.-.F N z b N b N N b N N B B B G K K L L K K G Z G K                                                                                                                                                                                                                                                 ",
"                                                                                                                                                                                                      0 u i N D J G W ;.:.4.4.U z h v h n N N n n N N N G N G G K G G G Z C Z A                                                                                                                                                                                                                                                 ",
"                                                                                                                                                                                                      e 0 u i n P T E *.:.4.6.T N n k k h k k N C B N b h h N N n k j s s r r s                                                                                                                                                                                                                                                 ",
"                                                                                                                                                                                                        0 0 6 d H E R %.4.4.9.` h k f r g N N K ) ) ( K b C C C s                                                                                                                                                                                                                                                               ",
"                                                                                                                                                                                                        3 6 0 t B T T } 4.4.9.' - = : : f k g L ) @.) ) _ _ _ ) I                                                                                                                                                                                                                                                               ",
"                                                                                                                                                                                                        3 9 0 t l P H W <.1.0.X.@ % : 4 q y f L ) @.O.O.o.o...X.!                                                                                                                                                                                                                                                               ",
"                                                                                                                                                                                                          9 0 0 j D S P *.1.0.,.5 @ 4 q q y y K o.o.O.) o.O.O.O.(                                                                                                                                                                                                                                                               ",
"                                                                                                                                                                                                          9 0 0 g D V G #.1.8.3.9 @ : 7 y i g K $.@.$.o.@.#.$.*.X.(                                                                                                                                                                                                                                                             ",
"                                                                                                                                                                                                            9 0 p S V G } 8.0.8.r X = 5 f k N G o.$.$.$.&.%.-.*.@.+.                                                                                                                                                                                                                                                            ",
"                                                                                                                                                                                                            8 6 i D x S ` ;.4.0.M X O , y p x H O.%.*.*.=.=.<.1.>.>.                                                                                                                                                                                                                                                            ",
"                                                                                                                                                                                                            8 8 u D V V T =.4.w.! = O , q t k G O.%.%.-.1.<.<.1.*.,.<.                                                                                                                                                                                                                                                          ",
"                                                                                                                                                                                                              e u D D S J *.4.w.] > O > 7 t f S O.%.*.;.1.1.1.<.,.,.1.                                                                                                                                                                                                                                                          ",
"                                                                                                                                                                                                              0 9 l H D J $.4.4.+.8 - > t t g x o.%.-.4.9.<.;.;.-.<.0.                                                                                                                                                                                                                                                          ",
"                                                                                                                                                                                                                3 u D D S ` ;.4.@.u 1 1 q f z V } $.$.<.0.4.-.-.-.<.0.2.                                                                                                                                                                                                                                                        ",
"                                                                                                                                                                                                                3 8 z S S W *.-.%.b 3 8 q y i B } *.$.*.4.4.;.-.*.1.0.0.                                                                                                                                                                                                                                                        ",
"                                                                                                                                                                                                                3 , 0 k j S  .%.*.M 8 0 0 q y N ' *.*.*.-.;.-.<.-.<.8.w.                                                                                                                                                                                                                                                        ",
"                                                                                                                                                                                                                  > , 7 6 p ` %.,.F a u 0 q i V } *.-.=.1.-.-.-.,.1.0.r.                                                                                                                                                                                                                                                        ",
"                                                                                                                                                                                                                  > , 7 0 y W &.*.! v e e q u x ^ &.&.&.-.;.,.*.=.1.0.t.6.                                                                                                                                                                                                                                                      ",
"                                                                                                                                                                                                                  > , 0 f g L $.,.( b r 9 7 q h E #.&.&.*.-.-.*.,.1.0.t.r.                                                                                                                                                                                                                                                      ",
"                                                                                                                                                                                                                    ; 3 y h D  .,.] b 5 5 9 q h E #.*.*.*.*.*.&.-.<.0.0.t.                                                                                                                                                                                                                                                      ",
"                                                                                                                                                                                                                    - ; 8 i N  .>.+.v 5 0 q r k R #.&.&.*.=.-.&.-.<.4.w.t.6.                                                                                                                                                                                                                                                    ",
"                                                                                                                                                                                                                      * , 0 f W @.+.b 9 r r q h R #.#.&.&.*.*.*.*.1.4.0.t.7.                                                                                                                                                                                                                                                    ",
"                                                                                                                                                                                                                      = % ; 7 S X.) M r r q q g J ..#.&.&.*.-.-.-.-.<.6.w.0.                                                                                                                                                                                                                                                    ",
"                                                                                                                                                                                                                      = $ = = 6 B M v r q r q h H ..#.&.*.=.-.-.-.-.<.4.0.w.5.                                                                                                                                                                                                                                                  ",
"                                                                                                                                                                                                                        O O O & 1 a d i r q q g H O.#.#.*.<.=.-.*.,.3.4.6.w.4.                                                                                                                                                                                                                                                  ",
"                                                                                                                                                                                                                                  b d a r i u h G | ..#.*.1.4.<.,.<.1.4.6.w.6.                                                                                                                                                                                                                                                  ",
"                                                                                                                                                                                                                                  b d u r i r f G | #.#.*.1.1.1.-.<.;.4.6.6.0.                                                                                                                                                                                                                                                  ",
"                                                                                                                                                                                                                                  v v i r i u g V | #.O.&.,.<.1.<.-.-.1.6.w.0.5.                                                                                                                                                                                                                                                ",
"                                                                                                                                                                                                                                  n v d p i q g V | ..#.#.-.1.1.3.%.$.;.4.0.4.6.                                                                                                                                                                                                                                                ",
"                                                                                                                                                                                                                                  n v s q q f g V { #...&.*.-.1.<.*.$.*.4.4.0.4.                                                                                                                                                                                                                                                ",
"                                                                                                                                                                                                                                  m b d r r r g x { #.#.*.*.-.<.<.-.*.*.4.6.6.<.-.                                                                                                                                                                                                                                              ",
"                                                                                                                                                                                                                                  n v v i q i g x _ o.O.%.*.-.1.1.<.*.$.;.6.4.-.-.                                                                                                                                                                                                                                              ",
"                                                                                                                                                                                                                                  m n j i f q f x _ ..O.$.&.-.-.<.;.$.*.*.4.6.;.-.                                                                                                                                                                                                                                              ",
"                                                                                                                                                                                                                                  m n a r i i f x _ ....$.-.-.1.<.;.&.$.*.4.6.1.=.                                                                                                                                                                                                                                              ",
"                                                                                                                                                                                                                                    n d u u u f k E ....O.-.-.<.;.;.&.$.%.4.6.4.-.-.                                                                                                                                                                                                                                            ",
"                                                                                                                                                                                                                                    n v u i u f h Q ..#.O.-.-.-.4.-.$.$.%.-.6.6.1.<.                                                                                                                                                                                                                                            ",
"                                                                                                                                                                                                                                    C b p p f i h E ....$.*.-.<.4.-.O.$.$.*.4.6.4.<.                                                                                                                                                                                                                                            ",
"                                                                                                                                                                                                                                    F b s p i f h P | O.#.$.*.-.<.*.` $.$.%.*.-.1.<.,.                                                                                                                                                                                                                                          ",
"                                                                                                                                                                                                                                    M d i i i f g P O.| O.&.*.;.4.%.` } $.O.$.$.-.1.4.                                                                                                                                                                                                                                          ",
"                                                                                                                                                                                                                                    m v s d p i g J | O.O.@.*.3.;.*./ W ` } $.%.-.1.<.                                                                                                                                                                                                                                          ",
"                                                                                                                                                                                                                                    m v d j g i h J | #.O.O.&.<.4.*.` T ` } o.$.*.3.4.,.                                                                                                                                                                                                                                        ",
"                                                                                                                                                                                                                                    n v j j g f j L ..O.O.$.$.-.;.*.^ Y ' }  .+.%.;.4.;.                                                                                                                                                                                                                                        ",
"                                                                                                                                                                                                                                    m d s j n j h H ..$.O.$.$.%.;.*.W K / ' '  .+.-.4.5.                                                                                                                                                                                                                                        ",
"                                                                                                                                                                                                                                    m c d j j h g S  .$.$.$.$.&.-.<.^ D E } } o.$.%.4.6.                                                                                                                                                                                                                                        ",
"                                                                                                                                                                                                                                    b d d s d k k S } O.$.O.*.$.*.;.^ D T ' { o.$.%.-.6.5.                                                                                                                                                                                                                                      ",
"                                                                                                                                                                                                                                    d d s u d j j S  .$.%.$.&.&.*.-.) n L / ) ' $.%.*.,.5.                                                                                                                                                                                                                                      ",
"                                                                                                                                                                                                                                    c d a u i j l Z  .$.$.&.$.&.&.;./ k F E ) X.$.%.-.-.4.                                                                                                                                                                                                                                      ",
"                                                                                                                                                                                                                                    c d s i i p g m ' &.$.$.O.&.&.*.` g C U ) ' $.%.%.-.3.<.                                                                                                                                                                                                                                    ",
"                                                                                                                                                                                                                                    c s a u u i q k / %.$.$.O.O.$.&.` i z L ) ' @.%.*.-.,.,.                                                                                                                                                                                                                                    ",
"                                                                                                                                                                                                                                    j s a s u u r h E O.@.O.&.$.$.&.{ i i Z ^ ) o.%.*.,.-.,.                                                                                                                                                                                                                                    ",
"                                                                                                                                                                                                                                    j d a u u i i p E O.@.O...$.$.&.{ p q N U / _ O.*.*.-.<.,.                                                                                                                                                                                                                                  ",
"                                                                                                                                                                                                                                    d a u e q u i d U o...o.O.O.#.&. .p i h K / ) X.%.*.,.,.,.                                                                                                                                                                                                                                  ",
"                                                                                                                                                                                                                                      e 8 8 9 0 i j P  . .o.O.$.O.&.} u 0 h F ^ o.O.%.%.*.*.,.                                                                                                                                                                                                                                  ",
"                                                                                                                                                                                                                                      3 1 8 9 r r g K } } X.o.O.#.&. .r 5 q N U  .O.%.&.*.*.,.%.                                                                                                                                                                                                                                ",
"                                                                                                                                                                                                                                      r e e 8 9 r q V { } X...O.O.O. .u : 6 i L ) o.@.&.,.%.*.%.                                                                                                                                                                                                                                ",
"                                                                                                                                                                                                                                      s a e 9 8 9 0 j ^ _ } | ....o.| u - 6 6 B ^ {  .o.@.O.@.@.                                                                                                                                                                                                                                ",
"                                                                                                                                                                                                                                      a r e u 0 q 0 h ^ / ) } ........i % : 4 h K R E ^ ' {  .o.                                                                                                                                                                                                                                ",
"                                                                                                                                                                                                                                      s r e 8 8 8 q g P Q E / _ _ O._ r = = : y Z P R P E ) _ _ '                                                                                                                                                                                                                               ",
"                                                                                                                                                                                                                                      a e w 8 2 5 9 r P Q Q ^ ^ _ O._ s = = = 7 N L R ~ ^ ) ) _ )                                                                                                                                                                                                                               ",
"                                                                                                                                                                                                                                      e 8 8 5 5 2 8 f G P U E / _ _ _ v : : : 5 n G Q _ ^ ^ ^ / '                                                                                                                                                                                                                               ",
"                                                                                                                                                                                                                                      e e r r w 2 5 i Z G K P P ~ / Q v : : , 5 h V P R E Q / / )                                                                                                                                                                                                                               ",
"                                                                                                                                                                                                                                      v b n j s r f n P K P I P E ^ / n 5 5 7 q j V L P W ^ / / W                                                                                                                                                                                                                               ",
"                                                                                                                                                                                                                                      M A C m B Z Z K / / E / / R E Q n 6 6 7 q z G R E / _ / / E                                                                                                                                                                                                                               ",
"                                                                                                                                                                                                                                      A F M C C Z K ) X._ ) X.) / / Q N 9 q q y N J E ^ _ } } } ~                                                                                                                                                                                                                               ",
"                                                                                                                                                                                                                                      F C B D K K I ~ ) ) _ _ ) ) ) _ C q q y y N G Q Q / { / _                                                                                                                                                                                                                                 ",
"                                                                                                                                                                                                                                    F F D m D D F L T ` T ` ` ] O.o._ v r q q g x G R R Q _ / ^                                                                                                                                                                                                                                 ",
"                                                                                                                                                                                                                                    F F D C F K D F E W T ` ` ' ) o.U r r r q g V G P R / _ / /                                                                                                                                                                                                                                 ",
"                                                                                                                                                                                                                                    U F D F D K F R E ! E ` ` ' _ _ A r q q q f B G J R / _ E W                                                                                                                                                                                                                                 ",
"                                                                                                                                                                                                                                    T F F D D D L ` T T ` ` ' ' ) ^ j e q q q f V G J R E E Q /                                                                                                                                                                                                                                 ",
"                                                                                                                                                                                                                                  I ! P F D D P ` ` ` E ` ' ' ' } Z r r q q y f V G J R E W ^ ^                                                                                                                                                                                                                                 ",
"                                                                                                                                                                                                                                  F U I F D D D E ` ` ` ! ` ` ` ) n r r q g f g x J R R E Q Q E                                                                                                                                                                                                                                 ",
"                                                                                                                                                                                                                                  T U P P D F F ` ` T ` ` E ! ` ! v s i i f f h x J R R E _ W T                                                                                                                                                                                                                                 ",
"                                                                                                                                                                                                                                  ` U Y F P F F ` T ` T E ^ ` ` I j g i r f f h G R R R E Q Q T                                                                                                                                                                                                                                 ",
"                                                                                                                                                                                                                                  ! U L P L L T E T E E E E ^ `   d i r q q y z G J R R Q _ Q                                                                                                                                                                                                                                   ",
"                                                                                                                                                                                                                                I T L K L K K T T Y T T E T W ~   j u e 0 q t z G R R R Q _ W                                                                                                                                                                                                                                   ",
"                                                                                                                                                                                                                                U U L P L K P E T Y T T Y T E     b g i u i g x G R R R Q ` W                                                                                                                                                                                                                                   ",
"                                                                                                                                                                                                                                U T U U P Y T T Y E R T Y T T     j d a p g f x G J R R ^  .^                                                                                                                                                                                                                                   ",
"                                                                                                                                                                                                                                ! T Y I U Y T T Y R T R T W       g p i i r y x G R R R E W W                                                                                                                                                                                                                                   ",
"                                                                                                                                                                                                                              T T Y T T U T T Y T R R T T W       d d j j u y x G P R R E E E                                                                                                                                                                                                                                   ",
"                                                                                                                                                                                                                              T T T E Y T E T Y Y T T T W U       d d d g p u B G J R E E ^ ^                                                                                                                                                                                                                                   ",
"                                                                                                                                                                                                                              T E ! T T T T Y Y T T T T ~         d j d p j f N G R R W W ^ ^                                                                                                                                                                                                                                   ",
"                                                                                                                                                                                                                              ~ ^ E T E W T U Y Y T Y E T         d l i p j g N G R R ^ ^ Q                                                                                                                                                                                                                                     ",
"                                                                                                                                                                                                                              ( ~ ! E ! T T T T T Y T E           d d a i g d B G R R ^ / ^                                                                                                                                                                                                                                     ",
"                                                                                                                                                                                                                            ! ~ ! T T ! T P P T T U E T           l l i u p d V G R R W ^ /                                                                                                                                                                                                                                     ",
"                                                                                                                                                                                                                            ~ ~ E T T U T P Y T P U W P           l l a u p i S J R R E W ^                                                                                                                                                                                                                                     ",
"                                                                                                                                                                                                                            ^ ^ ~ T U T T U Y P T T W             j l i u i i C G Y R ^ ^ ^                                                                                                                                                                                                                                     ",
"                                                                                                                                                                                                                            ^ T T ! T T U P Y U U E E             l l a u i i S G Y E / / ^                                                                                                                                                                                                                                     ",
"                                                                                                                                                                                                                          T ~ ! T T T Y P P T P T T L             b j u i t i V H P E ) ) ~                                                                                                                                                                                                                                     ",
"                                                                                                                                                                                                                          T ! T ! Y U U P P P P T T               l j a i y i V H P T ` / ^                                                                                                                                                                                                                                     ",
"                                                                                                                                                                                                                          T T ! P I Y Y L Y P Y E U               l j a a y p S H P E ^ ^                                                                                                                                                                                                                                       ",
"                                                                                                                                                                                                                          ~ ! U I I U Y Y P L P T                 l d u i y i C H P W ` ^                                                                                                                                                                                                                                       ",
"                                                                                                                                                                                                                          T U U I P L L L Y P P P                 l j i t t p S H T ~ ` `                                                                                                                                                                                                                                       ",
"                                                                                                                                                                                                                        T U K L I P P P K P L L L                 l d 0 9 6 i S L P W ^ ^                                                                                                                                                                                                                                       ",
"                                                                                                                                                                                                                        I I K F F L P H L L H K                   d a t 6 9 g S P Y W ` ^                                                                                                                                                                                                                                       ",
"                                                                                                                                                                                                                        L L L K D P P L P L H G                   l a 9 0 0 g S K U W ^ W                                                                                                                                                                                                                                       ",
"                                                                                                                                                                                                                        K L K F P P H L L G L                       s t 7 t j S P Y ~ / T                                                                                                                                                                                                                                       ",
"                                                                                                                                                                                                                      I P L Z K P L L H H G G                       i t 7 9 j B K Y ^ / ~                                                                                                                                                                                                                                       ",
"                                                                                                                                                                                                                      L P L G D F H J G G G S                       t 6 6 7 h B H Y E T                                                                                                                                                                                                                                         ",
"                                                                                                                                                                                                                      K K D G K D H H G G G                         0 8 7 0 h B D F H D                                                                                                                                                                                                                                         ",
"                                                                                                                                                                                                                      K K D Z G D G G H G S                         8 3 7 q l B S S D H                                                                                                                                                                                                                                         ",
"                                                                                                                                                                                                                      K G S Z G G S G G G                           6 8 6 7 j N S S F P                                                                                                                                                                                                                                         ",
"                                                                                                                                                                                                                    G K G G G G G V G G G                           9 6 6 9 h x S D F J                                                                                                                                                                                                                                         ",
"                                                                                                                                                                                                                    F G V G J G G G G G S                           9 6 6 9 j x D D D D                                                                                                                                                                                                                                         ",
"                                                                                                                                                                                                                    D Z V G G S S S G S                             9 6 6 7 f x B B S D                                                                                                                                                                                                                                         ",
"                                                                                                                                                                                                                    D V x G G x S S G S                             1 , , 6 i z z x B S                                                                                                                                                                                                                                         ",
"                                                                                                                                                                                                                  D Z C k N B V G G S G                             < ; ; 5 f z B V V                                                                                                                                                                                                                                           ",
"                                                                                                                                                                                                                  C B n j f x x x x x                               6 , : 6 i k B B V                                                                                                                                                                                                                                           ",
"                                                                                                                                                                                                                  C n k y y x x h z N                               8 2 , 5 q h z B C                                                                                                                                                                                                                                           ",
"                                                                                                                                                                                                                  n k k y f f f h z                                 5 , 2 7 r h x B B                                                                                                                                                                                                                                           ",
"                                                                                                                                                                                                                  j g r y h f y f k                                 5 2 , 7 q h k k n                                                                                                                                                                                                                                           ",
"                                                                                                                                                                                                                g j q q y f f f f f                                 5 < : 6 q g f f k                                                                                                                                                                                                                                           ",
"                                                                                                                                                                                                                s a r f f f f h g                                   5 1 ; 5 q i i g j                                                                                                                                                                                                                                           ",
"                                                                                                                                                                                                                s s i g g f y f i                                   1 ; ; 6 0 q r f d                                                                                                                                                                                                                                           ",
"                                                                                                                                                                                                                5 8 8 q i q f f                                     - & & 5 7 0 u i                                                                                                                                                                                                                                             ",
"                                                                                                                                                                                                                O O $ 5 0 0 q q                                     $ O # ; 2 9 9 9                                                                                                                                                                                                                                             ",
"                                                                                                                                                                                                                  . o & ; 4 7 6                                     O O O % % & - &                                                                                                                                                                                                                                             ",
"                                                                                                                                                                                                                        X $ ;                                                                                                                                                                                                                                                                                                   ",
"                                                                                                                                                                                                                                                                                                                                                                                                                                                                                                                                ",
"                                                                                                                                                                                                                                                                                                                                                                                                                                                                                                                                ",
"                                                                                                                                                                                                                                                                                                                                                                                                                                                                                                                                ",
"                                                                                                                                                                                                                                                                                                                                                                                                                                                                                                                                "
};
