/* XPM */
static char *out[] = {
/* columns rows colors chars-per-pixel */
"256 256 157 2 ",
"   c None",
".  c #10100F",
"X  c #1B130F",
"o  c #161110",
"O  c #1D1512",
"+  c #22170F",
"@  c #24180F",
"#  c #211712",
"$  c #241A15",
"%  c #2A1D15",
"&  c #251C18",
"*  c #281E18",
"=  c #2D2017",
"-  c #2D2019",
";  c #33251C",
":  c #38271B",
">  c #37281E",
",  c #3B2A1E",
"<  c #352922",
"1  c #3C2C22",
"2  c #3F3027",
"3  c #3E322A",
"4  c #412E1F",
"5  c #412F23",
"6  c #443225",
"7  c #4A3526",
"8  c #443429",
"9  c #4A372A",
"0  c #4D3A2C",
"q  c #533D2D",
"w  c #463930",
"e  c #4C3B30",
"r  c #523E31",
"t  c #57402F",
"y  c #59412F",
"u  c #564133",
"i  c #5B4433",
"p  c #5F4837",
"a  c #5B4639",
"s  c #5E493B",
"d  c #604733",
"f  c #634A36",
"g  c #684D37",
"h  c #634C3B",
"j  c #694F3B",
"k  c #67503C",
"l  c #6B513D",
"z  c #71553E",
"x  c #5F4A40",
"c  c #644E42",
"v  c #665143",
"b  c #6C5443",
"n  c #6D5847",
"m  c #6C5649",
"M  c #6D584B",
"N  c #715641",
"B  c #755A44",
"V  c #7A5D46",
"C  c #745C4A",
"Z  c #7A5E49",
"A  c #755F50",
"S  c #7C6047",
"D  c #75614F",
"F  c #7D624C",
"G  c #776150",
"H  c #7D6452",
"J  c #806147",
"K  c #82654C",
"L  c #86684E",
"P  c #88694F",
"I  c #826651",
"U  c #866953",
"Y  c #8A6D55",
"T  c #856B5B",
"R  c #8B6F59",
"E  c #8E7057",
"W  c #877158",
"Q  c #8E715A",
"!  c #927156",
"~  c #93755C",
"^  c #98775B",
"/  c #96785E",
"(  c #99795E",
")  c #8C7462",
"_  c #927661",
"`  c #967961",
"'  c #9B7C63",
"]  c #977C6C",
"[  c #9B7E69",
"{  c #A07F63",
"}  c #9E8066",
"|  c #9E8169",
" . c #9C8373",
".. c #A28266",
"X. c #A4856A",
"o. c #A8876B",
"O. c #A6886E",
"+. c #AB8A6E",
"@. c #A28672",
"#. c #A58972",
"$. c #AD8D72",
"%. c #A68C7A",
"&. c #AA8E79",
"*. c #B08F72",
"=. c #AE9075",
"-. c #AD927B",
";. c #B29275",
":. c #B89677",
">. c #B4957A",
",. c #B8977A",
"<. c #B6987E",
"1. c #BA9A7D",
"2. c #C09E7E",
"3. c #AD9481",
"4. c #AB968D",
"5. c #B39681",
"6. c #B69A82",
"7. c #BB9D82",
"8. c #B69D89",
"9. c #B99E89",
"0. c #BEA185",
"q. c #BEA289",
"w. c #BDA591",
"e. c #C09F81",
"r. c #C3A385",
"t. c #C8A787",
"y. c #C4A689",
"u. c #C6A88A",
"i. c #CAAB8D",
"p. c #C5AA91",
"a. c #CCAE91",
"s. c #CEB193",
"d. c #C7B099",
"f. c #CAB29A",
"g. c #D1B495",
"h. c #D4B897",
"j. c #D3B799",
"k. c #D5BA9B",
"l. c #D9BD9D",
"z. c #CEB8A1",
"x. c #D6BDA2",
"c. c #D9BFA2",
"v. c #DBC09F",
"b. c #D6C0A4",
"n. c #DCC3A2",
"m. c #D7C3A8",
"M. c #DAC8AE",
"N. c #DCCCB4",
"B. c #DED1B9",
"V. c #E0C8A7",
"C. c #E2CCAB",
"Z. c #E5D2B3",
"A. c #E8D5B7",
"S. c #E4D4B9",
"D. c #E8D6BB",
"F. c #E7D8BE",
"G. c #E8D8BC",
/* pixels */
"                                                                                                                                                                                                                                                                                                                                                                                                                                                                                                                                ",
"                                                                                                                                                                                                                                                                                                                                                                                                                                                                                                                                ",
"                                                                                                                                                                                                                                                                                                                                                                                                                                                                                                                                ",
"                                                                                                                                                                                                                                                                                                                                                                                                                                                                                                                                ",
"                                                                                                                                                                                                                                                                                                                                                                                                                                                                                                                                ",
"                                                                                                                                                                                                                                                                                                                                                                                                                                                                                                                                ",
"                                                                                                                                                                                                                                                                                                                                                                                                                                                                                                                                ",
"                                                                                                                                                                                                                                                                                                                                                                                                                                                                                                                                ",
"                                                                                                                                                                                                                                                                                                                                                                                                                                                                                                                                ",
"                                                                                                                                                                                                                                                                                                                                                                                                                                                                                                                                ",
"                                                                                                                                                                                                                                                                                                                                                                                                                                                                                                                                ",
"                                                                                                                                                                                                                                                                                                                                                                                                                                                                                                                                ",
"                                                                                                                                                                                                                                                                                                                                                                                                                                                                                                                                ",
"                                                                                                                                                                                                                                                                                                                                                                                                                                                                                                                                ",
"                                                                                                                                                                                                                                                                                                                                                                                                                                                                                                                                ",
"                                                                                                                                                                                                                                                                                                                                                                                                                                                                                                                                ",
"                                                                                                                                                                                                                                                                                                                                                                                                                                                                                                                                ",
"                                                                                                                                                                                                                                                                                                                                                                                                                                                                                                                                ",
"                                                                                                                                                                                                                                                                                                                                                                                                                                                                                                                                ",
"                                                                                                                                                                                                                                                                                                                                                                                                                                                                                                                                ",
"                                                                                                                                                                                                                                                                                                                                                                                                                                                                                                                                ",
"                                                                                                                                                                                                                                                                                                                                                                                                                                                                                                                                ",
"                                                                                                                                                                                                                                                                                                                                                                                                                                                                                                                                ",
"                                                                                                                                                                                                                                                                                                                                                                                                                                                                                                                                ",
"                                                                                                                                                                                                                                                                                                                                                                                                                                                                                                                                ",
"                                                                                                                                                                                                                                                                                                                                                                                                                                                                                                                                ",
"                                                                                                                                                                                                                                                                                                                                                                                                                                                                                                                                ",
"                                                                                                                                                                                                                                                                                                                                                                                                                                                                                                                                ",
"                                                                                                                                                                                                                                                                                                                                                                                                                                                                                                                                ",
"                                                                                                                                                                                                                                                                                                                                                                                                                                                                                                                                ",
"                                                                                                                                                                                                                    F.F.F.F.S.B.N.                                                                                                                                                                                                                                                                                              ",
"                                                                                                                                                                                                                  f.n.V.V.V.C.Z.A.A.A.F.A.B.N.N.N.                                                                                                                                                                                                                                                                              ",
"                                                                                                                                                                                                                  z.v.v.v.v.v.v.v.n.n.v.V.C.V.V.Z.Z.Z.C.Z.Z.M.n.                                                                                                                                                                                                                                                                ",
"                                                                                                                                                                                                                  z.v.v.v.v.v.v.v.v.v.v.v.v.v.v.v.v.v.v.n.V.C.v.n.n.n.x.z.j.f.                                                                                                                                                                                                                                                  ",
"                                                                                                                                                                                                                  C.b.v.v.v.v.v.v.v.v.v.v.v.v.v.v.v.v.v.v.v.v.s.g.g.g.i.s.s.i.a.g.                                                                                                                                                                                                                                              ",
"                                                                                                                                                                                                                  m.h.v.h.v.v.b.v.v.i.v.v.v.s.v.v.v.v.v.v.v.s.v.l.g.a.y.e.e.e.e.y.                                                                                                                                                                                                                                              ",
"                                                                                                                                                                                                                  m.v.v.h.h.s.h.i.v.i.v.v.v.i.v.v.v.v.i.v.i.v.v.h.g.i.i.i.i.i.t.r.                                                                                                                                                                                                                                              ",
"                                                                                                                                                                                                                  v.v.s.h.s.i.i.i.i.i.2.2.v.i.v.i.s.v.i.v.i.i.v.a.i.i.a.g.g.a.g.u.                                                                                                                                                                                                                                              ",
"                                                                                                                                                                                                                  g.a.a.s.i.i.u.i.i.i.i.2.i.i.i.i.v.i.v.v.v.v.i.i.a.a.g.a.a.a.a.y.                                                                                                                                                                                                                                              ",
"                                                                                                                                                                                                                d.v.s.i.u.u.u.u.i.i.2.i.v.i.i.i.i.i.i.t.i.i.i.v.a.a.a.i.t.i.i.t.q.                                                                                                                                                                                                                                              ",
"                                                                                                                                                                                                                d.h.u.u.u.2.q.u.2.i.v.2.2.v.2.2.v.2.i.i.i.i.i.i.i.i.u.u.y.y.u.i.q.                                                                                                                                                                                                                                              ",
"                                                                                                                                                                                                                d.a.u.u.u.1.2.u.q.2.q.2.q.i.2.v.2.i.2.i.2.i.i.2.r.e.t.r.y.u.u.u.                                                                                                                                                                                                                                                ",
"                                                                                                                                                                                                                d.a.i.u.2.q.2.q.i.q.2.i.2.2.2.i.i.i.2.2.v.i.2.i.u.t.u.u.u.i.i.u.                                                                                                                                                                                                                                                ",
"                                                                                                                                                                                                                d.2.u.u.2.2.2.2.2.2.i.2.2.v.2.q.2.i.i.v.2.i.v.2.a.i.t.u.i.i.i.u.                                                                                                                                                                                                                                                ",
"                                                                                                                                                                                                                d.2.2.2.2.2.1.1.2.2.2.2.i.w.2.v.i.q.i.2.i.i.2.v.a.a.i.t.i.i.i.u.                                                                                                                                                                                                                                                ",
"                                                                                                                                                                                                                2.1.2.<.<.1.2.2.<.<.2.2.2.2.2.2.2.i.2.i.2.2.i.2.i.i.a.i.y.i.i.u.                                                                                                                                                                                                                                                ",
"                                                                                                                                                                                                              q.1.:.:.>.;.<.:.:.<.>.1.1.<.2.2.2.i.2.i.2.i.i.2.i.t.i.i.t.t.r.y.y.                                                                                                                                                                                                                                                ",
"                                                                                                                                                                                                              3.=.=.=.=.+.+.=.=.=.=.=.:.>.<.2.2.2.2.2.i.i.2.2.v.r.i.u.u.y.t.i.y.                                                                                                                                                                                                                                                ",
"                                                                                                                                                                                                              -.#.+.*.*.+.o.+.*.*.*.:.:.:.:.:.1.1.2.2.2.i.q.2.2.t.t.t.u.u.u.i.7.                                                                                                                                                                                                                                                ",
"                                                                                                                                                                                                              >.+.+.+.+.o.+.+.*.+.*.+.$.=.=.:.:.,.1.1.2.2.q.i.q.r.e.t.u.t.u.i.                                                                                                                                                                                                                                                  ",
"                                                                                                                                                                                                              =.+.+.o.o.o.o.+.*.*.*.;.o.+.+.+.*.,.,.1.1.2.q.2.2.r.e.t.t.u.y.t.                                                                                                                                                                                                                                                  ",
"                                                                                                                                                                                                              #.o.o.o.o...+.+.*.*.*.*.=.+.o.o.+.*.;.,.,.2.2.2.2.e.e.e.r.t.t.r.                                                                                                                                                                                                                                                  ",
"                                                                                                                                                                                                              X...o.o.....o.+.+.*.;.+.+.+.+.o.+.+.;.;.:.:.:.2.1.2.2.2.r.r.t.7.                                                                                                                                                                                                                                                  ",
"                                                                                                                                                                                                             .} ............o.+.+.o.o.+.+.$.$.+.$.$.;.;.:.:.2.2.1.2.1.1.1.1.1.                                                                                                                                                                                                                                                  ",
"                                                                                                                                                                                                            %.} } ! } ....} ..o.+.o.+.+.+.+.+.+.+.*.*.;.;.;.:.:.;.1.:.1.1.1.<.                                                                                                                                                                                                                                                  ",
"                                                                                                                                                                                                             .} ! } ! ^ ......o.+.+.X.o.+.+.+.o.+.*.*.*.;.;.;.:.:.;.:.1.1.1.>.                                                                                                                                                                                                                                                  ",
"                                                                                                                                                                                                            T Y P ! P ! ....o.o.+.+.o.o.o.o.o.o.+.+.+.:.*.;.*.*.;.:.1.1.1.1.                                                                                                                                                                                                                                                    ",
"                                                                                                                                                                                                            ` L P J P P P P ! ..o...o.o...X.o.o.o.+.*.*.*.;.;.+.*.*.;.1.1.>.                                                                                                                                                                                                                                                    ",
"                                                                                                                                                                                                            _ R P P P P J P P ..........X...o.o.o.+.+.*.;.;.*.*.+.*.;.:.,.>.                                                                                                                                                                                                                                                    ",
"                                                                                                                                                                                                            F L P P P P P P J ! ( ....{ ......o.+.+.+.*.*.;.;.;.*.+.;.*.*.;.                                                                                                                                                                                                                                                    ",
"                                                                                                                                                                                                            k l B S J Y P P P ! ^ } ............o.+.*.+.*.$.+.*.+.+.+.+.o.+.                                                                                                                                                                                                                                                    ",
"                                                                                                                                                                                                              8 0 t t g z z J P E ( ' ......o...o.+.+.+.*.*.o...o.o.o.o.+.X.                                                                                                                                                                                                                                                    ",
"                                                                                                                                                                                                                              y p p k V P ! ^ ..o.o.+.*.*.*.o...o.o.{ ....|                                                                                                                                                                                                                                                     ",
"                                                                                                                                                                                                                                  $ + = ; 4 7 y g z J ! ( ..' ` ..o.{ ( X.                                                                                                                                                                                                                                                      ",
"                                                                                                                                                                                                                                  * X X X + # # # $ ;     j h b C F U R ~                                                                                                                                                                                                                                                       ",
"                                                                                                                                                                                                                                  < $ $ # # # # + O                                                                                                                                                                                                                                                                             ",
"                                                                                                                                                                                                                                  3 < 1 > ; ; ; % <                                                                                                                                                                                                                                                                             ",
"                                                                                                                                                                                                                                  w 8 q r 0 q 9 8 s                                                                                                                                                                                                                                                                             ",
"                                                                                                                                                                                                                                  a i h h h h h a H                                                                                                                                                                                                                                                                             ",
"                                                                                                                                                                                                                                  c b Z B B B B C Q  .                                                                                                                                                                                                                                                                          ",
"                                                                                                                                                                                                                                  m S U I H I I Y _ -.                                                                                                                                                                                                                                                                          ",
"                                                                                                                                                                                                                                  C U R R U Y Q ~ [ 3.                                                                                                                                                                                                                                                                          ",
"                                                                                                                                                                                                                                  S ~ R R Y P Q ` O.5.                                                                                                                                                                                                                                                                          ",
"                                                                                                                                                                                                                                  C / ~ ~ Q R R ' *.6.                                                                                                                                                                                                                                                                          ",
"                                                                                                                                                                                                                                  h R Q Q ` ~ ~ ~ +.8.                                                                                                                                                                                                                                                                          ",
"                                                                                                                                                                                                                                  x F ~ ` { [ ' / ` =.                                                                                                                                                                                                                                                                          ",
"                                                                                                                                                                                                            4.w.p.w.w.8.8.5.9.5.5.%.%.&.-.>.<.<.>.-.>.5.5.3.3.                                                                                                                                                                                                                                                                  ",
"                                                                                                                                                                                                            @.$.$.>.>.>.2.e.e.e.0.r.r.r.t.u.t.i.i.y.i.u.u.u.y.y.y.9.7.6.7.5.                                                                                                                                                                                                                                                    ",
"                                                                                                                                                                                                            ] o.{ o.o.+.+.*.:.2.1.,.1.2.2.2.2.2.r.2.e.e.7.r.r.r.7.7.7.>.>.5.                                                                                                                                                                                                                                                    ",
"                                                                                                                                                                                                            ] O.o.o.+.+.+.+.7.p.p.y.e.e.1.2.,.2.e.r.1.e.r.7.7.e.7.6.1.5.7.7.                                                                                                                                                                                                                                                    ",
"                                                                                                                                                                                                             .$.o.o.$.*.,.,.p.x.x.b.j.d.q.0.1.2.1.,.<.<.<.2.0.q.7.<.<.<.<.,.                                                                                                                                                                                                                                                    ",
"                                                                                                                                                                                                             .*.*.$.$.:.,.e.s.z.x.n.n.n.b.k.s.w.2.1.,.<.1.1.2.<.7.7.7.<.<.<.                                                                                                                                                                                                                                                    ",
"                                                                                                                                                                                                            #.;.:.:.*.:.,.e.a.a.g.s.f.k.v.k.b.a.2.1.2.<.2.<.q.2.e.7.7.<.7.5.                                                                                                                                                                                                                                                    ",
"                                                                                                                                                                                                            @.:.;.:.*.*.,.p.a.s.s.a.i.i.s.s.s.q.<.<.2.q.2.q.2.q.e.e.7.<.6.6.                                                                                                                                                                                                                                                    ",
"                                                                                                                                                                                                            @.$.o.$.*.*.2.k.g.g.f.g.a.p.i.i.q.1.-.;.;.1.2.2.2.2.7.7.5.,.*.-.                                                                                                                                                                                                                                                    ",
"                                                                                                                                                                                                            | o.+.o.+.*.a.l.l.x.g.s.g.s.a.u.2.>.-.=.=.+.;.1.q.2.7.7.7.7.-.*.                                                                                                                                                                                                                                                    ",
"                                                                                                                                                                                                            X.$.o...{ ,.g.g.g.g.g.s.a.f.s.q.2.;.;.;.=.*.=.1.2.2.e.7.7.5.5.*.                                                                                                                                                                                                                                                    ",
"                                                                                                                                                                                                            @.:.o.{ X.i.g.g.s.a.s.a.p.a.a.q.1.;.;.=.*.+.=.<.<.2.7.7.7.7.e.5.                                                                                                                                                                                                                                                    ",
"                                                                                                                                                                                                            [ ..{ ^ $.g.g.h.g.g.s.s.a.a.u.7.:.*.;.*.+.+.;.2.1.1.7.7.e.e.7.7.                                                                                                                                                                                                                                                    ",
"                                                                                                                                                                                                            ' o...' i.g.g.g.h.k.g.g.s.a.y.<.>.*.=.*.*.+.>.:.<.1.1.7.7.7.7.7.                                                                                                                                                                                                                                                    ",
"                                                                                                                                                                                                            [ { { *.g.k.g.s.g.g.g.g.s.s.e.1.<.:.*.+.*.=.>.>.>.:.1.1.1.1.7.6.                                                                                                                                                                                                                                                    ",
"                                                                                                                                                                                                            ] { ..7.p.s.g.a.i.s.s.a.i.u.7.1.<.:.*.;.+.;.:.:.>.:.1.7.7.7.7.7.                                                                                                                                                                                                                                                    ",
"                                                                                                                                                                                                            ' ' #.i.i.i.i.i.p.i.a.i.u.0.1.<.,.:.;.;.=.;.;.;.;.;.<.7.1.1.7.6.                                                                                                                                                                                                                                                    ",
"                                                                                                                                                                                                            ` ' y.l.h.a.i.i.i.i.u.u.r.1.1.1.:.:.:.;.=.;.;.=.;.=.:.1.1.<.<.7.                                                                                                                                                                                                                                                    ",
"                                                                                                                                                                                                            ` +.g.k.k.g.g.i.t.r.r.r.1.1.1.,.;.:.;.=.:.;.;.;.=.=.*.<.,.<.1.>.                                                                                                                                                                                                                                                    ",
"                                                                                                                                                                                                            ` 7.a.g.g.i.i.p.i.u.t.7.,.1.1.>.;.;.=.=.>.:.;.:.>.=.*.;.:.:.<.1.                                                                                                                                                                                                                                                    ",
"                                                                                                                                                                                                            @.i.a.i.i.i.u.i.i.u.2.2.<.<.<.>.;.*.+.:.:.;.=.:.-.-.*.=.>.:.,.5.                                                                                                                                                                                                                                                    ",
"                                                                                                                                                                                                            6.a.g.a.g.g.a.i.y.r.2.1.2.<.:.:.:.+.+.:.;.:.:.=.:.=.>.>.>.,.>.5.                                                                                                                                                                                                                                                    ",
"                                                                                                                                                                                                            a.s.i.a.i.g.g.a.u.e.:.>.>.:.:.;.=.+.=.:.:.:.<.:.>.>.:.>.:.>.,.5.                                                                                                                                                                                                                                                    ",
"                                                                                                                                                                                                            s.a.i.a.y.r.i.u.r.>.<.<.:.;.=.=.=.=.=.;.:.>.:.:.:.:.>.>.,.>.,.<.                                                                                                                                                                                                                                                    ",
"                                                                                                                                                                                                          p.i.g.i.i.i.u.e.1.:.;.:.1.:.:.;.;.*.*.;.>.;.;.;.:.:.;.;.:.>.>.:.>.                                                                                                                                                                                                                                                    ",
"                                                                                                                                                                                                          g.g.a.a.s.s.a.i.r.7.:.;.1.1.:.;.*.*.*.;.;.;.;.;.=.*.=.;.;.;.;.;.-.                                                                                                                                                                                                                                                    ",
"                                                                                                                                                                                                        p.g.i.i.a.a.i.i.s.a.7.*.;.:.:.;.*.*.+.=.;.;.;.=.;.=.=.*.$.;.:.;.>.>.                                                                                                                                                                                                                                                    ",
"                                                                                                                                                                                                        g.s.a.s.a.a.i.u.u.e.>.*.;.;.;.*.*.+.=.;.;.;.;.=.*.;.=.*.*.&.;.&.;.>.                                                                                                                                                                                                                                                    ",
"                                                                                                                                                                                                      p.s.s.s.s.a.i.a.a.i.r.:.:.*.*.;.*.*.+.=.=.;.>.;.;.;.;.;.;.*.$.*.*.;.;.                                                                                                                                                                                                                                                    ",
"                                                                                                                                                                                                      s.i.s.s.s.a.i.i.i.i.2.:.*.*.*.*.*.+.+.+.=.;.;.>.;.;.>.;.+.$.$.;.*.;.-.                                                                                                                                                                                                                                                    ",
"                                                                                                                                                                                                    p.s.a.s.s.i.a.i.t.t.r.:.*.;.*.*.*.*.+.+.=.=.;.;.;.;.;.;.;.$.*.*.$.$.;.-.                                                                                                                                                                                                                                                    ",
"                                                                                                                                                                                                    i.s.i.s.s.i.i.t.2.2.;.+.+.+.o.+.+.o.+.+.+.;.$.=.;.;.;.;.;.$.$.$.$.*.*.>.                                                                                                                                                                                                                                                    ",
"                                                                                                                                                                                                  y.p.i.i.p.i.u.t.r.1.,.+...........o.o.O.+.+.=.=.=.;.;.;.;.;.$.+.$.$.$.$.$.                                                                                                                                                                                                                                                    ",
"                                                                                                                                                                                                  i.i.i.y.y.u.i.u.r.1.+.o.............o.O.O.$.$.;.$.=.*.;.;.+.$.+.#.$.=.$.$.                                                                                                                                                                                                                                                    ",
"                                                                                                                                                                                                7.y.y.r.7.r.r.0.1.1.;.............( X.X.+.$.+.$.$.$.+.;.=.+.=.+.+.O.$.;.=.=.                                                                                                                                                                                                                                                    ",
"                                                                                                                                                                                                0.0.7.0.r.7.1.>.$.>.+...........} ( X.X.O.O.=.=.+.$.+.+.$.$.+.=.$.+.+.*.-.>.                                                                                                                                                                                                                                                    ",
"                                                                                                                                                                                                <.1.7.r.r.1.>.O.' X.....{ { ' ^ ^ { X.X.X.X.+.+.X.X.o.o.+.$.$.=.;.$.+.$.;.>.                                                                                                                                                                                                                                                    ",
"                                                                                                                                                                                              >.=.$.=.<.1.>.$.X.' ( ' { ' ( ^ ! ( ..X.X.X.O.X.X.X.X.X.o.O.+.+.$.;.;.$.+.$.;.                                                                                                                                                                                                                                                    ",
"                                                                                                                                                                                              $.#.X.' ~ ' X.' ` ' ' ' ( ( ( ~ ~ ' X.X.X.X.X.X.X...X...X.O.o.+.O.#.;.=.$.+.$.                                                                                                                                                                                                                                                    ",
"                                                                                                                                                                                            %.X...[ / ~ ~ ! R ~ [ ' ( ^ ^ ~ ! ^ [ ..| X.X.} X.X.X.X.X.X.X.X.+.+.o.$.$.+.+.$.                                                                                                                                                                                                                                                    ",
"                                                                                                                                                                                            | [ Q Y U Q ( ~ ' ..{ [ ( ~ ! ! Y ~ / } } } } | X.} ....{ ....O.o.....X.o.+.#.+.                                                                                                                                                                                                                                                    ",
"                                                                                                                                                                                            _ ` ~ I F F R R ` ' ~ ` ` ( Y L E ~ Q / ( } } | } } { ' ( ` [ ......' ( ....X.o.                                                                                                                                                                                                                                                    ",
"                                                                                                                                                                                          -.9.y.p.8.7.9.9.5.-.&.` R R ! ! Y E ~ / ~ / } ( } } } ' ' ` ~ ( [ ....{ ' ' | X.#.#.                                                                                                                                                                                                                                                  ",
"                                                                                                                                                                                          5.7.7.6.>.#.O.O.@.X.>.<.@.R F L L R ~ ~ / ~ / ( ( } } ' ` ( / ( ' ' ' ' ..' [ ..O.#.                                                                                                                                                                                                                                                  ",
"                                                                                                                                                                                            X.{ [ ..' ^ ( ;.<.$.#.*.O.] T R Q E ~ / / ` ` ( / ` ' / / / ` ' ' ' ' ' ' ....#.O.                                                                                                                                                                                                                                                  ",
"                                                                                                                                                                                            ) ` ~ [ o.' [ *.1.<.#.#.o.o.X.~ R R W ~ / } ' ' ' / ` / / ~ ~ ` ' ' ` ' ' ' ....#.                                                                                                                                                                                                                                                  ",
"                                                                                                                                                                                            U ` ` ( ' ..X.o.$.1.6.$.$.$.X.~ Y Y W U W / / ' ' ' ' ` / / ( ( ' [ ' ' ' ' [ X.X.                                                                                                                                                                                                                                                  ",
"                                                                                                                                                                                              Q ~ ~ ` ..X.' ( +.e.:.$.$.$.` U U Y U Y Q Q ~ / ` ' [ ' ` ` ( ( ` ( ` ( ` [ X.X.                                                                                                                                                                                                                                                  ",
"                                                                                                                                                                                              I U Y R ~ ~ ~ ~ ..7.>.&.*.*.[ Y U L U Y W Q ~ ~ / ( ' ` ' / ~ ~ ~ ~ ~ ` ~ ( ' ..                                                                                                                                                                                                                                                  ",
"                                                                                                                                                                                              C Z Z I Y P Y ! ( :.>.;.$.*.X.U L U K K U R E E ~ ~ ~ ( ` ` ~ ~ ~ ~ ~ ~ ~ ` ' |                                                                                                                                                                                                                                                   ",
"                                                                                                                                                                                                v j h N K L L L X.:.$.$.*.+.R U U L K K K R R E ~ ~ ~ ~ ~ ~ ~ ! ~ ~ ~ ~ ` ` '                                                                                                                                                                                                                                                   ",
"                                                                                                                                                                                                h d i h V K L K ] :.;.;.*.$.R P Y U I K F K L U R E ~ ~ ~ ~ R R Q Q ~ ! ~ ( `                                                                                                                                                                                                                                                   ",
"                                                                                                                                                                                                p s p s B S S J E ;.>.;.;.;.~ D I I I T R P I I P Y R ~ _ ! ! R P Y E Y Q Q ^                                                                                                                                                                                                                                                   ",
"                                                                                                                                                                                                  C S B z z V S L =.<.<.<.;./ S J K J I U U U R P Y R ! ! ! R R Y R R Y E E Q                                                                                                                                                                                                                                                   ",
"                                                                                                                                                                                                  D F H F F S S J X.1.1.1.1.} S Z Z J Z K U P P R P R R R R Y ! R Y R Y Y Y R                                                                                                                                                                                                                                                   ",
"                                                                                                                                                                                                  a s k S U K S J } 1.0.0.1.O.S Z B B B J K I I P U U R R ! R R Y Y Y Y P Y R R                                                                                                                                                                                                                                                 ",
"                                                                                                                                                                                                    u u s S H K K ! 1.r.r.2.=.S m B N N N N J J U I U U U U ! U U U U Y U U Y R                                                                                                                                                                                                                                                 ",
"                                                                                                                                                                                                    0 0 i b S F L L ;.r.q.u.<.F b N N N N j N B J I I U U I R R Y U U U U U Y )                                                                                                                                                                                                                                                 ",
"                                                                                                                                                                                                    w u u k S S J K ..1.0.q.0.U N j b N N j j b m J J K I I I T Y U I I U U U Y                                                                                                                                                                                                                                                 ",
"                                                                                                                                                                                                      w u s S K K J ^ 1.1.0.0.Q b N j j N N b N N N N C Z J K I U U I I K Z A I                                                                                                                                                                                                                                                 ",
"                                                                                                                                                                                                      0 e i b S U L ! ,.0.0.q.} N j j j c N N b b b N N J B J J K K K Z Z C C Z                                                                                                                                                                                                                                                 ",
"                                                                                                                                                                                                        0 i u k I Q E =.2.0.q.| N b j j j j b N C J B c g j b b c g h r u e r r                                                                                                                                                                                                                                                 ",
"                                                                                                                                                                                                        0 9 9 i S ~ ~ +.r.0.0.O.g d i q f N j P ] [ { I b I K K x                                                                                                                                                                                                                                                               ",
"                                                                                                                                                                                                        3 6 9 t l E W ..0.0.r.#.; % ; : d f g U [ 3.[ $.[ { [ [ T                                                                                                                                                                                                                                                               ",
"                                                                                                                                                                                                          7 0 t h I U E 6.e.e.5.5 % 4 4 q q d U @.#.+.{ +.#.+.#.)                                                                                                                                                                                                                                                               ",
"                                                                                                                                                                                                          8 0 0 a Z K L ;.e.e.9.r @ 4 7 y y y I @.&.#.#.#.$.$.&.]                                                                                                                                                                                                                                                               ",
"                                                                                                                                                                                                          w 9 0 i Z Z J O.7.y.y.c @ 4 7 y d g I &.$.$.%.&.=.;.>.@.]                                                                                                                                                                                                                                                             ",
"                                                                                                                                                                                                            8 0 i V V V { 7.e.e.A + = 5 d j N I &.=.$.=.=.>.5.>.%.%.                                                                                                                                                                                                                                                            ",
"                                                                                                                                                                                                            8 6 u V B z ^ 1.0.u.| = X 1 t i l L =.-.>.>.<.>.<.7.-.-.                                                                                                                                                                                                                                                            ",
"                                                                                                                                                                                                              8 q C S V Y ;.0.u. .- O 1 t t k F =.=.>.6.7.7.1.7.5.>.8.                                                                                                                                                                                                                                                          ",
"                                                                                                                                                                                                              0 0 B F S K $.0.u.-.3 $ > 7 t d S $.-.>.1.7.7.7.1.5.7.9.                                                                                                                                                                                                                                                          ",
"                                                                                                                                                                                                              u 0 s I K K X.0.0.6.u = , t t g S #.>.>.0.q.7.>.7.5.>.q.                                                                                                                                                                                                                                                          ",
"                                                                                                                                                                                                                6 0 S F S } 1.1.3.v < 2 q p l V X.-.;.7.y.7.>.<.>.7.y.9.                                                                                                                                                                                                                                                        ",
"                                                                                                                                                                                                                2 2 k K S E >.>.-.A 8 w q i d V O.>.$.>.q.7.7.>.>.7.q.y.                                                                                                                                                                                                                                                        ",
"                                                                                                                                                                                                                2 , 7 k h B O.=.>.H e 0 0 q y B O.>.>.<.7.6.<.7.7.6.y.y.                                                                                                                                                                                                                                                        ",
"                                                                                                                                                                                                                  1 , 6 6 i ` =.5.) s t 0 q d V ..>.>.<.7.>.<.>.>.7.q.y.                                                                                                                                                                                                                                                        ",
"                                                                                                                                                                                                                  > > 7 0 t Y $.5.] v e e q d B ' =.=.;.<.<.<.>.>.q.y.p.w.                                                                                                                                                                                                                                                      ",
"                                                                                                                                                                                                                    ; 7 y f K #.>.@.m e 9 9 q g ( ;.;.;.>.<.>.-.>.7.y.p.p.                                                                                                                                                                                                                                                      ",
"                                                                                                                                                                                                                    ; 1 q h V X.5.%.c 1 6 9 q j ^ ;.;.>.>.,.>.>.5.8.y.y.p.                                                                                                                                                                                                                                                      ",
"                                                                                                                                                                                                                    - ; 6 i l [ >.&.v 8 q q t j ~ *.;.;.>.<.>.>.>.7.0.y.p.q.                                                                                                                                                                                                                                                    ",
"                                                                                                                                                                                                                      - ; 7 y ~ &.&.M 0 q q q g ! *.*.;.;.,.>.>.-.0.q.q.p.y.                                                                                                                                                                                                                                                    ",
"                                                                                                                                                                                                                      % % : 6 N X.#.A r i q q g ! $.$.;.;.>.<.>.<.<.1.q.y.w.                                                                                                                                                                                                                                                    ",
"                                                                                                                                                                                                                        % & % 5 m A v r r q y g Y $.*.;.>.>.<.5.>.6.6.0.p.y.                                                                                                                                                                                                                                                    ",
"                                                                                                                                                                                                                        # O $ & < a s r i q q g P $.$.;.>.<.7.>.>.6.0.0.q.y.q.                                                                                                                                                                                                                                                  ",
"                                                                                                                                                                                                                                  v s u i i r h P *.*.*.>.7.0.>.6.6.7.0.q.y.q.                                                                                                                                                                                                                                                  ",
"                                                                                                                                                                                                                                  c s u u i y g L o.+.;.>.7.7.6.<.<.6.0.q.y.q.                                                                                                                                                                                                                                                  ",
"                                                                                                                                                                                                                                  v c a u i u f K o.*.$.;.6.7.7.6.>.,.0.q.q.q.8.                                                                                                                                                                                                                                                ",
"                                                                                                                                                                                                                                  m c a i i y f K o.+.$.;.>.7.7.7.>.=.<.0.y.y.0.                                                                                                                                                                                                                                                ",
"                                                                                                                                                                                                                                  m c a r y i f J o.+.*.-.>.<.7.6.>.>.>.0.q.y.0.                                                                                                                                                                                                                                                ",
"                                                                                                                                                                                                                                  v b a r u i f V o.+.;.>.>.<.6.6.>.=.>.0.q.q.6.                                                                                                                                                                                                                                                ",
"                                                                                                                                                                                                                                  m b h u i y f V ..+.+.=.>.<.7.7.<.;.>.6.q.0.<.>.                                                                                                                                                                                                                                              ",
"                                                                                                                                                                                                                                  m v d u i i f z X.$.=.=.>.<.<.6.6.;.;.<.q.0.<.6.                                                                                                                                                                                                                                              ",
"                                                                                                                                                                                                                                  n v u r i u d B { +.+.=.<.1.7.7.<.;.=.>.0.q.6.>.                                                                                                                                                                                                                                              ",
"                                                                                                                                                                                                                                  n v a i i i d z { +.*.-.>.<.6.<.<.;.=.-.7.y.7.<.5.                                                                                                                                                                                                                                            ",
"                                                                                                                                                                                                                                  M n h a i i d z { +.*.=.>.<.1.6.<.=.=.>.6.q.q.7.6.                                                                                                                                                                                                                                            ",
"                                                                                                                                                                                                                                  C H v i d i d j ( $.+.=.>.<.6.7.<.$.=.=.<.0.y.7.6.                                                                                                                                                                                                                                            ",
"                                                                                                                                                                                                                                    G v i a i d j ^ *.+.*.;.>.1.7.;.| =.=.>.-.6.7.7.                                                                                                                                                                                                                                            ",
"                                                                                                                                                                                                                                    M s a i i d g ~ +.$.$.;.>.8.7.=.] +.$.$.=.=.6.7.6.                                                                                                                                                                                                                                          ",
"                                                                                                                                                                                                                                    m s a h d d g ~ +.+.$.&.>.7.1.;.~ ' ..O.=.=.<.7.8.                                                                                                                                                                                                                                          ",
"                                                                                                                                                                                                                                    m h h h d i j E +.+.$.$.>.7.7.;.( ~ [ X.&.-.6.7.7.                                                                                                                                                                                                                                          ",
"                                                                                                                                                                                                                                    n s h h h f j Q $.$.$.=.-.>.6.*.~ Q X.| O.&.-.7.0.5.                                                                                                                                                                                                                                        ",
"                                                                                                                                                                                                                                    m x s l z f k E $.=.$.=.>.>.7.;.R U [ X...#.=.6.q.8.                                                                                                                                                                                                                                        ",
"                                                                                                                                                                                                                                    v s s h h f h L +.$.$.=.=.=.<.<.Q I ' | X.&.=.>.q.q.                                                                                                                                                                                                                                        ",
"                                                                                                                                                                                                                                    c s h a h h g Y $.$.$.=.>.=.>.<.R S _ ....#.=.-.5.q.                                                                                                                                                                                                                                        ",
"                                                                                                                                                                                                                                    h a u a s l l U #.;.;.=.=.>.>.>.R B T ' [ #.=.-.>.7.q.                                                                                                                                                                                                                                      ",
"                                                                                                                                                                                                                                    c s a i a h l L #.=.=.=.=.;.;.>.R l U ` [ #.-.>.>.6.q.                                                                                                                                                                                                                                      ",
"                                                                                                                                                                                                                                    x a a u i i d F +.;.=.=.=.=.;.>.R d H Q [ X.=.-.>.<.8.                                                                                                                                                                                                                                      ",
"                                                                                                                                                                                                                                    s a i a i u u b X.-.=.=.+.$.;.;.Q i B R [ X.-.>.-.>.6.3.                                                                                                                                                                                                                                    ",
"                                                                                                                                                                                                                                    c a a a u u u l ..$.$.$.=.;.=.;.~ t h I ' | &.-.>.>.6.6.                                                                                                                                                                                                                                    ",
"                                                                                                                                                                                                                                    s a u u u i u l | $.$.&.+.=.=.;._ t q Z Q ' X.&.-.>.>.6.                                                                                                                                                                                                                                    ",
"                                                                                                                                                                                                                                    a a e e r u i k ' &.O.$.$.$.$.;./ u d N T [ | #.>.>.>.5.3.                                                                                                                                                                                                                                  ",
"                                                                                                                                                                                                                                    e 8 8 8 0 q p k ~ X.O.#.$.=.$.;./ 0 y l U ' #.=.-.>.5.>.-.                                                                                                                                                                                                                                  ",
"                                                                                                                                                                                                                                    8 2 8 0 e e u h ~ X.O.O.$.$.$.;.` 6 8 y F _ #.=.-.-.>.-.5.                                                                                                                                                                                                                                  ",
"                                                                                                                                                                                                                                    r u e 0 8 9 q q Y ....X.o.$.+.$.` 1 4 7 l Q O.#.=.>.>.-.>.%.                                                                                                                                                                                                                                ",
"                                                                                                                                                                                                                                      a u e 0 8 0 q V | | X.O.#.+.$.` 1 : 6 q I ' | X.=.=.=.=.%.                                                                                                                                                                                                                                ",
"                                                                                                                                                                                                                                      a e r r 0 0 0 V ` ' [ O.o.+.$.' 5 = , 7 N R ~ ~ ( | | X.#.                                                                                                                                                                                                                                ",
"                                                                                                                                                                                                                                      x e e 8 8 9 0 N ~ ` ` { ..{ $.' 5 % ; , g K Y Y ! ` [ { [                                                                                                                                                                                                                                 ",
"                                                                                                                                                                                                                                      r e 8 2 1 5 9 j R ~ ( ( ` { { _ 8 ; = ; y V R ^ ` ` [ [ {                                                                                                                                                                                                                                 ",
"                                                                                                                                                                                                                                      e w 8 8 1 1 9 j I Y Q ~ ' [ { ^ 9 : : : q N R ` { ` ` ` { '                                                                                                                                                                                                                               ",
"                                                                                                                                                                                                                                      r e r e 9 1 9 j K K L Y E ( { ~ 9 ; : 4 7 b K ! ! ! { [ ` '                                                                                                                                                                                                                               ",
"                                                                                                                                                                                                                                      c v v h i i f Z U U Y P R _ ( ~ r 5 5 7 y N K P ! ` ` ` [                                                                                                                                                                                                                                 ",
"                                                                                                                                                                                                                                      A A C B C A Z Q [ ` ` [ ~ ! _ ^ a 5 5 q y N U ~ ( { [ { {                                                                                                                                                                                                                                 ",
"                                                                                                                                                                                                                                    A H A C Z Z Z R X.O.X.X.[ [ { { ~ x 9 q y d B Y ~ ( [ O.O.{                                                                                                                                                                                                                                 ",
"                                                                                                                                                                                                                                    H H m C H F I R ] ' [ { { @.[ [ ` f q q y d B Y ( ( { { { {                                                                                                                                                                                                                                 ",
"                                                                                                                                                                                                                                    T H B m F I H W ~ } Q } | #.&.$.R i r q y g B P ! ^ ( { ' `                                                                                                                                                                                                                                 ",
"                                                                                                                                                                                                                                    H H Z Z I F H W W ~ ~ } | | { [ B r q r y g V P Y ^ { ' ' `                                                                                                                                                                                                                                 ",
"                                                                                                                                                                                                                                    T H H I H I U ~ ~ ~ / / | | [ ` c r q q q g V P Y ^ ' ( ( `                                                                                                                                                                                                                                 ",
"                                                                                                                                                                                                                                  T R I H F F I Q / / / | | | | [ T r q q q q g B K Y ! ^ ^ ` `                                                                                                                                                                                                                                 ",
"                                                                                                                                                                                                                                  T Q T H F H Q } ` ` | | | | | [ b q r q q y g V L ! ^ ( ~ ` `                                                                                                                                                                                                                                 ",
"                                                                                                                                                                                                                                  T R U I S Z U ` } | ` ~ } | | ) d r q r d d g V P ! ! ( ` (                                                                                                                                                                                                                                   ",
"                                                                                                                                                                                                                                  Q W U H H F W ` } ` ` / } ` | I h i i d d d j V Y ! ! ^ ( ~                                                                                                                                                                                                                                   ",
"                                                                                                                                                                                                                                T Q R W U U U W | ` ` ~ ) ` } | M d d r r d d z K ! ! ! ( ' `                                                                                                                                                                                                                                   ",
"                                                                                                                                                                                                                                ) T R U U I Y ~ ~ Q ~ ~ ~ / ` }   a r r t q y z L ! ! ^ ( ..}                                                                                                                                                                                                                                   ",
"                                                                                                                                                                                                                                R Q U U I I I ~ Q E Q Q Q ~ `     h r r 7 0 y z K ! ! ! ( ( ~                                                                                                                                                                                                                                   ",
"                                                                                                                                                                                                                                W R U U U I Q ~ Q E Q E Q Q Q     h i i y p f V L ! ! ^ ' | Q                                                                                                                                                                                                                                   ",
"                                                                                                                                                                                                                                Q R R R Y R ~ Q E E ~ ~ Q ~ Q     j a a p d f z K ! ! ! } X.`                                                                                                                                                                                                                                   ",
"                                                                                                                                                                                                                              W Q R R R Y Q Q E E ~ ! E ~ _       h i i i r i V K E ! ! ~ ` /                                                                                                                                                                                                                                   ",
"                                                                                                                                                                                                                              Q Q R Q Q R Q Q Q Q E Q ~ ~ Q       a a h d u i B L ! ! ~ Q ~ _                                                                                                                                                                                                                                   ",
"                                                                                                                                                                                                                              Q Q Q Q W Q ~ E E E ~ ~ Q _         h a h h i d V K ! ! ~ / `                                                                                                                                                                                                                                     ",
"                                                                                                                                                                                                                              Q ) ~ Q Q ~ Q E Q Q Q Q ~ ~         h h a i h d V L ! ! / ` '                                                                                                                                                                                                                                     ",
"                                                                                                                                                                                                                              ` ` ) Q ~ / Q E R ! Q ~ ~ Q         s s a i k p V L ! ! ' ' /                                                                                                                                                                                                                                     ",
"                                                                                                                                                                                                                            ) ` ~ Q Q Q Q E W Q Q E ~ Q           k s a i p f V L ! ~ ( ' /                                                                                                                                                                                                                                     ",
"                                                                                                                                                                                                                            ) _ ) Q Q _ E R R E Q Q ~ Q           k k u u s h S L ! ~ / ` `                                                                                                                                                                                                                                     ",
"                                                                                                                                                                                                                            _ ~ Q Q Q Q E E R E Q Q ~             k s i i i s S P ! ~ / / `                                                                                                                                                                                                                                     ",
"                                                                                                                                                                                                                            ] ` ) Q W ~ R R E R E ~ ~             h h a u i p S L E ~ ` ' `                                                                                                                                                                                                                                     ",
"                                                                                                                                                                                                                          ) _ Q ) Q Q Q Y R E E Q ~ T             l h u u t p S L E / | ' _                                                                                                                                                                                                                                     ",
"                                                                                                                                                                                                                          Q ) Q Q Q Q W R E E Y Q ~               k s u i u f V L Y Q | '                                                                                                                                                                                                                                       ",
"                                                                                                                                                                                                                          Q ) Q Q T W W Y Y R Y ~ W               v s a i t f V L E ~ | }                                                                                                                                                                                                                                       ",
"                                                                                                                                                                                                                          ) _ Q U U E E Y R R Q ~ W               v s u i u h S L R ~ ' '                                                                                                                                                                                                                                       ",
"                                                                                                                                                                                                                          ` Q W W Y R W Y Y Y E Q                 l s u u u h S Y E / ' `                                                                                                                                                                                                                                       ",
"                                                                                                                                                                                                                        W Q T T U W Y U Y Y Y W Y                 c h u t 0 g S L E ` | `                                                                                                                                                                                                                                       ",
"                                                                                                                                                                                                                        Q T U U U R Y Y U L K R                   h a q 9 7 h S Y W ` ' `                                                                                                                                                                                                                                       ",
"                                                                                                                                                                                                                        T U H F H Y U U L Y L I                   h i 0 9 0 k S Y E ` ' `                                                                                                                                                                                                                                       ",
"                                                                                                                                                                                                                        U I U H F Y U U Y Y L F                   k u 0 0 7 g V Y Q ` ` ~                                                                                                                                                                                                                                       ",
"                                                                                                                                                                                                                        I U I F W U U Y U U L                     v i q 7 q k V Y Q ` ' _                                                                                                                                                                                                                                       ",
"                                                                                                                                                                                                                      I U I F I E Y U L K K K                     s u q 7 q k V U Q ` `                                                                                                                                                                                                                                         ",
"                                                                                                                                                                                                                      I U U K F L L L L K K                       a 0 8 6 7 k B L W ~ Q                                                                                                                                                                                                                                         ",
"                                                                                                                                                                                                                      U I F F K K K L L K J                       u 9 6 7 q k V K K I I                                                                                                                                                                                                                                         ",
"                                                                                                                                                                                                                      I K Z Z K F K K K K K                         6 2 7 q k V F V K I                                                                                                                                                                                                                                         ",
"                                                                                                                                                                                                                    H I F F F K K F K K K                           6 8 8 7 k z V V L Y                                                                                                                                                                                                                                         ",
"                                                                                                                                                                                                                    H I F K K K K J K K J                           8 8 6 7 g B F K U U                                                                                                                                                                                                                                         ",
"                                                                                                                                                                                                                    I K V K L K J K J J V                           8 6 6 7 h B K K K Z                                                                                                                                                                                                                                         ",
"                                                                                                                                                                                                                    F Z Z K K J K J K J                             8 6 6 7 h z B B V V                                                                                                                                                                                                                                         ",
"                                                                                                                                                                                                                    Z V V Z V V J J J F                             1 , : 7 d g l z V                                                                                                                                                                                                                                           ",
"                                                                                                                                                                                                                  Z F B j N B V J J J                               1 ; : 6 d z B V Z                                                                                                                                                                                                                                           ",
"                                                                                                                                                                                                                  Z B j a d z z z V V                               5 : : 7 r j N B V                                                                                                                                                                                                                                           ",
"                                                                                                                                                                                                                  C b j y d z g g j z                               5 1 : 6 r j z B B                                                                                                                                                                                                                                           ",
"                                                                                                                                                                                                                  b j h q d d f g z                                 5 1 , 7 q g N B B                                                                                                                                                                                                                                           ",
"                                                                                                                                                                                                                h h f r d g d d f l                                 1 1 , 7 i g j j b                                                                                                                                                                                                                                           ",
"                                                                                                                                                                                                                a d r q y d d d d d                                 1 1 ; 7 q d d f j                                                                                                                                                                                                                                           ",
"                                                                                                                                                                                                                d r q d d d d d f                                   1 1 ; 5 q d i d f                                                                                                                                                                                                                                           ",
"                                                                                                                                                                                                                a a y f d d d d i                                   1 - ; 6 9 q u h                                                                                                                                                                                                                                             ",
"                                                                                                                                                                                                                8 8 6 q i y y f                                     - * * 5 9 0 u i                                                                                                                                                                                                                                             ",
"                                                                                                                                                                                                                O O & 5 q 7 q y                                     & O O ; 5 9 0 9                                                                                                                                                                                                                                             ",
"                                                                                                                                                                                                                  . o & : 4 7 6                                     O O O & % & * &                                                                                                                                                                                                                                             ",
"                                                                                                                                                                                                                        X & -                                                                                                                                                                                                                                                                                                   ",
"                                                                                                                                                                                                                                                                                                                                                                                                                                                                                                                                ",
"                                                                                                                                                                                                                                                                                                                                                                                                                                                                                                                                ",
"                                                                                                                                                                                                                                                                                                                                                                                                                                                                                                                                ",
"                                                                                                                                                                                                                                                                                                                                                                                                                                                                                                                                "
};
